alanchuang0921/RL-path-planning/controller/controller_final_test/robot_path_csv/joint_poses_4faceS_wp7cm_0626.csv
Joint1,Joint2,Joint3,Joint4,Joint5,Joint6
1.5715261692147253,-1.6077315361419096,1.5908612382737541,-0.0468529924169543,1.5591508636440061,-0.03735607147566477
1.5714624157523223,-1.6486590228960274,1.6133971691672186,-0.10057845216916485,1.552329787867407,-0.08443667344848327
1.5678139532451763,-1.6786958663167713,1.6338427937939601,-0.1542573820069819,1.5425414857740745,-0.13700076021836283
1.563304785461456,-1.7097616839465324,1.6612418521512686,-0.20542629390474954,1.5356565655437915,-0.1881696895977475
1.558283966263207,-1.7354668759415446,1.680377214746329,-0.25780354406198125,1.5324279513814816,-0.23535922548965116
1.5526923633301695,-1.7550144850302007,1.706152966600678,-0.31149137853197484,1.5272866668673146,-0.2806416310599843
1.5479352820829728,-1.7702657995120903,1.7335623981804402,-0.36517029290273495,1.522938983646134,-0.3161168780245672
1.5449840986966787,-1.7810531478106089,1.7612793934581605,-0.41884921944060505,1.5198051304880074,-0.3515420912914523
1.5365477735102486,-1.7840699464260383,1.7860805889685378,-0.4682948676045786,1.5188749700362834,-0.37668501250990294
1.5321313229459599,-1.7976389006630418,1.809342993624491,-0.515403499618988,1.52121038714189,-0.39221269311886375
1.5292928964792618,-1.8059082195153955,1.8325534772087513,-0.5678398924150301,1.5238287562008088,-0.4154141885227117
1.5229397277896959,-1.8101647071800462,1.8567626930284673,-0.6173247224998537,1.5246016683525216,-0.4324422929693389
1.5229294049186166,-1.8089284928944889,1.876114736514258,-0.6669029063808987,1.524708934371794,-0.4476962105524981
1.527385619344267,-1.804889265535236,1.900236738954838,-0.7181596290705272,1.5298162874037693,-0.457415903843985
1.5251855572009747,-1.7948335661819745,1.9215247251846987,-0.769380218236333,1.531827664806492,-0.4614241524390529
1.52508665546602,-1.7879026585422326,1.9453171386827597,-0.821756306368699,1.5337989003899635,-0.4684650989898408
1.5308798442103193,-1.7898751123008638,1.9676961603579597,-0.8754437285191896,1.5350689600995127,-0.4654817805102427
1.5292276502869306,-1.781868606684286,1.9910597806522397,-0.9266119378108311,1.5434255794493705,-0.4660179161705361
1.5242425439049452,-1.7770252864266007,2.00711099196226,-0.9761367072758489,1.5490894598114169,-0.46036028081137403
1.5280859066071162,-1.7700333060520737,2.0250224722961896,-1.0285374958572957,1.555995866592366,-0.446052603114761
1.5268495643442743,-1.7626601369935235,2.0392783950369853,-1.075508366924372,1.560831359978399,-0.43716362402530234
1.5248003326720627,-1.7503689724265565,2.0583711637843556,-1.1292322275225057,1.5677058292914277,-0.41536377136894004
1.520482435425131,-1.7373775140767318,2.075469715039692,-1.1803995387099793,1.5768684721263175,-0.39919689861225943
1.5154776093350781,-1.7253066752246455,2.097421258001926,-1.234094971648008,1.5852310396143292,-0.37948423678503806
1.512279301083266,-1.7118333114996016,2.1136309105055333,-1.2852628598871112,1.5890710963488832,-0.3604789445413026
1.5123747013228612,-1.694721182192603,2.1282379313297115,-1.337639488753788,1.59078850986687,-0.33100229763966255
1.5146283629793942,-1.6787303046894633,2.139532767704176,-1.388835719899741,1.5972895824265174,-0.30479330876316096
1.5085407290936332,-1.6648181414301009,2.1507145340879688,-1.4412119042553302,1.6018463282554996,-0.26990143259099025
1.4989564109310607,-1.6432506590910265,2.162841169909166,-1.4948990735244436,1.6048431571058028,-0.24145658665187078
1.492610492755166,-1.6194306150717848,2.175551630122087,-1.5460670429234202,1.611052035847204,-0.22010387939823564
1.4796987787630063,-1.6010889731729225,2.1854452528108106,-1.5955915931292042,1.6154665090194562,-0.1987589257723043
1.4768338887479362,-1.5755026914432042,2.1958808843244952,-1.649298014051169,1.6176979486131728,-0.16666588897558185
1.4636817106626576,-1.5532978522732939,2.1989453647584982,-1.6962079383145152,1.6198714889277552,-0.1327661970314675
1.4583890470992087,-1.5332292972311938,2.2082559548620893,-1.7475216824728665,1.6195965663877705,-0.09395307504937411
1.4470131999324987,-1.511750112674,2.2180948703898897,-1.798740665214769,1.6211110832092304,-0.06445069871125086
1.448959400983904,-1.4836592516973204,2.2259220194721228,-1.8511164033600274,1.6168092134004848,-0.02414230009046425
1.4406143863603498,-1.4546853649874996,2.2327873357881205,-1.9048034824067006,1.613492664028488,0.011333506825591139
1.4315890322013196,-1.4191430101180622,2.239113387360849,-1.9559713475744545,1.6114170132467533,0.047528948610078066
1.427397734690577,-1.3986013265729822,2.2414346955635875,-2.0054958362251796,1.6077322005599581,0.08081047665021711
1.4184694394544022,-1.373990509881201,2.242953506224052,-2.055072302192336,1.60635410176357,0.12002875090475944
1.4067848611522882,-1.3403564713838785,2.2412938051263414,-2.1074720362628145,1.6028931772125112,0.1452848620246643
1.3947000189463545,-1.3043187354507564,2.245322079256465,-2.161158908877084,1.5981464293437049,0.16497753074207058
1.3869281026320317,-1.268910616596811,2.2418194547803885,-2.2148370770394203,1.5960004760856557,0.18736277792605918
1.3825223958005493,-1.2427527912690974,2.238898631474814,-2.267176796417398,1.5942092241879329,0.21551796505555892
1.378236972893197,-1.21004637053078,2.234934563902353,-2.3166641537846893,1.59016171673154,0.23709540006802737
1.3784607596549734,-1.184434151941153,2.2300727408181507,-2.366241761041849,1.5872426758835205,0.2582184303467615
1.3693386681035296,-1.1614198027491154,2.2236357017848976,-2.415816504027365,1.582562461053886,0.26782348748190005
1.3698682679713645,-1.133333614639,2.216529271988163,-2.468216234847324,1.5814429908770373,0.2750252234095519
1.3694811684277568,-1.1128704049206106,2.2113307984496404,-2.5174827517881866,1.5764843067953722,0.2767508922980806
1.369590679085892,-1.0933205962635715,2.200652056798296,-2.556184922941554,1.5752663035449577,0.2824290369597694
1.3684506880459717,-1.0710065362716426,2.1928565796106505,-2.5860412755189386,1.5771081974722236,0.27375078106583467
1.3689560156695288,-1.0545093248300383,2.1809418875718722,-2.6053015659612124,1.5797610241614053,0.26705710100327584
1.3711243373415476,-1.0391010668553462,2.1699388984281653,-2.634477899794408,1.5832312517382194,0.27138562523804743
1.37359996500878,-1.0236585855180436,2.1614863539726454,-2.655511669304662,1.582743302514322,0.26816878611925765
1.3721883524304468,-1.0099875274621235,2.154721161477606,-2.6794904132945554,1.5787889521947271,0.2568209569714438
1.3678118140240245,-0.9988834621194405,2.144095090173117,-2.6912995958841406,1.5792369437895957,0.24435194544154853
1.36582629784884,-0.9849521838638382,2.1359873117428245,-2.7094920780513796,1.5808757817323007,0.251194210786728
1.366954338213999,-0.9747951312630179,2.1244535241518476,-2.721669706392222,1.5791419765491168,0.24934922957049774
1.365550899346557,-0.9648315315354978,2.117710202560998,-2.731681109375601,1.581468876582264,0.2399899598952295
1.3655002187662435,-0.9644940162063432,2.1174875360544143,-2.732017913269279,1.5815527382424748,0.23966379076204708
1.3633173685566766,-0.9608897410082332,2.113868698107217,-2.729358395283591,1.5781106963325569,0.230850361962315
1.3618314149120863,-0.9584367004251689,2.1114073609437014,-2.727549824335641,1.5757701030478282,0.22485711871666342
1.3608210751864127,-0.956768753964066,2.109733688311816,-2.726320001557308,1.5741784963356056,0.22078168062274742
1.3601341334597894,-0.9556346522102402,2.1085956204401786,-2.725483727063904,1.5730962027939244,0.21801037379628171
1.3596670744269308,-0.9548635329219844,2.10782175428519,-2.7249150639641644,1.5723602428913193,0.2161258831562588
1.3593495161874551,-0.9543392194759406,2.1072955387891263,-2.7245283755155176,1.5718597900480402,0.21484442936100442
1.3591336051592167,-0.9539827187868039,2.1069377213560183,-2.724265429052287,1.5715194820544014,0.21397304099857617
1.3589868051235974,-0.9537403203937804,2.1066944116531183,-2.7240866266019674,1.5712880725745293,0.2133804971345513
1.358886994346517,-0.9535755044944847,2.106528965216234,-2.7239650417132397,1.571130714092928,0.2129775674650927
1.358819132029145,-0.9534634398823579,2.106416464456175,-2.723882364516575,1.5710237102975053,0.2127035753902775
1.3587729917802664,-0.9533872428756985,2.1063399658475177,-2.723826144380883,1.5709509476951318,0.21251726084030745
1.3587416205755498,-0.9533354336180714,2.106287948086596,-2.723787914931544,1.5709014691094423,0.2123905669825481
1.3587202909861784,-0.9533002065192795,2.1062525768853533,-2.7237619190708307,1.5708678236594065,0.21230441518066487
1.3587060403038755,-0.9492676976315952,2.106066970610829,-2.7275936676586743,1.5708449447441488,0.2122458320000928
1.3586960212437404,-0.9465229620283638,2.105941204949786,-2.7301991521049245,1.5708293870742052,0.21220599544344934
1.3586892314699495,-0.9446567021019163,2.105855639147838,-2.7319708897557407,1.570818807855609,0.21217890658959734
1.3586846332331612,-0.9433877742493096,2.1057974222190756,-2.7331756775691387,1.570811613983952,0.21216048617177344
1.3586815191087354,-0.9425249913665842,2.1057578126355723,-2.733994937395565,1.570806722149105,0.21214796028932817
1.3586794100474977,-0.9419383589249171,2.1057308630238394,-2.7345520368346334,1.5708033956999439,0.2121394426902768
1.3586779816575063,-0.9415394896113884,2.105712526982522,-2.734930866314505,1.5708011337135073,0.212133650723538
1.3586770142579399,-0.9412682861786188,2.1057000514474438,-2.7351884716216306,1.5707995955620393,0.21212971218653384
1.3586763590719961,-0.9410838866716051,2.1056915632959727,-2.7353636440858513,1.5707985496185684,0.21212703398160504
1.358675915339049,-0.9409585078011349,2.105685788092856,-2.735482761942221,1.5707978383766856,0.21212521280240043
1.3586756148168595,-0.9408732588624127,2.1056818587355517,-2.735563762478878,1.5707973547319845,0.21212397440063255
1.3586756618200144,-0.936787467490138,2.1054619197216,-2.7394318265012387,1.570797025853682,0.21212313229192495
1.3586753657072759,-0.9340064947451547,2.105312795259175,-2.7420620056042226,1.570796802214909,0.21212255965795623
1.3586751869890163,-0.932115595744352,2.105211345353783,-2.7438505357016627,1.5707966501415902,0.21212217026687494
1.3586750838689303,-0.9308299149323809,2.105142327211254,-2.7450667424328365,1.5707965467315932,0.2121219054809657
1.3586750261445841,-0.9299557411451089,2.105095372784934,-2.745893767158347,1.570796476412686,0.21212172542656393
1.3586749952426478,-0.9293613636455271,2.105063428666753,-2.7464561467519584,1.5707964285957638,0.2121216029895797
1.3586749798686697,-0.9289572282087608,2.105041696351206,-2.7468385667524413,1.5707963960802196,0.21212151973243545
1.3586749732295087,-0.9286824441634716,2.105026911342599,-2.7470986136240407,1.570796373969627,0.21212146311758043
1.3586749712989221,-0.9284956100787803,2.1050168527441944,-2.747275446359162,1.5707963589344125,0.21212142461948105
1.3586749717376005,-0.9283685758577361,2.105010009633775,-2.747395693204515,1.5707963487104601,0.21212139844077407
1.3586749732235504,-0.9282822013907908,2.105005354097212,-2.747477461456902,1.570796341758171,0.21212138063925542
1.3586752243815678,-0.9241775700003158,2.1047292783329814,-2.751308476315631,1.5707963370311597,0.21212136853149574
1.35867506862877,-0.9213837792008213,2.1045419697835093,-2.7539134619158774,1.570796333815388,0.21212136029824394
1.358674985260914,-0.919484164395831,2.1044145555191074,-2.7556848603920368,1.5707963316297817,0.21212135469960874
1.358674946892727,-0.9181925572777393,2.1043278822351934,-2.7568894176109153,1.5707963301434735,0.21212135089253933
1.358674933138593,-0.917314353914198,2.1042689227383766,-2.757708520665292,1.5707963291327076,0.21212134830373386
1.3586749320939053,-0.916717236519501,2.10422881546159,-2.7582655135219007,1.5707963284453443,0.2121213465433471
1.358674936993524,-0.9163112381034756,2.1042015323946037,-2.75864427054121,1.5707963279779142,0.21212134534628466
1.3586749441202681,-0.9160351873347701,2.104182973008328,-2.7589018265857455,1.5707963276600505,0.21212134453228246
1.3586749515367154,-0.9158474919482161,2.1041703479236014,-2.759076965558602,1.5707963274439003,0.21212134397876106
1.3586749583219695,-0.915719872089702,2.1041617596639264,-2.7591960606457238,1.5707963272969172,0.21212134360236656
1.358674964117181,-0.9156330994218276,2.1041559174675952,-2.7592770457025924,1.5707963271969705,0.2121213433464183
1.3586752168588427,-0.9115113130382673,2.1038234755721645,-2.7630688497337283,1.570796327129554,0.2121213431699464
1.35867506391639,-0.9087058504058632,2.1035978270667415,-2.765647171895254,1.570796327082301,0.21212134304997923
1.358674982359296,-0.9067982991846579,2.103444342468605,-2.7674004391919445,1.5707963270512952,0.2121213429683757
1.3586749451303257,-0.9055012957125048,2.10333994198984,-2.7685926671980225,1.5707963270301162,0.21212134291288695
1.3586749320859244,-0.9046194231183466,2.103268928432538,-2.769403386384392,1.570796327015639,0.2121213428751559
1.3586749314787665,-0.9040198108487941,2.103220624688297,-2.769954678209804,1.5707963270057521,0.21212134284949954
1.358674936644816,-0.9036121160572368,2.1031877682228153,-2.7703295585276826,1.5707963269990062,0.2121213428320536
1.3586749439313979,-0.9033349118488507,2.1031654190608813,-2.7705844784152442,1.5707963269944079,0.2121213428201906
1.3586749514419383,-0.9031464321887749,2.103150217020563,-2.77075782480141,1.5707963269912781,0.21212134281212383
1.3586749582812099,-0.9030182790689517,2.103139876493448,-2.770875700929635,1.5707963269891483,0.21212134280663847
1.3586749641063598,-0.9029311438138533,2.1031328427976055,-2.770955857094496,1.5707963269877017,0.21212134280290842
1.3586752153812196,-0.8987934085795601,2.1027441317566065,-2.774707337321984,1.57079632698727,0.21212134279768896
1.3586750633587448,-0.8959770947234026,2.1024802093429824,-2.7772582392199587,1.5707963269855536,0.2121213427941735
1.3586749823146538,-0.8940621650810956,2.1023006993261553,-2.7789928606962904,1.5707963269855205,0.21212134279175734
1.3586749453322968,-0.8927601446758247,2.102178602194737,-2.780172409533709,1.5707963269854033,0.21212134279011594
1.3586749323837757,-0.8918748608463943,2.1020955553455933,-2.780974506882066,1.5707963269852472,0.21212134278900105
1.3586749317920581,-0.8912729291313375,2.1020390692565543,-2.781519935856668,1.570796326985098,0.21212134278824366
1.3586749369343516,-0.8908636572511083,2.1020006489959777,-2.7818908294357754,1.5707963269849747,0.21212134278772904
1.3586749441812926,-0.8905853807146227,2.1019745165887014,-2.782143038340969,1.5707963269848804,0.2121213427873793
1.3586749516488201,-0.8903961719345346,2.1019567420334107,-2.782314541259173,1.5707963269848124,0.21212134278714156
1.3586749584478863,-0.8902675230561816,2.101944652258484,-2.7824311638292354,1.5707963269847656,0.21212134278697994
1.358674964238229,-0.8901800507146489,2.1019364291164817,-2.782510467574588,1.5707963269847354,0.21212134278687006
1.3586752138634581,-0.8860275552981751,2.1014915668901923,-2.7862205529893225,1.5707963269852594,0.21212134278434414
1.3586750628168092,-0.8832011989416961,2.1011894508847915,-2.788743306336668,1.57079632698418,0.21212134278266015
1.358674982311523,-0.8812794407915346,2.100983970066333,-2.790458786757517,1.5707963269845884,0.21212134278148956
1.3586749455833333,-0.8799727773787192,2.1008442134213134,-2.7916253196663727,1.570796326984771,0.2121213427806951
1.3586749327290422,-0.8790843365726734,2.1007491585344726,-2.792418566179976,1.570796326984819,0.21212134278015615
1.3586749321470444,-0.8784802583006336,2.1006845072731877,-2.792957976585978,1.5707963269848089,0.21212134277979036
1.3586749372585722,-0.8780695268908871,2.1006405348946813,-2.7933247775382135,1.5707963269847782,0.21212134277954203
1.3586749444589905,-0.8777902579630975,2.100610627182426,-2.793574203457128,1.5707963269847476,0.21212134277937336
1.3586749518773888,-0.8776003744176744,2.1005902855115415,-2.7937438139447095,1.5707963269847223,0.21212134277925876
1.3586749586311144,-0.8774712667403809,2.100576450160336,-2.793859149662,1.5707963269847052,0.21212134277918088
1.3586749643824976,-0.8773834824438491,2.100567040068788,-2.793937578347507,1.570796326984696,0.21212134277912792
1.3586752122199177,-0.8732174026706514,2.1000661608502345,-2.7976052270746514,1.5707963269852578,0.212121342777104
1.3586750622313746,-0.8703818037993064,2.099725942613714,-2.80009912339577,1.5707963269841967,0.21212134277576114
1.3586749823089082,-0.8684537611129061,2.099494553120237,-2.8017949809979044,1.5707963269846232,0.21212134277482267
1.3586749458550353,-0.8671428245778996,2.099337179206761,-2.802948170379198,1.5707963269848169,0.21212134277418604
1.3586749331020367,-0.8662514783066142,2.099230145008235,-2.803732343290728,1.5707963269848724,0.2121213427737544
1.3586749325300636,-0.8656454244979972,2.099157348107931,-2.8042655836463513,1.5707963269848664,0.21212134277346162
1.358674937607984,-0.8652333498475963,2.0991078368937877,-2.804628188964102,1.5707963269848406,0.2121213427732629
1.3586749447578788,-0.8649531676015002,2.0990741629083143,-2.804874761851559,1.5707963269848129,0.21212134277312797
1.358674952123024,-0.8647626630580553,2.0990512602633036,-2.805042432277795,1.5707963269847902,0.21212134277303632
1.3586749588276528,-0.8646331331420073,2.099035683511932,-2.8051564487534186,1.570796326984773,0.21212134277297404
1.3531400875577406,-0.8759764725414313,2.0915113087719366,-2.805280526603203,1.5733762587931028,0.21579887378741802
1.3425380461001282,-0.8871732612602513,2.0823742864175934,-2.8072179868872986,1.5743277792509072,0.22730702163047434
1.3330254464267026,-0.8953651067416607,2.0726836921769793,-2.802140862427403,1.5750735681806836,0.23941696745664068
1.3245959145542112,-0.9050314614205658,2.060692786767842,-2.8020407467826396,1.5789478299886541,0.2416323112627315
1.3169565378267134,-0.9157749628858899,2.054184864308558,-2.7981235707279812,1.578631149134104,0.23344220540291277
1.3108407089841863,-0.918518989595185,2.044996416191762,-2.802404818492172,1.5821374655281386,0.23400987413126975
1.3098362017961285,-0.9132706316191888,2.0438281064724,-2.8034542974810153,1.5839432840178214,0.2453834816542653
1.3088254458176878,-0.9119369941781609,2.043133708271528,-2.8020961468141943,1.5834409899442554,0.24461936723727346
1.3009171354676679,-0.912917889421755,2.037229211661024,-2.8012445517422653,1.5849984697579251,0.23794751620390978
1.300866938906521,-0.9129287543129995,2.0371913356160016,-2.801245413400788,1.5850122809706746,0.23790963699763742
1.2978377140527795,-0.925979390871471,2.059671454013463,-2.776684017370125,1.5804645030937963,0.2511809817952834
1.29577820135502,-0.9348589130763879,2.0749620610113366,-2.759979956314414,1.5773709299833996,0.2602087100982
1.2943777528590716,-0.940896832835575,2.0853594695878854,-2.7486204966693544,1.5752670362320358,0.26634828085777057
1.2934254400518723,-0.9450024515311427,2.092429507112649,-2.740895847034369,1.5738363496969558,0.27052328259309394
1.2927778558229392,-0.947794155425555,2.0972369813180087,-2.7356430192326564,1.5728634948440903,0.2733622495410859
1.2923374878906109,-0.9496924342362333,2.1005059553064527,-2.732071077029395,1.572201970489347,0.2752927044531109
1.292038029133679,-0.9509832096493972,2.102728781692138,-2.729642151233322,1.5717521464236466,0.27660538433427606
1.2918343907373322,-0.9518609002470625,2.104240251133899,-2.7279904807290025,1.57144627388366,0.2774979893275057
1.2916959119529643,-0.9524577050259192,2.105268014292246,-2.726867344906238,1.5712382851324662,0.2781049512803496
1.2916017430576505,-0.952863515468901,2.1059668685621977,-2.72610361286495,1.5710968553684228,0.2785176805043844
1.2915377058782274,-0.9531394551899276,2.1064420726153474,-2.7255842753634854,1.5710006845644182,0.27879833393063475
1.291494158973792,-0.9533270864929867,2.106765199880464,-2.7252311260771998,1.570935289205858,0.27898917709308824
1.291464545954542,-0.9534546705592158,2.1069849185903404,-2.7249909847135587,1.5708908207918555,0.2791189499192491
1.2914444083243863,-0.9535414241895487,2.107134321979303,-2.7248276886899623,1.5708605825036237,0.27920719522849413
1.2914307141993433,-0.9536004142653621,2.1072359126513316,-2.724716647464453,1.57084002059376,0.2792672019701761
1.2914214018238541,-0.953640525897902,2.1073049918345643,-2.7246411394789845,1.570826038563001,0.2793080065474254
1.2914153209725139,-0.9496548416569315,2.1071902877848236,-2.728443500568349,1.570816530820758,0.2793357537098504
1.291410855515873,-0.946941943822713,2.1071127337366122,-2.731029001497761,1.570810065569971,0.27935462181378085
1.2914078411991978,-0.9450973322316317,2.1070599508010415,-2.7327871503473893,1.5708056692116048,0.27936745214158887
1.2914058096041896,-0.9438431242965581,2.1070240255232378,-2.7339826977607484,1.5708026796936319,0.2793761767790098
1.2914044403424003,-0.94299035029863,2.106999573788335,-2.7347956741017048,1.5708006468243423,0.2793821095436928
1.2914035174795528,-0.9424105234464265,2.1069829311925257,-2.7353485007604523,1.5707992644747184,0.2793861438319229
1.291402895494916,-0.942016281625582,2.106971603704507,-2.735724424742421,1.5707983244777215,0.279388887153765
1.2914024763083938,-0.9417482246788271,2.106963893838194,-2.7359800543059167,1.5707976852801286,0.2793907526166663
1.2914021938102118,-0.9415659646410636,2.106958646241397,-2.7361538832610153,1.570797250625939,0.27939202113419587
1.291402003438768,-0.9414420405145413,2.10695507454747,-2.7362720875288487,1.5707969550611662,0.279392883727969
1.291401875157275,-0.9413577807378245,2.1069526435301964,-2.7363524668237353,1.5707967540771548,0.2793934702929696
1.2914020396209644,-0.9372682659229313,2.10673356006184,-2.7402243407697404,1.5707966174083259,0.27939386915046743
1.2914018228934616,-0.9344847608040313,2.1065850164945723,-2.7428571106315576,1.5707965244717714,0.27939414037521915
1.2914016981742986,-0.9325921397764181,2.10648396161725,-2.744647402448276,1.5707964612760865,0.2793943248081917
1.2914016317891646,-0.9313052879743235,2.106415212118381,-2.7458648071494856,1.570796418302953,0.2793944502227512
1.291401599055009,-0.9304303179061908,2.1063684403863823,-2.7466926464948185,1.5707963890811598,0.27939453550476046
1.2914015851533802,-0.9298353989307879,2.106336620511529,-2.747255580029912,1.5707963692103024,0.27939459349660406
1.2914015813442954,-0.9294308952873945,2.1063149726889874,-2.747638376710567,1.5707963556980988,0.2793946329311135
1.2914015825724128,-0.929155860859674,2.1063002451407153,-2.747898679724649,1.570796346509789,0.2793946597466173
1.2914015859936974,-0.9289688565137446,2.1062902256187757,-2.7480756866366356,1.5707963402617355,0.27939467798118517
1.2914015900730744,-0.928841706514357,2.1062834090826743,-2.748196051922242,1.5707963360130586,0.27939469038070824
1.291401594035662,-0.9287552533177327,2.1062787716182143,-2.748277900713994,1.57079633312396,0.2793946988123947
1.291401847232109,-0.9246461821166905,2.106002503334668,-2.7521131514140005,1.5707963311598876,0.27939470454316606
1.2914016924026728,-0.9218493718499475,2.1058150629951644,-2.7547210173970798,1.570796329822887,0.27939470844022257
1.2914016096944456,-0.9199477038114078,2.105687559149264,-2.7564943745368353,1.5707963289148532,0.2793947110901835
1.2914015718002627,-0.9186547004942089,2.105600824985901,-2.757700263648027,1.5707963282972974,0.27939471289215184
1.2914015583856084,-0.9177755477155688,2.1055418241154533,-2.7585202723895157,1.5707963278772858,0.279394714117489
1.2914015575833446,-0.9171777847190132,2.1055016887210556,-2.7590778811134706,1.5707963275916352,0.2793947149507177
1.2914015626556468,-0.9167713472940886,2.1054743865452155,-2.759457056922613,1.5707963273973722,0.2793947155173151
1.2914015699051284,-0.9164949979996186,2.1054558141724398,-2.7597148977442476,1.570796327265263,0.27939471590260023
1.291401577408646,-0.9163070996157642,2.1054431802619855,-2.7598902303655373,1.5707963271754244,0.27939471616459505
1.2914015842555622,-0.9161793417192549,2.1054345860042627,-2.760009457133597,1.570796327114335,0.2793947163427516
1.2914015900943747,-0.9160924751856648,2.1054287397315954,-2.7600905317335056,1.5707963270727954,0.2793947164638981
1.2914018432165961,-0.9119662525973254,2.10509604904812,-2.7638865226076845,1.5707963270450886,0.2793947165436763
1.2914016900759484,-0.9091577729547202,2.104870230474436,-2.766467691832923,1.5707963270248344,0.27939471659796783
1.2914016084157312,-0.9072481701706444,2.1047166302670424,-2.7682228951360726,1.5707963270121899,0.2793947166348593
1.2914015711419706,-0.9059497716353894,2.104612151211061,-2.76941643962757,1.570796327003497,0.2793947166599458
1.2914015580841864,-0.905066950398563,2.1045410842464136,-2.77022805402435,1.5707963269975083,0.27939471667700616
1.2914015574794495,-0.9044666930523602,2.104492744202163,-2.7707799545929452,1.570796326993395,0.27939471668860766
1.291401562654944,-0.9040585596090079,2.104459863064155,-2.771155248856223,1.5707963269905763,0.27939471669649696
1.2914015699532382,-0.9037810571176506,2.104437497132669,-2.771410450226668,1.5707963269886478,0.2793947167018619
1.2914015774753371,-0.9035923746253419,2.1044222836943143,-2.771583988021198,1.570796326987333,0.27939471670551014
1.2914015843249156,-0.9034640835797334,2.1044119354200963,-2.7717019943071124,1.5707963269864396,0.279394716707991
1.291401590158739,-0.9033768545351953,2.1044048964586355,-2.7717822389792035,1.5707963269858316,0.27939471670967797
1.291401841785445,-0.8992347009023574,2.10401589505804,-2.7755378468114893,1.5707963269859857,0.279394716708179
1.2914016895512428,-0.8964153821505245,2.103751774292095,-2.7780915554908474,1.5707963269846656,0.2793947167071946
1.291401608394454,-0.8944984091829868,2.103572129434071,-2.7798280855815203,1.570796326984905,0.2793947167064993
1.2914015713604765,-0.8931949993160834,2.1034499406486673,-2.7810089322776808,1.5707963269849725,0.27939471670602795
1.2914015583937073,-0.8923087706529049,2.1033668315006353,-2.7818119121702964,1.5707963269849414,0.27939471670570865
1.2914015578009508,-0.8917061964512181,2.103310303065791,-2.7823579412750936,1.570796326984878,0.2793947167054922
1.2914015629502322,-0.8912964876803695,2.103271854021856,-2.7827292429427657,1.5707963269848133,0.27939471670534544
1.291401570207145,-0.8910179140584936,2.1032457020498727,-2.7829817293481947,1.570796326984758,0.2793947167052458
1.2914015776850003,-0.8908285032605078,2.1032279141959824,-2.783153420966564,1.5707963269847167,0.2793947167051781
1.2914015844935014,-0.8906997170101081,2.1032158153816676,-2.7832701718527404,1.5707963269846887,0.27939471670513216
1.2914015902919056,-0.8906121512556681,2.10320758609536,-2.7833495628530507,1.5707963269846705,0.2793947167051009
1.2914018402633547,-0.8864552592399012,2.1027623926623633,-2.787063713211565,1.5707963269852565,0.2793947167029953
1.291401689007628,-0.8836259128189301,2.1024600505135207,-2.789589230730471,1.5707963269842207,0.2793947167015973
1.2914016083910327,-0.8817021214284634,2.102254415957122,-2.791306590790853,1.5707963269846585,0.27939471670062116
1.2914015716118166,-0.880394075411593,2.1021145548092752,-2.792474401855539,1.5707963269848602,0.2793947166999589
1.2914015587394383,-0.8795046944348495,2.1020194288869924,-2.7932685175154095,1.5707963269849212,0.2793947166995099
1.291401558156344,-0.8788999768469802,2.1019547293394942,-2.793808518940969,1.5707963269849192,0.27939471669920524
1.2914015632747076,-0.8784888107027188,2.1019107241384596,-2.7941757217865346,1.5707963269848964,0.27939471669899846
1.2914015704849153,-0.8782092461556544,2.101880794115071,-2.794425420992925,1.5707963269848706,0.27939471669885807
1.2914015779134647,-0.8780191615892782,2.1018604372781593,-2.7945952173159947,1.5707963269848482,0.2793947166987627
1.2914015846764704,-0.877889917217846,2.1018465916178117,-2.794710679401419,1.5707963269848324,0.27939471669869786
1.2914015904357818,-0.8778020399693797,2.1018371745185913,-2.794789194017258,1.5707963269848233,0.2793947166986538
1.2914018386143054,-0.8736315891602867,2.1013359238376337,-2.7984608418509818,1.5707963269853233,0.2793947166963764
1.2914016884201478,-0.8707930176166108,2.100995452069048,-2.8009574575740306,1.5707963269842171,0.2793947166948612
1.2914016083882807,-0.8688629535162343,2.10076389021459,-2.802655164372216,1.5707963269846152,0.2793947166938055
1.2914015718843022,-0.8675506424188508,2.1006063991355592,-2.8038096112077353,1.5707963269847893,0.2793947166930892
1.291401559113581,-0.8666583614450692,2.1004992852915882,-2.8045946391884273,1.570796326984832,0.27939471669260335
1.2914015585405814,-0.8660516720389128,2.100426434250718,-2.8051284609911735,1.5707963269848177,0.2793947166922737
1.291401563625262,-0.8656391651823727,2.1003768862333914,-2.8054914616929985,1.5707963269847853,0.27939471669204996
1.2914015707848119,-0.8653586890362638,2.100343187230148,-2.805738303441637,1.570796326984752,0.27939471669189797
1.2914015781599604,-0.8651679846409307,2.100320267578739,-2.8059061566934806,1.5707963269847258,0.2793947166917947
1.2914015848737295,-0.8650383188256893,2.100304679266869,-2.8060202974905195,1.5707963269847074,0.27939471669172455
1.2825606277535202,-0.8763707496462122,2.08394589802489,-2.8081785871869926,1.5717285558782461,0.29806880107337774
1.2746899826176503,-0.893074446373573,2.070909085853068,-2.8071997573803946,1.5755495552323522,0.30207047125709224
1.2632434397644146,-0.8993663288423014,2.064207241445854,-2.804350917916262,1.5790117116974907,0.2947936988942669
1.2588494862128394,-0.9052929735183753,2.060367058716002,-2.8054131355986063,1.5809952430606633,0.2952565645717682
1.2528509707276378,-0.9096194602460884,2.0549769513045604,-2.8016037910369915,1.5829043765718869,0.2919405252931541
1.2515269222565915,-0.9119119836343755,2.051676202001659,-2.7984093513163626,1.5856342802143846,0.288544572931553
1.2464886607956671,-0.9167119954851674,2.050043507206383,-2.7923638200550047,1.5849899982833133,0.2825150451472348
1.2434410140370609,-0.915797732681562,2.0449826682412606,-2.7890417598741846,1.5849623838744835,0.28851550120083846
1.243421154314128,-0.915790366994102,2.0449479278226357,-2.7890200952456423,1.5849625150041204,0.28855823903501854
1.2388770574901746,-0.9272872391607087,2.0633219826830964,-2.7673833548388993,1.5804302764838103,0.30552078814711414
1.235786195913392,-0.9351096625451242,2.075819532107036,-2.7526689246149694,1.5773475903875096,0.31705828841229383
1.2336845115502577,-0.9404287622035391,2.08431771144056,-2.7426626818968654,1.5752511737856136,0.3249044519387208
1.232255424574751,-0.9440455954648187,2.090096319356966,-2.735858305437833,1.5738255818699085,0.3302399329421286
1.2312836789037187,-0.9465049340027204,2.09402565591441,-2.731231290909815,1.5728561873647797,0.33386803100201035
1.230622911669589,-0.9481772104598541,2.096697521035764,-2.7280849106113267,1.5721970108451349,0.3363351000288051
1.2301736020460148,-0.9493143084828038,2.0985143307866267,-2.725945369769554,1.5717487795045813,0.3380126807978623
1.229868079070878,-0.9500875013528133,2.099749721011584,-2.724490481932381,1.571443987629914,0.33915342033067813
1.229660328278973,-0.9506132496647498,2.1005897586533915,-2.7235011585802873,1.5712367323232912,0.3399291148462907
1.2295190608701703,-0.9509707430705577,2.101160965312005,-2.722828419069223,1.5710958004957867,0.3404565827913668
1.2294230010808997,-0.9512138281352555,2.101549372922976,-2.7223709564760625,1.5709999678339714,0.3408152588516425
1.229357681774536,-0.9513791189052164,2.1018134812976292,-2.7220598821006456,1.5709348021571168,0.3410591575615202
1.229313265539834,-0.9514915118398298,2.1019930689993718,-2.7218483516502903,1.5708904897838756,0.34122500823864393
1.2292830630926663,-0.9515679357934167,2.1021151845565367,-2.721704511026366,1.5708603575232691,0.34133778652515867
1.2292625258213155,-0.9516199018876302,2.1021982203578924,-2.7216066994563555,1.570839867667114,0.3414144757096452
1.2292485607366965,-0.9516552373471806,2.1022546828118434,-2.7215401876246705,1.5708259346073807,0.34146662435616504
1.2292393150173462,-0.947683777637036,2.1021318806744413,-2.7253316761341613,1.5708164601506354,0.34150208548618305
1.2292326996526834,-0.9449805541745083,2.1020488235042656,-2.7279097836496935,1.5708100175260733,0.3415261990900629
1.2292282234622454,-0.9431425211654875,2.1019922984978714,-2.729662904954903,1.5708056365486553,0.34154259635779477
1.2292251978201545,-0.9418927866889796,2.101953828603743,-2.730855033628947,1.5708026574868912,0.3415537465140473
1.2292231526251283,-0.9410430546581474,2.101927646524883,-2.7316656852231365,1.5708006317261627,0.34156132863117894
1.2292217701405899,-0.9404652963537962,2.1019098272925008,-2.7322169310520317,1.570799254209379,0.3415664844787608
1.2292208356219387,-0.9400724611523453,2.1018976996901166,-2.7325917800685278,1.5707983174981297,0.34156999046071357
1.229220203918121,-0.9398053607113451,2.1018894457452157,-2.7328466786547763,1.5707976805344945,0.34157237453230777
1.2292197769120263,-0.9396237511005139,2.1018838281745533,-2.733020010544874,1.570797247399184,0.3415739957036154
1.2292194882777088,-0.9395002692662712,2.101880004898206,-2.7331378768081946,1.5707969528671226,0.3415750981018668
1.2292192931790715,-0.9394163102495704,2.1018774028048233,-2.733218026259801,1.5707967525852742,0.3415758477338488
1.2292194107627326,-0.9353444483753275,2.1016588498186937,-2.7370729438093226,1.570796616393859,0.3415763574783402
1.2292191640536487,-0.9325729488266665,2.101510670406586,-2.7396941832775505,1.5707965237819674,0.34157670410629737
1.2292190188169165,-0.9306884915709233,2.1014098630191467,-2.741476634413071,1.570796460807024,0.34157693981341897
1.2292189383754821,-0.9294071911358801,2.1013412816752814,-2.742688707446639,1.5707964179839802,0.34157710009438025
1.229218896012699,-0.9285359959970421,2.101294624195094,-2.7435129212565585,1.5707963888642404,0.34157720908553085
1.2292188755161697,-0.9279436439726143,2.10126288194837,-2.744073389427109,1.5707963690627766,0.3415772831995848
1.2292188671904933,-0.9275408858549588,2.1012412868703407,-2.7444545096597177,1.570796355597758,0.34157733359719156
1.2292188653256235,-0.9272670383839887,2.101226595159523,-2.744713672689073,1.570796346441535,0.3415773678676006
1.2292188666289665,-0.9270808411680859,2.1012165999875556,-2.744889904411423,1.5707963402152998,0.34157739117150154
1.2292188692581674,-0.9269542400166969,2.1012097999962362,-2.745009742568067,1.5707963359814594,0.34157740701817035
1.2292188722278654,-0.9268681600364079,2.1012051737732924,-2.7450912329121184,1.5707963331024504,0.341577417793916
1.2292191233153595,-0.9227767517022791,2.1009297246608925,-2.748909643885813,1.5707963311452982,0.3415774251186958
1.229218968925676,-0.9199919537406447,2.1007428448453322,-2.7515060588124434,1.5707963298130139,0.34157743009968533
1.2292188863850684,-0.9180984540538754,2.100615722012582,-2.7532716292208965,1.5707963289081817,0.3415774334867177
1.2292188484998745,-0.9168110052179514,2.100529246794378,-2.7544722233505903,1.570796328292803,0.3415774357898953
1.2292188350206121,-0.9159356294861417,2.1004704219091237,-2.755288631503328,1.570796327874272,0.3415774373560542
1.2292188341267614,-0.9153404348803772,2.1004304061188614,-2.7558437918265066,1.5707963275896293,0.34157743842104243
1.229218839104602,-0.914935743960183,2.100403185229376,-2.7562213027229836,1.5707963273960515,0.34157743914523436
1.2292188462680815,-0.91466058228814,2.1003846681012495,-2.7564780114039595,1.570796327264408,0.34157743963768467
1.229218853698381,-0.9144734914869405,2.100372071736798,-2.7566525741695855,1.5707963271748882,0.34157743997255174
1.2292188604855256,-0.914346282746203,2.1003635029965704,-2.7567712774357873,1.5707963271140142,0.3415774402002615
1.22921886627693,-0.9142597896382286,2.1003576740664607,-2.7568519960544298,1.5707963270726215,0.3415774403551042
1.2292191179494496,-0.9101511751996915,2.1000259699867785,-2.760631367083279,1.5707963270450038,0.34157744045799315
1.2292189656755226,-0.9073546706352558,2.099800825853601,-2.7632012347723833,1.5707963270248153,0.34157744052800043
1.2292188844745735,-0.9054532108892588,2.099647684117769,-2.76494875301856,1.5707963270122118,0.3415774405755777
1.229218847409257,-0.9041603496222252,2.0995435166748613,-2.7661370716672544,1.570796327003547,0.34157744060793216
1.229218834423288,-0.9032812937274859,2.099472661506945,-2.7669451324896412,1.570796326997578,0.34157744062993384
1.2292188338202819,-0.9026835968129086,2.099424465416861,-2.767494616627239,1.570796326993477,0.3415774406448954
1.2292188389651528,-0.9022772044620968,2.0993916821219907,-2.767868267717305,1.5707963269906655,0.34157744065506956
1.2292188462211175,-0.9020008859128891,2.0993693826929225,-2.7681223517299203,1.5707963269887453,0.34157744066198814
1.2292188536998763,-0.9018130085006598,2.0993542144552797,-2.768295129721111,1.5707963269874332,0.3415774406666929
1.2292188605101235,-0.9016852649090857,2.0993438969033678,-2.768412619340749,1.5707963269865433,0.34157744066989215
1.2292188663105257,-0.9015984081329853,2.099336878823472,-2.768492512679768,1.5707963269859373,0.34157744067206763
1.2292191165150712,-0.8974737917564111,2.098949027966252,-2.7722317355316015,1.5707963269860514,0.3415774406708381
1.2292189651430059,-0.8946663998502505,2.098685693180939,-2.7747743023842153,1.5707963269847092,0.3415774406700373
1.229218884443827,-0.8927575371235565,2.0985065826369333,-2.776503256020821,1.5707963269849288,0.341577440669467
1.2292188476184172,-0.8914596422232206,2.0983847570337115,-2.777678950724303,1.5707963269849823,0.3415774406690806
1.229218834724416,-0.8905771637372654,2.0983018947467884,-2.7784784272606586,1.5707963269849443,0.34157744066881907
1.2292188341346397,-0.8899771396552549,2.0982455341080932,-2.779022074082803,1.5707963269848746,0.34157744066864193
1.2292188392545589,-0.8895691649649237,2.0982071991186206,-2.779391755798141,1.5707963269848055,0.34157744066852186
1.229218846470282,-0.8892917705170845,2.098181124671922,-2.779643140635939,1.5707963269847474,0.34157744066844037
1.229218853905765,-0.8891031615569095,2.0981633895137266,-2.7798140831883025,1.5707963269847038,0.3415774406683851
1.229218860675726,-0.8889749205558235,2.0981513265179212,-2.7799303247095892,1.570796326984675,0.3415774406683475
1.229218866441334,-0.888887725570632,2.098143121578334,-2.780009369341771,1.570796326984655,0.34157744066832196
1.2292191150109872,-0.8847482846988399,2.097699240542538,-2.7837073827534002,1.5707963269851868,0.3415774406659035
1.2292189646059881,-0.88193080653679,2.0973977944948663,-2.7862219271096875,1.5707963269841174,0.34157744066429263
1.2292188844408376,-0.8800150855492875,2.0971927691296095,-2.787931825408129,1.5707963269845302,0.3415774406631718
1.2292188478673534,-0.8787125274098903,2.097053322076638,-2.789094562470937,1.5707963269847147,0.3415774406624112
1.229218835066757,-0.8778268781901971,2.096958477633489,-2.7898852278083375,1.5707963269847642,0.34157744066189527
1.2292188344866215,-0.8772246981965542,2.0968939694206115,-2.7904228830142372,1.5707963269847551,0.3415774406615451
1.229218839576051,-0.8768152576156678,2.096850094278979,-2.7907884904303084,1.5707963269847274,0.3415774406613074
1.2292188467456657,-0.876536866451097,2.0968202526634037,-2.7910371047446003,1.5707963269846972,0.341577440661146
1.229218854132455,-0.8763475797843504,2.096799955921742,-2.791206163341026,1.5707963269846719,0.3415774406610363
1.229218860857479,-0.8762188779843181,2.0967861511112176,-2.7913211237723243,1.5707963269846548,0.34157744066096174
1.2292188665844719,-0.8761313696841505,2.0967767617797497,-2.7913992972633546,1.570796326984644,0.34157744066091106
1.2292191133822299,-0.8719782690094459,2.0962769830126997,-2.795055068747878,1.570796326985207,0.34157744065859563
1.2292189640259863,-0.8691514970024031,2.095937515875253,-2.797540888516055,1.5707963269841494,0.34157744065705437
1.2292188844385739,-0.8672294565751805,2.0957066370074626,-2.7992312540540905,1.5707963269845764,0.3415774406559811
1.2292188481370339,-0.8659226015798749,2.0955496102005307,-2.8003807088291026,1.5707963269847705,0.3415774406552528
1.2292188354368685,-0.8650340307564323,2.0954428119536126,-2.801162342207506,1.5707963269848257,0.3415774406547588
1.2292188348666881,-0.8644298642522924,2.095370175445768,-2.8016938556803295,1.5707963269848217,0.34157744065442364
1.229218839922818,-0.8640190729686639,2.095320773261546,-2.8020552867176853,1.5707963269847955,0.3415774406541961
1.229218847042359,-0.8637397634116918,2.095287173391407,-2.8023010610944428,1.5707963269847673,0.34157744065404155
1.2292188543763676,-0.8635498522966087,2.095264321127883,-2.8024681885333904,1.5707963269847447,0.3415774406539366
1.2292188610527277,-0.8634207259116605,2.0952487786244456,-2.8025818357776533,1.5707963269847278,0.34157744065386525
1.1886759553434478,-0.8816989157048328,2.0790694756690855,-2.797619595341545,1.5649235016698804,0.28845103744181133
1.1499776800977288,-0.8977347755616377,2.0654852270798365,-2.8012987880080087,1.557249208848504,0.23476756697447843
1.1097745973895636,-0.9103338990583544,2.055043402771839,-2.8056119736340674,1.5455460376362289,0.18108787111720176
1.0829242628244635,-0.9254248125927526,2.0443427357819437,-2.8034993363122758,1.5347960254253663,0.13417594705079533
1.0617940924955307,-0.9387339335868993,2.038043648454752,-2.807313150671477,1.5224534687914042,0.08451555237149312
1.04275034501059,-0.9509595526198947,2.0349504162016467,-2.812622889355022,1.5113620169638329,0.033259610680608585
1.0183865676847563,-0.9672548189157401,2.0234512540411105,-2.8143783292763955,1.4946170257283402,-0.017961796758789613
0.999183877366374,-0.9801170057529917,2.0144957689921625,-2.8170639405532465,1.4783441116621148,-0.06748570609379045
0.9813928814368447,-0.9880609778717105,2.0039077959865823,-2.8173953358740618,1.4599518679994232,-0.11706340809285842
0.9651066276372385,-0.9942265161629721,2.000238868674852,-2.8224583119195064,1.4441574311087184,-0.1707709388772155
0.9455593595227029,-1.0034267379401471,1.9941876587736809,-2.8289666140106484,1.426747532605604,-0.22445051533485605
0.9335209468304838,-1.0140319587463986,1.9871334871180721,-2.830884495444407,1.4081823488973406,-0.27561994724752326
0.9132373505265179,-1.0197798845635997,1.9856267565305885,-2.8450590764644317,1.3890443721510781,-0.3279978152695836
0.8972076721559658,-1.0279531334685987,1.9778838269455667,-2.850793971399371,1.3730448178452515,-0.3774852250057673
0.8866245287314557,-1.0384506663215347,1.9696539950835927,-2.8588669319978246,1.3577015698171937,-0.42706414501461365
0.8772409893343803,-1.0433084313427095,1.9697042947170902,-2.8634626061927757,1.342567882819657,-0.47664023859465166
0.8668332758908932,-1.0449380338041425,1.963052666785341,-2.8748386124285945,1.3241453896840625,-0.5303477910770361
0.8541364939523445,-1.0461399010531112,1.9566914613254074,-2.8885817873811446,1.3081487312937148,-0.5840273843416236
0.844136379068604,-1.0458406328456176,1.950683582964841,-2.9033880182677247,1.2968794007451312,-0.6351968281377051
0.831899119355171,-1.0485847666759793,1.9434124512238808,-2.9161996389344575,1.2829032908529072,-0.6864202623606154
0.827473056777256,-1.0491578842096112,1.9430569002409055,-2.92393155786322,1.2740410631067751,-0.735944365462306
0.8182519450781719,-1.0484041613114699,1.9365758904157329,-2.9293438310112703,1.2682136606135428,-0.7855221862137561
0.8098584858189634,-1.0487540643452922,1.9302947206394894,-2.9382758487263385,1.2608754643054787,-0.8350982973278359
0.8111770115039946,-1.0469942942437822,1.9291855436023586,-2.9393951363731894,1.2547786449428069,-0.886356132201929
0.8073544762359824,-1.0487598635486408,1.9282290195360359,-2.9482005523069645,1.25040735360791,-0.9358791322961441
0.803843577890568,-1.045783333337957,1.9178676092754405,-2.951967449281078,1.2430718118206305,-0.9854570301105031
0.803814340379759,-1.043165244159974,1.9114602152375817,-2.9599310038057043,1.2349019274798845,-1.037858280089034
0.8082632495612383,-1.0418319740586672,1.9080460145069875,-2.9635913238820915,1.2296448219502447,-1.087345175246526
0.8076530696201905,-1.0412278959307955,1.9071520636790278,-2.971956706567916,1.2304696309521685,-1.1369242409083837
0.8085521845853965,-1.0373359116223067,1.9027002775486956,-2.979994697069327,1.2298519297467376,-1.186500401528986
0.8132784889284141,-1.0324590144650037,1.9026680260506963,-2.981716130328446,1.2294967249186273,-1.2360766990873853
0.8094306084466246,-1.0277142987948247,1.9017286943362883,-2.982609295801785,1.2334573629551542,-1.2856529454611583
0.811427215592748,-1.0179901833273504,1.8961233579300558,-2.9803001882013764,1.2381786982661527,-1.3352292327521316
0.8149311924289181,-1.014095663266681,1.8972033536169772,-2.9705713745422613,1.2425445047795576,-1.3889368163112465
0.8215915962906333,-1.0080283053783676,1.8992882770417272,-2.971397212396953,1.243288917173406,-1.4358480442990509
0.8271061001621282,-1.0075218340353913,1.901231472543668,-2.9648849966552158,1.2461667006012975,-1.48550866830026
0.8373851676710536,-0.9999811915686602,1.9010354094630122,-2.962488384357533,1.253579536698242,-1.5350823176200363
0.8468602309496335,-0.998871875351656,1.9065666539202977,-2.9618161331081385,1.262376730652723,-1.586340233617528
0.8572684149446108,-0.9925682218940542,1.9057562113455162,-2.956706682724207,1.2730295320695355,-1.6358633449414512
0.8703567724619867,-0.9875745069487103,1.905399067213138,-2.9518462166340167,1.279626987035841,-1.6854413571042886
0.8785500910199708,-0.9792187546781925,1.9020650128612298,-2.9475084824767674,1.28833398749978,-1.7350176151302084
0.8866068301857897,-0.97297800778908,1.9068586308747801,-2.9412525151516107,1.2986355769813234,-1.7862754754896717
0.9052427439346019,-0.9611980820677907,1.9116960875274236,-2.9292108839661974,1.310838840251264,-1.8394376095129312
0.9252539883361409,-0.9606660491573398,1.9182604133694874,-2.9237138735330097,1.3186034807017741,-1.8917864717564143
0.9404890868486673,-0.9553981245162841,1.9172447652925813,-2.9168397726695687,1.330262519379225,-1.9454753061817096
0.9567513156252444,-0.9558347594921662,1.9228825052446186,-2.911298297115964,1.3452367609687648,-1.9978164552756879
0.9729639191092744,-0.9526325616914512,1.92758688631154,-2.899412031577,1.3611712270376337,-2.047305292712242
0.990332574537948,-0.9531108519457564,1.932061228462011,-2.89757857658083,1.3729163141923912,-2.096884397276623
1.009143885124408,-0.9489020238849605,1.9357697477011182,-2.8890354294187564,1.3850015205682809,-2.1492856775882134
1.0181636356820842,-0.9430940410855093,1.9420448031596775,-2.878132059820595,1.397410595011697,-2.1962576563894936
1.0350840117350417,-0.934246748107182,1.9475090839253695,-2.8658733922374195,1.4131725178290007,-2.2499828705465386
1.054002604217601,-0.9250220219654266,1.9556596395256587,-2.8531892915814305,1.425813265965413,-2.3036623953271853
1.0721836312862558,-0.9229190636991513,1.9639831288783738,-2.8449071987588246,1.4367251569388917,-2.3568004383430257
1.0864157243296941,-0.9214009088861396,1.9719522628797517,-2.8360067488423755,1.4550354583884504,-2.410483933101834
1.106119722635833,-0.9221319825579027,1.9738778442291007,-2.830009221474365,1.4682552766875023,-2.4641637406813923
1.1188581831791966,-0.9237791837980919,1.9805443124207132,-2.818490638189317,1.4755472456729128,-2.5153333184189144
1.1360034841860491,-0.9243217030338923,1.9822868235082516,-2.806287189402254,1.4919140659902332,-2.5665569083052713
1.1470498055308915,-0.9263150139419362,1.9907356347675813,-2.8016825516321897,1.5050499753542685,-2.6160811073027066
1.1647645151036867,-0.9289420663489752,1.9970719948543478,-2.786975913271728,1.512729874388321,-2.6575266458554814
1.1808619510155434,-0.9264309663172058,2.0049643227937226,-2.7852011503257086,1.5258950887379128,-2.6897667974188404
1.1854349309622974,-0.9299949195636107,2.010031881921713,-2.782796372275011,1.5304060307911944,-2.7260896620722987
1.1938797454928856,-0.926989005714046,2.0208485224748096,-2.7702216056480307,1.5360460109335792,-2.765312921770569
1.1971883329435762,-0.9263443831567062,2.02349750157607,-2.7680008079687157,1.540869816471221,-2.7854352447033746
1.2057333367789598,-0.9364962097144546,2.0276482203950414,-2.759060590744603,1.5437676305290018,-2.8153358068996694
1.2117349580448484,-0.9294354337591942,2.0279839486023206,-2.750981408331182,1.5524293481285292,-2.8356726982364293
1.218718193966314,-0.9295884214879687,2.0313089414846335,-2.751249864869296,1.5554582763036338,-2.846218005901033
1.222160080813329,-0.9283181366209339,2.0379752254138097,-2.752024873688282,1.5610811647402283,-2.8655035563777322
1.2223912812197304,-0.9281152294441998,2.038819722452942,-2.7521164348425966,1.5617963153239327,-2.867936503739139
1.2245692055411224,-0.9356695726711192,2.0591534548624812,-2.742287305345868,1.564675964097947,-2.846200961643518
1.2260530449025053,-0.9408089135081504,2.0729847057986897,-2.7356028411165356,1.566634417647117,-2.831417649516869
1.2270618542467007,-0.944303659793423,2.0823896684757197,-2.7310572423480175,1.567966236983353,-2.821364180865318
1.227747681289427,-0.9466800465961612,2.088784798591775,-2.7279661871697063,1.568871883518993,-2.814527658730678
1.2282139333224087,-0.9482959584458043,2.093133311813745,-2.7258642569875606,1.5694877191256027,-2.8098788230524305
1.2285309101882267,-0.9493947560648061,2.096090178544903,-2.7244349421314475,1.5699064823001012,-2.8067176422542737
1.2287464040489535,-0.9501419226820093,2.098100763666447,-2.7234630084087974,1.5701912376460654,-2.804568063023959
1.2288929057316376,-0.9506499850515214,2.099467903838742,-2.72280209434805,1.5703848690559805,-2.803106364824699
1.228992503731271,-0.9509954599416027,2.1003975197549978,-2.722352673567988,1.5705165371319074,-2.8021124194634246
1.2290602146739984,-0.9512303777154133,2.1010296317253605,-2.7220470680261526,1.5706060707094418,-2.8014365420254137
1.229106247466337,-0.9513901182836298,2.1014594495830172,-2.7218392566746603,1.5706669531529982,-2.800976948404349
1.2291375425405544,-0.9514987394721856,2.1017517132866566,-2.721697945243586,1.570708353005702,-2.80066442642711
1.2291588182898303,-0.9515726002482036,2.1019504441442,-2.721601853667101,1.5707365047948294,-2.800451912411735
1.2291732824749177,-0.9516228244659047,2.102085575373948,-2.7215365115287224,1.570755647953548,-2.8003074033919875
1.229183115866486,-0.9516569761796212,2.1021774606985946,-2.721492078965227,1.5707686652716981,-2.8002091375388973
1.2291900514146892,-0.9476847187958838,2.102078744802691,-2.72529857487453,1.5707775170313485,-2.800142316877386
1.2291944381355648,-0.9449809530644574,2.102012065484606,-2.7278868874985323,1.570783536220918,-2.8000968788956566
1.229197442603479,-0.943142551567619,2.1019666767985754,-2.7296469483179577,1.570787629267178,-2.80006598111732
1.2291995032930982,-0.941892566685201,2.1019357791769377,-2.7308437958809977,1.5707904125369359,-2.8000449706550055
1.2292009164543292,-0.9410426644858301,2.101914745953922,-2.731657656330033,1.5707923051597292,-2.8000306835553705
1.229201885416501,-0.9404647905369006,2.101900427747324,-2.732211084186234,1.5707935921430909,-2.800020968335694
1.2292025497233714,-0.9400718767428622,2.1018906807097815,-2.7325874169849795,1.5707944672918501,-2.800014361990751
1.2292030051150038,-0.9398047228887428,2.101884045459363,-2.732843324545473,1.5707950623931513,-2.8000098696786355
1.229203317263232,-0.939623076976402,2.1018795285405156,-2.7330173425395285,1.5707954670621924,-2.8000068149077495
1.229203531207033,-0.9394995704696854,2.1018764536667063,-2.7331356753544713,1.570795742237278,-2.800004737664298
1.2292036778306341,-0.9394155946837438,2.101874360459694,-2.7332161420617664,1.5707959293564513,-2.800003325139171
1.2292040277702827,-0.9353437281722781,2.101656153718373,-2.7370712688086174,1.570796056597565,-2.8000023646339
1.229203939050174,-0.9325722254714022,2.101508209743602,-2.739692650531939,1.5707961431203579,-2.800001711489008
1.2292039012376896,-0.9306877660745613,2.101407562445516,-2.741475198401373,1.5707962019569879,-2.8000012673508214
1.2292038938394652,-0.9294064641849427,2.101339089956965,-2.742687337214177,1.5707962419658257,-2.800000965337015
1.2292039011427607,-0.9285352680577225,2.1012925064947643,-2.743511595754044,1.5707962691717825,-2.800000759967705
1.2292039144171585,-0.9279429153615457,2.101260814577878,-2.7440720943409804,1.5707962876718125,-2.800000620316612
1.2292039290545458,-0.9275401567872215,2.1012392537225737,-2.7444532352567323,1.5707963002518261,-2.8000005253538873
1.2292039428039254,-0.9272663090057249,2.101224585282195,-2.7447124123506152,1.570796308806238,-2.800000460779242
1.2292039547246554,-0.9270801115786009,2.1012146059334773,-2.7448886536368318,1.5707963146232438,-2.8000004168684876
1.2292039645735784,-0.9269535102834916,2.1012078167015593,-2.745008498296891,1.570796318578814,-2.8000003870091756
1.2292039724527009,-0.92686743020537,2.101203197794758,-2.745089993063252,1.57079632126861,-2.800000366704844
1.2292042268784982,-0.9227760284967661,2.1009277539668956,-2.74890840066247,1.5707963230982784,-2.8000003529010775
1.2292040747596538,-0.9199912350409349,2.100740877746102,-2.7515048132944324,1.5707963243410727,-2.800000343514361
1.229203993763286,-0.9180977384180274,2.1006137573577,-2.7532703821425017,1.5707963251872898,-2.8000003371314404
1.2292039569282502,-0.916810291665464,2.10052728380158,-2.7544709752111274,1.5707963257626236,-2.8000003327910625
1.2292039441631728,-0.9159349173502767,2.100468460046501,-2.7552873826423308,1.5707963261537754,-2.8000003298396083
1.229203943755042,-0.9153397237077707,2.100428445024736,-2.7558425424748627,1.5707963264197173,-2.8000003278326226
1.2292039490632403,-0.914935033442546,2.10040122465782,-2.7562200530376946,1.5707963266005363,-2.8000003264678712
1.2292039564514239,-0.9146598722158412,2.100382707885038,-2.7564767614917884,1.5707963267234843,-2.8000003255398407
1.229203964034574,-0.9144727817174451,2.1003701117622233,-2.7566513241031307,1.5707963268070853,-2.80000032490878
1.229203970925701,-0.9143455731825846,2.100361543186312,-2.7567700272644187,1.5707963268639347,-2.8000003244796585
1.2292039767878506,-0.9142590802145891,2.1003557143679426,-2.7568507458117177,1.5707963269025933,-2.8000003241878564
1.2292042285076918,-0.9101504725439434,2.1000240107393466,-2.760630110495035,1.5707963269293865,-2.800000323991625
1.2292040762666798,-0.9073539725822343,2.099798866914288,-2.763199973869154,1.5707963269461989,-2.8000003238581437
1.2292039950880844,-0.9054525159660808,2.099645725387926,-2.764947489181136,1.5707963269587562,-2.800000323767403
1.2292039580379472,-0.904159656827333,2.099541558087405,-2.7661358058345744,1.5707963269671996,-2.8000003237056985
1.2292039450622871,-0.9032806023798174,2.0994707030162765,-2.7669438653001874,1.570796326972865,-2.8000003236637396
1.2292039444662861,-0.9026829064493522,2.099422506991986,-2.767493348515178,1.5707963269766765,-2.8000003236352065
1.2292039496159166,-0.9022765147677267,2.0993897237418393,-2.7678669989778713,1.5707963269792449,-2.8000003236158038
1.2292039568751172,-0.902000196673564,2.099367424343174,-2.7681210825638733,1.5707963269809806,-2.8000003236026094
1.2292039643560773,-0.9018123195707601,2.099352256126198,-2.768293860264966,1.5707963269821592,-2.8000003235936375
1.2292039711678227,-0.9016845761895961,2.099341938588336,-2.768411349687336,1.5707963269829592,-2.8000003235875366
1.2292039769692442,-0.9015977195565714,2.099334920517991,-2.768491242892214,1.5707963269835055,-2.8000003235833875
1.2292042271740518,-0.8974731099223144,2.0989470701029442,-2.7722304594440454,1.5707963269844094,-2.80000032358333
1.2292040758028682,-0.8946657226014919,2.098683735619708,-2.7747730220126368,1.5707963269836054,-2.8000003235832565
1.2292039951042424,-0.8927568629928264,2.0985046252810564,-2.7765019727361033,1.5707963269841898,-2.800000323583232
1.2292039582791705,-0.8914589702127477,2.0983827998174167,-2.77767766545865,1.5707963269844925,-2.800000323583214
1.2292039453853743,-0.8905764931685687,2.0982999376253697,-2.778477140647969,1.5707963269846212,-2.8000003235832005
1.2292039447957201,-0.8899764700669676,2.098243577051164,-2.779020786554127,1.5707963269846665,-2.8000003235831907
1.2292039499157115,-0.8895684960433117,2.098205242105526,-2.7793904676465973,1.5707963269846754,-2.8000003235831836
1.2292039571314757,-0.8892911020488127,2.0981791676886226,-2.7796418520608435,1.570796326984671,-2.8000003235831787
1.2292039645669819,-0.8891024933969071,2.0981614325506808,-2.779812794325191,1.5707963269846639,-2.800000323583175
1.2292039713369554,-0.8889742526054477,2.0981493695686413,-2.7799290356506274,1.570796326984658,-2.8000003235831725
1.229203977102569,-0.8888870577627981,2.0981411646384114,-2.7800080801496314,1.5707963269846563,-2.8000003235831707
1.2292042256714633,-0.8847476236003423,2.097697284106503,-2.783706087356437,1.570796326985195,-2.8000003235852655
1.229204075266641,-0.8819301500012012,2.0973958384028966,-2.786220627493424,1.5707963269841323,-2.8000003235866564
1.2292039951015623,-0.8800144321164715,2.0971908132715433,-2.787930522922736,1.5707963269845486,-2.8000003235876276
1.2292039585280878,-0.8787118760869607,2.0970513663775656,-2.7890932580345353,1.5707963269847356,-2.800000323588286
1.2292039457274726,-0.8778262283019872,2.096956522042492,-2.78988392204525,1.5707963269847867,-2.800000323588733
1.229203945147306,-0.8772240492839543,2.0968920139030773,-2.790421576349003,1.5707963269847791,-2.800000323589036
1.2292039502367034,-0.8768146093664817,2.096848138811381,-2.790787183151615,1.5707963269847514,-2.8000003235892414
1.2292039574062872,-0.8765362186530355,2.096818297229751,-2.791035797048754,1.5707963269847216,-2.8000003235893813
1.2292039647930513,-0.8763469322930528,2.096798000511163,-2.7912048553615154,1.570796326984698,-2.8000003235894764
1.229203971518053,-0.8762182307016197,2.096784195716322,-2.791319815599923,1.5707963269846814,-2.8000003235895408
1.229203977245029,-0.8761307225433019,2.096774806395515,-2.791397988959788,1.570796326984672,-2.8000003235895847
1.2292042240422232,-0.8719776285400448,2.096275028193478,-2.7950537543387393,1.570796326985194,-2.800000323591802
1.2292040746862782,-0.8691508610701338,2.095935561441684,-2.797539569955107,1.5707963269841059,-2.8000003235932764
1.2292039950990212,-0.8672288237281522,2.0957046828360757,-2.799229932669909,1.570796326984512,-2.8000003235943045
1.229203958797549,-0.8659219708308139,2.0955476562073647,-2.8003793855251202,1.5707963269846936,-2.8000003235950017
1.2292039460974034,-0.8650334014339914,2.095440858081595,-2.8011610175980595,1.5707963269847398,-2.8000003235954747
1.2292039455272197,-0.8644292358999548,2.0953682216561034,-2.8016925301831668,1.5707963269847285,-2.8000003235957958
1.2292039505833348,-0.86401844527599,2.095318819527862,-2.802053960616876,1.5707963269846983,-2.8000003235960134
1.2292039577028588,-0.863739136167591,2.095285219695777,-2.802299734583154,1.570796326984668,-2.8000003235961612
1.22920396503685,-0.8635492253575408,2.0952623674581217,-2.8024668617429755,1.5707963269846428,-2.8000003235962616
1.2292039717131948,-0.8634200991800143,2.095246824972268,-2.8025805087974325,1.5707963269846255,-2.80000032359633
1.2292039773983858,-0.8633323023303933,2.0952362540636464,-2.8026577891922497,1.5707963269846137,-2.8000003235963766
1.229204222290683,-0.8591666987173492,2.0946807262088623,-2.8062703102993223,1.5707963269851888,-2.8000003235985162
1.2292040740637336,-0.8563314199485738,2.0943033391748194,-2.8087267197326202,1.5707963269841259,-2.800000323599939
1.2292039950971971,-0.8544035952801219,2.0940466756166347,-2.810397086202693,1.5707963269845564,-2.8000003236009308
1.2292039590874189,-0.8530928073488301,2.093872115846598,-2.811532941600795,1.5707963269847527,-2.8000003236016036
1.2292039464947009,-0.8522015623767116,2.093753395612693,-2.8123053273996095,1.5707963269848104,-2.80000032360206
1.2292039459348763,-0.8515955776243241,2.0936726524446216,-2.8128305525173545,1.570796326984807,-2.8000003236023696
1.2292039509550148,-0.8511835500513487,2.0936177379289855,-2.8131877074730305,1.5707963269847813,-2.8000003236025797
1.2292039580206446,-0.8509033998997159,2.0935803898075864,-2.8134305741142356,1.5707963269847522,-2.800000323602722
1.2292039652978977,-0.8507129172364734,2.0935549888242493,-2.813595724293052,1.570796326984729,-2.800000323602819
1.2292039719219683,-0.850583402237166,2.0935377132531623,-2.8137080270004713,1.5707963269847132,-2.800000323602885
1.229203977562286,-0.8504953410149119,2.0935259638885717,-2.8137843932393425,1.5707963269847038,-2.80000032360293
1.229204220419686,-0.8463183617028412,2.0929148495375376,-2.8173526990979143,1.5707963269852923,-2.8000003236047073
1.2292040733995893,-0.8434753431033845,2.092499653287285,-2.8197790420837054,1.5707963269842293,-2.800000323605883
1.2292039950954137,-0.8415422556889297,2.092217280301753,-2.8214289633295557,1.5707963269846652,-2.800000323606707
1.2292039593964013,-0.8402278894235008,2.092025238745816,-2.822550915964539,1.5707963269848653,-2.800000323607266
1.229203946917815,-0.8393342114215809,2.091894631324233,-2.8233138478811544,1.5707963269849257,-2.800000323607645
1.2292039463686668,-0.838726572374634,2.0918058051586623,-2.823832644358048,1.5707963269849228,-2.800000323607902
1.2292039513501707,-0.8383134199959345,2.0917453944017304,-2.8241854278377185,1.5707963269848988,-2.8000003236080766
1.2292039583581513,-0.8380325050551652,2.0917043089699927,-2.824425321875229,1.5707963269848706,-2.8000003236081947
1.2292039655747924,-0.8378415023892434,2.0916763667064315,-2.8245884506835734,1.5707963269848482,-2.800000323608275
1.229203972143054,-0.837711633824956,2.0916573631264543,-2.824699378859119,1.570796326984834,-2.8000003236083297
1.22920397773549,-0.8376233322036372,2.0916444387576982,-2.8247748104163515,1.5707963269848242,-2.800000323608367
1.2292042184322451,-0.8334360929946212,2.090977915724864,-2.8282979628254656,1.5707963269853422,-2.800000323610245
1.2292040726950701,-0.830586093712134,2.090525031297127,-2.830693601386937,1.570796326984221,-2.80000032361149
1.2292039950939708,-0.8286482597544387,2.090217031190384,-2.8323226435847273,1.5707963269846221,-2.800000323612361
1.229203959724421,-0.8273306661580151,2.0900075638145985,-2.8334303984564504,1.5707963269848,-2.800000323612952
1.2292039473665883,-0.8264347937981646,2.0898651072607497,-2.834183675890792,1.5707963269848442,-2.8000003236133524
1.2292039468284999,-0.825825662746467,2.089768223974341,-2.834695907318788,1.5707963269848313,-2.800000323613624
1.22920395176884,-0.8254114959142669,2.0897023345715593,-2.8350442265649796,1.5707963269847993,-2.800000323613808
1.2292039587155583,-0.8251298912205747,2.0896575237939294,-2.835281084923709,1.5707963269847673,-2.8000003236139333
1.2292039658678466,-0.8249384195743419,2.0896270483856605,-2.835442149470523,1.5707963269847414,-2.8000003236140185
1.2292039723768886,-0.8248082321387475,2.08960632232874,-2.835551673948271,1.5707963269847227,-2.8000003236140762
1.2292039779185304,-0.8247197137090216,2.089592226717404,-2.835626150991038,1.5707963269847125,-2.8000003236141153
1.2292042163324777,-0.8205233105836526,2.0888704869627945,-2.8391032457263843,1.570796326985259,-2.8000003236157207
1.2292040719518251,-0.8176670762799215,2.0883800450203456,-2.8414675649910124,1.570796326984149,-2.8000003236167803
1.2292039950931481,-0.8157250028116396,2.0880465066423564,-2.8430753100278934,1.5707963269845637,-2.8000003236175255
1.2292039600710907,-0.8144045266519084,2.0878196738621915,-2.8441685828197096,1.570796326984751,-2.8000003236180304
1.2292039478403642,-0.8135066943660161,2.0876654092568256,-2.844912012436483,1.5707963269848007,-2.800000323618373
1.2292039473136611,-0.8128962307162639,2.0875604967832846,-2.845417547347586,1.5707963269847918,-2.8000003236186046
1.2292039522103542,-0.8124811578223371,2.087489147728764,-2.845761312962061,1.5707963269847638,-2.800000323618762
1.2292039590922905,-0.8121989370788504,2.0874406245206933,-2.845995074851209,1.5707963269847336,-2.800000323618869
1.2292039661765894,-0.8120070465682083,2.0874076247498596,-2.8461540337987445,1.5707963269847094,-2.8000003236189412
1.2292039726230948,-0.8118765743386084,2.0873851821876075,-2.846262126469025,1.570796326984691,-2.8000003236189905
1.229203978111116,-0.8117878622719997,2.0873699193942237,-2.846335629882748,1.570796326984681,-2.8000003236190243
1.22920421412382,-0.8075833697751794,2.086593168472077,-2.849765797758942,1.5707963269852605,-2.8000003236202833
1.2292040711706995,-0.8047216315279063,2.086065308926577,-2.852098206680842,1.5707963269841654,-2.800000323621108
1.2292039950923574,-0.8027758156648112,2.085706327416032,-2.853684252646144,1.5707963269845928,-2.800000323621693
1.2292039604351235,-0.8014527949661843,2.0854621939229117,-2.854762770058905,1.5707963269847898,-2.800000323622089
1.2292039483375734,-0.8005532326008624,2.0852961652541575,-2.855496166014723,1.5707963269848466,-2.800000323622357
1.2292039478225205,-0.7999415926418658,2.0851832535040287,-2.855994878035439,1.5707963269848426,-2.8000003236225384
1.2292039526731333,-0.7995257199578826,2.0851064651360063,-2.8563340040842222,1.5707963269848157,-2.8000003236226614
1.2292039594868613,-0.7992429554261152,2.0850542433268693,-2.8565646110686824,1.5707963269847873,-2.800000323622745
1.2292039664996406,-0.7990506951866893,2.0850187285970216,-2.856721424681065,1.5707963269847645,-2.8000003236228017
1.2292039728803936,-0.7989199715738087,2.0849945759235693,-2.856828058523482,1.5707963269847476,-2.8000003236228403
1.229203978312054,-0.7988310885885949,2.084978150295955,-2.8569005699342926,1.5707963269847374,-2.8000003236228665
1.229204211809712,-0.7946195582941972,2.0841466067607297,-2.8602829777479473,1.5707963269853087,-2.8000003236241704
1.2292040703529896,-0.7917530315524076,2.083581478368571,-2.862582909749151,1.5707963269842002,-2.8000003236250257
1.2292039950917713,-0.7898039597830877,2.0831971548780666,-2.8641468713704517,1.5707963269846235,-2.8000003236256314
1.2292039608162164,-0.7884787253437447,2.0829357894524905,-2.865210371419042,1.570796326984817,-2.800000323626042
1.229203948857786,-0.7875776578319158,2.0827580434887927,-2.8659335555640633,1.5707963269848721,-2.8000003236263193
1.2292039483546995,-0.7869649945112832,2.082637164263054,-2.86642532355251,1.570796326984866,-2.8000003236265076
1.2292039531569259,-0.7865484260369662,2.08255495820514,-2.8667597276591223,1.5707963269848386,-2.800000323626635
1.2292039598991695,-0.7862651884335472,2.0824990524982807,-2.8669871237228866,1.5707963269848095,-2.8000003236267217
1.2292039668370447,-0.7860726065504879,2.0824610328072146,-2.867141753909229,1.570796326984785,-2.8000003236267803
1.2292039731489581,-0.785941664250746,2.08243517682074,-2.8672469030219783,1.5707963269847671,-2.8000003236268203
1.2292039785216264,-0.7858526325794907,2.0824175929814386,-2.867318404816645,1.5707963269847576,-2.8000003236268474
1.2292042093947433,-0.7816350916636536,2.081531487773823,-2.8706522561569945,1.5707963269853276,-2.8000003236279962
1.2292040695007496,-0.7787644752770029,2.080929247718385,-2.8729191696786707,1.5707963269842105,-2.8000003236287467
1.2292039950920708,-0.7768126228028359,2.0805196891303512,-2.8744606786966242,1.5707963269846308,-2.8000003236292805
1.2292039612144128,-0.7754854977459033,2.0802411644487413,-2.8755089109648333,1.5707963269848229,-2.800000323629643
1.229203949400818,-0.7745831448016437,2.0800517506075136,-2.876221713016081,1.570796326984877,-2.800000323629887
1.2292039489099986,-0.7739696075182754,2.079922937508269,-2.876706421179845,1.570796326984871,-2.800000323630053
1.2292039536616173,-0.7735524448403042,2.0798353366087197,-2.877036024605447,1.570796326984843,-2.800000323630165
1.2292039603292249,-0.7732688032410563,2.0797757625401596,-2.877260156206103,1.5707963269848144,-2.800000323630241
1.2292039671889388,-0.7730759466837818,2.079735248451836,-2.877412566557563,1.5707963269847893,-2.8000003236302926
1.2292039734290447,-0.772944817634935,2.0797076963354715,-2.8775162061826296,1.5707963269847725,-2.8000003236303277
1.2508619089842448,-0.807796771445397,2.0648755032662938,-2.863308529570466,1.5667459278914226,-2.804617798734156
1.2701622992227908,-0.8347678000351174,2.0511942940676153,-2.853500783802803,1.573100096325934,-2.817606040955673
1.2786841835267655,-0.8478425191351978,2.049625855162424,-2.8450715165257185,1.5741984175624006,-2.834741514080427
1.2868926528214262,-0.8594341962270179,2.0497261969743015,-2.8390617905623676,1.57587845615624,-2.845279202872378
1.292523803813188,-0.8718529405244694,2.047880556698608,-2.8297047827210733,1.575135506702025,-2.8657866815988973
1.2911467875835871,-0.8750254328481687,2.0417938498933355,-2.82496237410073,1.570214164973577,-2.883848734251054
1.2957436104234101,-0.8877053307021078,2.041550064815702,-2.8145969196158585,1.5714174854245124,-2.8922845508124486
1.2959058764998923,-0.8881491131009679,2.0415447530013933,-2.8142352810204483,1.571462358500836,-2.892571593966018
1.295677882345268,-0.9091382119197532,2.0626679194537862,-2.785537351640091,1.5712492712814685,-2.8840690502010426
1.2955252500238332,-0.9234221467371996,2.0770347489547833,-2.766021600484158,1.571104337253858,-2.8782858354633327
1.2954213255396805,-0.9331347562598608,2.086804251764383,-2.752750441111369,1.5710057733418528,-2.874352893426236
1.2953505291514196,-0.9397388802343841,2.093447452994043,-2.7437259025381695,1.5709387485839512,-2.871678440657474
1.2953022958293556,-0.9442293679619275,2.09796475783552,-2.7375891645512236,1.5708931721342965,-2.869859828939614
1.2952694326935528,-0.9472826830883657,2.101036464878055,-2.73341616356295,1.5708621806996699,-2.868623195796767
1.2952470409753698,-0.9493587905052453,2.1031251803522006,-2.7305785149910293,1.5708411069298776,-2.867782302098759
1.2952317837203728,-0.9507704441752257,2.1045454743143,-2.728648910242635,1.5708267770195186,-2.8672105049405134
1.295221387584448,-0.9517303014530983,2.1055112513325764,-2.727336777024065,1.5708170328277176,-2.8668216890577134
1.2952143037014334,-0.9523829589172469,2.106167963824253,-2.726444525262489,1.5708104068599955,-2.866557297762936
1.2952094767501054,-0.9528267351997942,2.106614517367527,-2.7258377933292928,1.5708059012474946,-2.866377513635069
1.2952061876628929,-0.9531284822182043,2.1069181662541387,-2.7254252151376166,1.5708028374557916,-2.8662552615054513
1.2952039464762775,-0.9533336560662872,2.1071246423404104,-2.72514466165216,1.5708007540908313,-2.8661721306486476
1.2952024193311076,-0.9534731647170601,2.107265042548408,-2.724953885072123,1.5707993374098637,-2.8661156019896965
1.2952013787354675,-0.9535680241226813,2.1073605122735644,-2.724824156857337,1.5707983740706695,-2.8660771626785304
1.2952006696756104,-0.9536325241350782,2.107425430033025,-2.724735941577345,1.5707977190020888,-2.8660510240435855
1.2952004383611586,-0.9496630360109919,2.1073078860729844,-2.7285300369756347,1.5707972735562536,-2.8660332497889467
1.2951999500787998,-0.9469611503022453,2.1072284011953593,-2.731109917123622,1.5707969706519833,-2.866021163317839
1.2951996399017767,-0.9451240261138598,2.1071743055341257,-2.7328642437830113,1.5707967646785561,-2.8660129445344302
1.2951994468940977,-0.9438749090394551,2.1071374877668685,-2.734057192073149,1.5707966246167406,-2.866007355770914
1.295199327718681,-0.9430255964395727,2.1071124292505434,-2.734868400989424,1.570796529374752,-2.8660035554167114
1.2951992548117301,-0.9424481230774271,2.10709537411848,-2.7354200257860044,1.570796464610231,-2.8660009711785617
1.2951992107280406,-0.942055481454931,2.107083766156129,-2.735795132492969,1.5707964205703828,-2.8659992138980903
1.2951991844678457,-0.941788512526041,2.107075865600777,-2.736050206303731,1.570796390623309,-2.8659980189481695
1.2951991691285656,-0.9416069922623989,2.1070704883576026,-2.7362236573432077,1.5707963702593202,-2.8659972063826586
1.2951991604044788,-0.9414835711304455,2.1070668285187018,-2.7363416046259545,1.5707963564118246,-2.865996653838351
1.295199155629418,-0.9413996533557768,2.107064337572327,-2.7364218091693817,1.5707963469955457,-2.865996278108351
1.295199404097793,-0.9373099855058997,2.106845199093595,-2.740293935558592,1.570796340592532,-2.8659960226166006
1.2951992444455787,-0.9345263762742066,2.1066966180477698,-2.7429268770813984,1.5707963362370763,-2.8659958488816333
1.295199158536521,-0.9326336844409552,2.106595537690233,-2.7447172856272477,1.5707963332764894,-2.8659957307420005
1.295199118542004,-0.9313467844850039,2.1065267708692406,-2.74593476970404,1.5707963312632047,-2.865995650407112
1.295199103753386,-0.9304717816684941,2.1064799873610807,-2.746762663024631,1.570796329894102,-2.865995595779415
1.2951991020547373,-0.9298768404219167,2.1064481594802884,-2.7473256332628218,1.570796328963074,-2.8659955586325947
1.2951991065437483,-0.9294723216327822,2.106426506214875,-2.747708454901542,1.5707963283299566,-2.8659955333727622
1.295199113414665,-0.9291972769052099,2.1064117749661713,-2.7479687748870933,1.5707963278994317,-2.865995516196078
1.2951991206731543,-0.9290102655550109,2.1064017529283725,-2.748145793339677,1.570796327606672,-2.865995504515934
1.2951991273619328,-0.9288831107925714,2.1063949346817337,-2.7482661664728973,1.5707963274075976,-2.865995496573437
1.2951991330990054,-0.9287966543570578,2.106390296054241,-2.748348020601037,1.5707963272722307,-2.8659954911725385
1.2951993875341494,-0.9246871962946493,2.106114009008641,-2.752183641584083,1.5707963271807255,-2.865995487502827
1.2951992335053832,-0.9218901229274217,2.10592655583405,-2.754791759360568,1.5707963271170995,-2.865995485007339
1.2951991513445602,-0.9199882759810348,2.1057990432633673,-2.7565652877201354,1.5707963270749559,-2.865995483310441
1.2951991138249734,-0.9186951510065878,2.1057123031702556,-2.757771293260902,1.5707963270462033,-2.8659954821565528
1.2951991006666446,-0.9178159155011445,2.1056532982696723,-2.7585913811745404,1.5707963270265768,-2.86599548137191
1.2951991000397656,-0.9172180962504871,2.105613160136185,-2.7591490437355746,1.5707963270131888,-2.865995480838352
1.2951991052320653,-0.9168116205728822,2.105585856098704,-2.75952825615394,1.5707963270040626,-2.8659954804755334
1.2951991125636482,-0.9165352452666815,2.1055672824606426,-2.759786121869851,1.5707963269978475,-2.8659954802288166
1.2951991201233373,-0.9163473291949258,2.105554647690216,-2.759961471419254,1.5707963269936172,-2.865995480061049
1.2951991270086844,-0.9162195592707001,2.1055460528479935,-2.760080709698435,1.5707963269907417,-2.865995479946967
1.2951991328737906,-0.9161326845583125,2.105540206178054,-2.760161792125909,1.570796326988786,-2.865995479869391
1.2951993860450646,-0.9120060729722951,2.1052074936375966,-2.7639581501364354,1.5707963269879588,-2.86599547981922
1.2951992328966109,-0.9091973287768785,2.104981660122966,-2.7665395690153027,1.5707963269859828,-2.865995479785066
1.2951991512339962,-0.9072875460972797,2.1048280497589738,-2.768294942083197,1.5707963269857683,-2.865995479761867
1.2951991139609267,-0.9059890252330586,2.104723563799745,-2.7694886020148126,1.570796326985526,-2.8659954797460907
1.295199100905176,-0.9051061208125772,2.104652492143088,-2.7703002949109035,1.5707963269852865,-2.8659954797353615
1.2951991003028742,-0.9045058069015374,2.1046041489097536,-2.770852248859039,1.5707963269850809,-2.865995479728065
1.2951991054807361,-0.9040976349941343,2.1045712656041706,-2.7712275794204086,1.5707963269849188,-2.8659954797231033
1.2951991127811202,-0.9038201063472528,2.1045488981994107,-2.771482805473556,1.5707963269847989,-2.865995479719729
1.2951991203049655,-0.9036314060692079,2.1045336837596875,-2.771656360052326,1.5707963269847125,-2.8659954797174345
1.2951991271559518,-0.903503102929322,2.1045233348048487,-2.771774377751525,1.570796326984654,-2.8659954797158744
1.2951991329908819,-0.9034158656606808,2.104516295380776,-2.7718546301846487,1.5707963269846157,-2.8659954797148135
1.2951993846493988,-0.8992733245581813,2.104127268501347,-2.7756105999706375,1.5707963269851466,-2.8659954797166023
1.2951992323961763,-0.896453742293121,2.103863130330256,-2.7781645547793947,1.5707963269840817,-2.865995479717784
1.295199151229326,-0.8945365901369294,2.103683473640093,-2.779901252238325,1.5707963269844936,-2.865995479718613
1.2951991141907966,-0.8932330584217117,2.103561276812165,-2.781082212744986,1.570796326984679,-2.8659954797191753
1.2951991012224715,-0.8923467469017035,2.1034781621974794,-2.7818852700287704,1.5707963269847274,-2.8659954797195564
1.2951991006296937,-0.8917441163573981,2.103421630046837,-2.7824313517595707,1.5707963269847187,-2.865995479719815
1.2951991057796608,-0.8913343692735994,2.1033831784771913,-2.7828026892129296,1.5707963269846894,-2.8659954797199902
1.2951991130375111,-0.891055769598938,2.1033570247884237,-2.783055199952625,1.57079632698466,-2.8659954797201093
1.2951991205163222,-0.8908663410850777,2.103339235767593,-2.7832269081182965,1.570796326984635,-2.865995479720191
1.2951991273256913,-0.8907375427878935,2.103327136160079,-2.7833436702566385,1.5707963269846195,-2.8659954797202456
1.29519913312483,-0.8906499688416523,2.1033189063346125,-2.783423068908422,1.570796326984609,-2.865995479720283
1.2951993831273643,-0.8864926912705496,2.102873683839035,-2.787137575720334,1.570796326985184,-2.865995479722449
1.2951992318526804,-0.8836630826387605,2.102571321846777,-2.7896633356284046,1.570796326984139,-2.8659954797238885
1.295199151226031,-0.8817391129452601,2.1023656738003242,-2.7913808605136694,1.5707963269845713,-2.865995479724893
1.2951991144422368,-0.8804309456822743,2.102225803482655,-2.792548783659361,1.5707963269847685,-2.8659954797255747
1.295199101568265,-0.8795414822581831,2.102130671327212,-2.7933429755343404,1.570796326984828,-2.865995479726037
1.295199100985109,-0.8789367086061436,2.1020659675427322,-2.7938830287861833,1.5707963269848249,-2.8659954797263505
1.2951991061041188,-0.8785255043382707,2.102021959461609,-2.794250266873625,1.5707963269848002,-2.865995479726563
1.2951991133152316,-0.8782459138671709,2.101992027480478,-2.7944999900444922,1.5707963269847736,-2.8659954797267075
1.295199120744711,-0.8780558116724626,2.1019716693127872,-2.7946698026634063,1.5707963269847494,-2.8659954797268057
1.295199127508562,-0.877926555313777,2.101957822747838,-2.7947852758300042,1.5707963269847347,-2.8659954797268723
1.295199133268593,-0.8778386699139855,2.101948405033712,-2.7948637979810425,1.5707963269847243,-2.8659954797269176
1.2951993814777798,-0.8736678357958844,2.1014471217571016,-2.7985357964875406,1.5707963269852667,-2.865995479729183
1.2951992312649778,-0.8708290035696897,2.1011066277413186,-2.8010326506689003,1.570796326984189,-2.8659954797306897
1.2951991512232317,-0.8688987622054906,2.1008750507623417,-2.802730519618977,1.5707963269846046,-2.86599547973174
1.2951991147147615,-0.8675863305686411,2.100717549402135,-2.803885076717863,1.5707963269847918,-2.8659954797324523
1.295199101942483,-0.8666939676280232,2.1006104285693405,-2.8046701796776703,1.5707963269848422,-2.8659954797329354
1.2951991013694313,-0.8660872224844329,2.100537572777677,-2.8052040524662236,1.570796326984834,-2.865995479733263
1.2951991064547552,-0.8656746777264555,2.1004880215308974,-2.8055670878383996,1.570796326984805,-2.8659954797334866
1.2951991136152003,-0.8653941758073864,2.1004543203323616,-2.8058139531628776,1.5707963269847756,-2.8659954797336376
1.295199120991267,-0.8652034538864509,2.1004313991886514,-2.805981822446292,1.5707963269847516,-2.86599547973374
1.2951991277058699,-0.8650737761538102,2.100415809862354,-2.8060959741448,1.570796326984734,-2.8659954797338094
1.2951991334236077,-0.8649856042469237,2.1004052071128503,-2.8061735976975766,1.5707963269847243,-2.865995479733857
1.2951993797049473,-0.8608023786913416,2.0998480137426383,-2.8098020732426163,1.5707963269852663,-2.8659954797359974
1.2951992306350624,-0.8579551155654125,2.0994694902863205,-2.812269331730626,1.5707963269841778,-2.86599547973742
1.2951991512216163,-0.8560191415445318,2.099212054132099,-2.813947075568451,1.5707963269845928,-2.8659954797384124
1.2951991150084,-0.854702812048082,2.099036969162946,-2.8150879475801527,1.5707963269847804,-2.8659954797390856
1.2951991023448666,-0.8538077988100111,2.0989178919066704,-2.815863744677335,1.5707963269848313,-2.865995479739542
1.2951991017823126,-0.8531992516365348,2.0988369060398,-2.8163912894783296,1.5707963269848229,-2.8659954797398517
1.2951991068312354,-0.852785481617392,2.0987818265406726,-2.816750021818736,1.5707963269847944,-2.865995479740062
1.2951991139371446,-0.8525041466026171,2.0987443662654948,-2.816993961081601,1.5707963269847638,-2.8659954797402047
1.295199121255795,-0.8523128582326737,2.0987188890412933,-2.8171598406431624,1.570796326984739,-2.8659954797403016
1.295199127917497,-0.852182795353002,2.098701561642479,-2.8172726393308563,1.5707963269847212,-2.8659954797403677
1.2951991335898254,-0.8520943615722482,2.0986897770459176,-2.8173493428363177,1.570796326984711,-2.8659954797404126
1.2951993778116127,-0.8478998929754791,2.0980768396747598,-2.820933312891588,1.57079632698526,-2.8659954797423457
1.295199229963058,-0.8450449802733729,2.0976603998420025,-2.8233703075666488,1.5707963269841665,-2.865995479743628
1.2951991512198062,-0.8431038048777025,2.097377181396439,-2.8250274719712185,1.5707963269845842,-2.8659954797445244
1.2951991153209914,-0.841783938778231,2.0971845650976384,-2.826154349957502,1.5707963269847725,-2.8659954797451324
1.2951991027728946,-0.8408865208866632,2.097053566966553,-2.8269206311140738,1.5707963269848244,-2.8659954797455445
1.2951991022211033,-0.8402763387139504,2.0969644751967267,-2.8274417050744822,1.570796326984817,-2.8659954797458242
1.2951991072309035,-0.8398614570095218,2.0969038838818186,-2.8277960372430577,1.570796326984788,-2.865995479746014
1.2951991142784576,-0.839579366127257,2.096862675706487,-2.828036984389065,1.570796326984757,-2.8659954797461435
1.2951991215357608,-0.8393875638211831,2.0968346500015533,-2.8282008293112035,1.5707963269847331,-2.8659954797462306
1.2951991281409827,-0.8392571515016678,2.096815589697891,-2.828312244444137,1.5707963269847165,-2.86599547974629
1.2951991337648527,-0.8391684801268654,2.096802626768175,-2.8283880071323977,1.5707963269847065,-2.8659954797463305
1.2951993758003408,-0.8349638983474247,2.096134126404687,-2.831926522632089,1.5707963269852965,-2.865995479747926
1.2951992292501147,-0.8321021047802486,2.0956798934077616,-2.834332608129281,1.5707963269842218,-2.865995479748979
1.2951991512182923,-0.8301562507154645,2.095370976454993,-2.835968754252851,1.570796326984657,-2.8659954797497194
1.2951991156528377,-0.828833203437912,2.0951608857976063,-2.837081339797319,1.5707963269848582,-2.8659954797502216
1.2951991032269166,-0.8279336225713929,2.095018005530506,-2.837837902090149,1.5707963269849172,-2.865995479750562
1.2951991026863106,-0.8273219697336921,2.0949208341990717,-2.8383523672222473,1.5707963269849148,-2.8659954797507923
1.2951991076544573,-0.8269060880863593,2.0948547489798037,-2.8387022053873383,1.5707963269848904,-2.8659954797509486
1.2951991146400248,-0.8266233173180708,2.094809805083621,-2.838940096610961,1.5707963269848635,-2.8659954797510547
1.2951991218322148,-0.8264310527409778,2.09477923917957,-2.839101863505918,1.5707963269848395,-2.8659954797511267
1.2951991283775177,-0.8263003261123425,2.094758451602348,-2.8392118655804124,1.5707963269848249,-2.865995479751176
1.2951991339499953,-0.8262114410313245,2.0947443141686146,-2.8392866673889703,1.5707963269848146,-2.8659954797512093
1.295199373675824,-0.8219978556474082,2.0940204462160654,-2.8427788139510737,1.5707963269852974,-2.8659954797528577
1.2951992284982168,-0.8191299361282284,2.0935285530607057,-2.8451533684906383,1.570796326984141,-2.8659954797539466
1.295199151217531,-0.8171799167176333,2.093194028043895,-2.8467680735234433,1.5707963269845258,-2.8659954797547114
1.2951991160036271,-0.8158540373071139,2.09296652452673,-2.847866079115547,1.5707963269846925,-2.86599547975523
1.2951991037062862,-0.8149525308060592,2.0928118039410077,-2.8486127270374886,1.570796326984729,-2.8659954797555813
1.295199103177189,-0.8143395686877644,2.0927065814825707,-2.8491204503964207,1.5707963269847107,-2.86599547975582
1.2951991081011722,-0.8139227968340665,2.092635021693654,-2.849465704155527,1.5707963269846748,-2.8659954797559815
1.2951991150211961,-0.8136394207972931,2.0925863552236703,-2.8497004779830637,1.570796326984641,-2.865995479756092
1.2951991221446022,-0.8134467446868492,2.0925532580601267,-2.8498601250487203,1.5707963269846117,-2.865995479756166
1.2951991286266353,-0.8133157382491634,2.0925307492880423,-2.849968685639331,1.5707963269845928,-2.865995479756217
1.2951991341448652,-0.8132266629209328,2.092515441483637,-2.850042507238884,1.5707963269845822,-2.865995479756251
1.2951993714414876,-0.8090051615813514,2.0917364151746867,-2.853487406250988,1.5707963269851601,-2.8659954797577
1.295199227708152,-0.8061318561032526,2.0912070042754682,-2.855829832376663,1.5707963269840597,-2.8659954797586535
1.2951991512168504,-0.8041781745248625,2.0908469680352666,-2.857422690048987,1.5707963269844871,-2.8659954797593263
1.2951991163719774,-0.8028498051279314,2.0906021175070384,-2.858505839425429,1.5707963269846834,-2.8659954797597824
1.2951991042093345,-0.8019466056418653,2.0904356013777514,-2.859242385117473,1.5707963269847403,-2.865995479760091
1.2951991036920079,-0.8013324924376826,2.090322358237948,-2.8597432389591217,1.570796326984735,-2.8659954797603002
1.2951991085693686,-0.8009149379452359,2.090245344581469,-2.8600838214462434,1.5707963269847096,-2.8659954797604423
1.29519911542039,-0.8006310297826845,2.090192969614466,-2.8603154188088116,1.5707963269846814,-2.8659954797605387
1.2951991224714452,-0.8004379918736982,2.0901573507632127,-2.8604729058783245,1.5707963269846577,-2.865995479760605
1.2951991288869653,-0.8003067394451197,2.090133127304789,-2.860579997671598,1.5707963269846401,-2.865995479760649
1.2951991343481821,-0.8002174968649862,2.0901166535553135,-2.860652820488995,1.5707963269846301,-2.865995479760679
1.2951993692392898,-0.7959891434898699,2.0892826910020594,-2.8640496299706193,1.5707963269694796,-2.8659954798991016
1.2951992271139185,-0.7931111759017415,2.0887159135361473,-2.8663593551360154,1.5707963269576761,-2.865995479993198
1.2951991515131778,-0.7911543243558532,2.088330468871247,-2.8679299761169195,1.57079632695083,-2.865995480057207
1.2951991170978978,-0.7898237996544741,2.0880683412317604,-2.868998004532791,1.5707963269460803,-2.865995480100732
1.2951991051055676,-0.7889191347571705,2.0878900770884514,-2.86972426796844,1.5707963269427734,-2.865995480130328
1.2951991046204703,-0.7883040252103926,2.0877688455857837,-2.870218129874799,1.5707963269404812,-2.865995480150452
1.295199109462575,-0.7878857932999282,2.0876864000372537,-2.87055395784569,1.5707963269388994,-2.8659954801641363
1.295199116250601,-0.7876014245584748,2.087630331515861,-2.8707823221372024,1.5707963269378131,-2.8659954801734413
1.295199123232224,-0.7874080735006298,2.0875922011374,-2.8709376107184297,1.5707963269370704,-2.8659954801797687
1.295199129582422,-0.7872766081614402,2.0875662699014517,-2.8710432075397083,1.5707963269365641,-2.865995480184071
1.2951991349868994,-0.787187220822982,2.0875486349046795,-2.8711150137761816,1.5707963269362213,-2.8659954801869967
1.2951993669483242,-0.7829530553678985,2.0866599722038592,-2.874462929647709,1.5707963269522507,-2.865995480052579
1.2951992262162946,-0.7800711332141086,2.086055988862533,-2.876739407079203,1.570796326961643,-2.865995479961144
1.2951991513504062,-0.7781115928142772,2.085645245040693,-2.8782874195632897,1.5707963269692127,-2.865995479898992
1.295199117250913,-0.7767792399516612,2.0853659145883343,-2.879340074191072,1.5707963269742673,-2.865995479856727
1.2951991053461562,-0.7758733320907143,2.085175952951312,-2.880055883447658,1.570796326977627,-2.8659954798279865
1.2951991048334128,-0.7752573774589506,2.085046767437825,-2.880542636511322,1.5707963269798682,-2.8659954798084413
1.2951991095971052,-0.7748385709809985,2.084958913355441,-2.88087363046895,1.5707963269813685,-2.8659954797951506
1.2951991162911356,-0.7745538115958366,2.0848991671624253,-2.8810987076314203,1.5707963269823781,-2.8659954797861125
1.295199123181125,-0.7743601949429,2.084858536056497,-2.881251760964931,1.5707963269830614,-2.8659954797799663
1.295199129450143,-0.7742285490281958,2.0848309043864806,-2.8813558378178006,1.5707963269835243,-2.865995479775787
1.3116020206012673,-0.8010483130978673,2.0643743955809213,-2.8717322961189993,1.5686681700943403,-2.8809810532698794
1.3289235768254626,-0.8211229791965423,2.048907203999242,-2.873005636615296,1.565960782655227,-2.9052908068340164
1.3377702834209062,-0.8389967947715514,2.0393729900574953,-2.864959107233361,1.5655269837446193,-2.917651023542047
1.3454619315449832,-0.8502552465863048,2.034523884564348,-2.858746781320095,1.5661186410950934,-2.9281897757012842
1.3494826839042198,-0.8557764119336378,2.0345388007177236,-2.852445606550703,1.565638964982707,-2.93069282987212
1.3526233687811575,-0.8663550518626363,2.0335892207337443,-2.8490421066257445,1.5625488105483192,-2.936453494573633
1.3544848923903008,-0.8718845862389822,2.0308369407190887,-2.8339819034219857,1.558639631583788,-2.94609187710845
1.3545612188675271,-0.8847991660116304,2.0358355766137937,-2.8256108254284285,1.5596584665909785,-2.9550077619196884
1.3609053929778632,-0.8926522480160503,2.031876982989956,-2.8148504815303395,1.5637838083362874,-2.9725600605131866
1.3610516813818723,-0.892831294084301,2.0317848871353714,-2.8146035084498204,1.563878766989666,-2.972963540157871
1.360284556841187,-0.912149374757912,2.0555876116807603,-2.7855198026118466,1.5660917538368913,-2.959045211411074
1.3597650187532109,-0.9252953770030333,2.0717772963599654,-2.7657408366501777,1.567597107248608,-2.9495773706097554
1.3594116234558173,-0.9342342830598466,2.0827862248672346,-2.7522904502428274,1.5686208694882366,-2.943138423167206
1.3591712051994433,-0.9403123704966186,2.090272165673359,-2.743143964917122,1.5693170449445135,-2.9387598154370065
1.3590076410050436,-0.944445211704175,2.0953624899958396,-2.7369242824970534,1.5697904381207002,-2.935782395805244
1.3588963608074887,-0.9472553674025138,2.098823822099716,-2.7326948742288177,1.5701123372807686,-2.9337578004783103
1.3588206507702971,-0.9491661537926185,2.101177463897221,-2.7298188680765114,1.5703312227156605,-2.9323811128660515
1.3587691405971571,-0.9504654077374138,2.10277789518529,-2.7278631806263927,1.5704800610650338,-2.9314449886877036
1.3587340948568638,-0.9513488457844631,2.1038661570918156,-2.7265333117536152,1.5705812689493088,-2.9308084379746284
1.3587102508479227,-0.9519495466951885,2.1046061535551255,-2.7256290002287313,1.5706500890668502,-2.9303755912768668
1.3586940280953816,-0.9523579982969678,2.1051093362983275,-2.725014068009878,1.570696886053048,-2.9300812598618378
1.3586829905968412,-0.9526357284469612,2.1054514903942803,-2.7245959138718647,1.5707287076200958,-2.9298811168946255
1.3586754809869759,-0.952824573477998,2.1056841482269215,-2.724311568913492,1.5707503460745735,-2.9297450209918146
1.3586703716500952,-0.9529529803318207,2.1058423508037394,-2.7241182142482456,1.5707650601076797,-2.92965247649776
1.358666895391623,-0.9530402917344983,2.105949925312844,-2.723986733014574,1.570775065586582,-2.9295895466353388
1.3586645302350295,-0.9530996599307694,2.106023073764553,-2.723897325735332,1.570781869277349,-2.929546754543912
1.3586631724889011,-0.9491314673883636,2.105911258200774,-2.727685958292429,1.5707864957666637,-2.9295176560054714
1.3586619188098763,-0.9464304634390135,2.1058356693188727,-2.730262123742111,1.5707896417687415,-2.929497869050707
1.3586610881776022,-0.9445939391028932,2.105784222729723,-2.732013924427524,1.5707917810452534,-2.929484413958767
1.358660541265246,-0.9433452301042837,2.1057492061784346,-2.7332051550679393,1.570793235749932,-2.9294752645165416
1.3586601814376917,-0.9424961951139397,2.1057253723848275,-2.734015195990398,1.5707942249472875,-2.929469042906848
1.3586599448891798,-0.9419189106053288,2.105709149993678,-2.7345660265563985,1.570794897600517,-2.929464812218246
1.358659789530374,-0.9415263974562073,2.105698108247457,-2.7349405931900126,1.5707953550042073,-2.9294619353532547
1.3586596876037682,-0.9412595159246784,2.1056905926868703,-2.735195299753185,1.5707956660384643,-2.9294599790868365
1.3586596208116941,-0.9410780551149481,2.1056854772184197,-2.73536850106582,1.570795877541642,-2.9294586488266416
1.3586595770998844,-0.940954674427467,2.1056819953717087,-2.735486278535325,1.5707960213637577,-2.9294577442502385
1.3586595485332356,-0.9408707841655443,2.105679625450193,-2.735566367606416,1.5707961191627882,-2.929457129138575
1.358659780436252,-0.9367859131479568,2.105460746644773,-2.739433815150112,1.5707961856660693,-2.929456710869908
1.358659610029416,-0.934005566200291,2.1053123431092198,-2.7420635750465405,1.5707962308870542,-2.929456426446168
1.3586595167725366,-0.932115092718592,2.1052113834187787,-2.7438518200830706,1.5707962616384268,-2.929456233038286
1.3586594717536147,-0.930829701244008,2.105142698611752,-2.7450678329724867,1.5707962825492685,-2.929456101521045
1.3586594535295755,-0.9299557241958226,2.1050959708462327,-2.7458947258853703,1.5707962967685747,-2.929456012089377
1.358659449482119,-0.9293614804721166,2.105064180852341,-2.7464570158462513,1.5707963064376718,-2.9294559512758704
1.3586594523653175,-0.9289574359986859,2.105042553337816,-2.746839374896391,1.5707963130126468,-2.9294559099226976
1.3586594581384244,-0.928682713805834,2.1050278395914774,-2.747099380321712,1.5707963174836284,-2.9294558818025447
1.3586594646464176,-0.9284959217792219,2.1050178294497215,-2.747276184873345,1.5707963205239004,-2.929455862680843
1.358659470822142,-0.9283689161567734,2.1050110192886358,-2.7473964125539196,1.5707963225912918,-2.9294558496780865
1.3586594762084832,-0.9282825611363983,2.1050063861567825,-2.7474781677742612,1.570796323997124,-2.9294558408362126
1.3586597300186027,-0.9241779392594583,2.1047303254539633,-2.7513091773073968,1.570796324953631,-2.929455834826596
1.3586595760685056,-0.9213841549287076,2.1045430271452017,-2.7539141592862526,1.5707963256026698,-2.9294558307399283
1.358659493926266,-0.9194845445225382,2.104415619844203,-2.755685555299885,1.570796326045137,-2.9294558279610357
1.3586594563913579,-0.9181929403957403,2.1043289512952095,-2.756890110844257,1.5707963263459204,-2.9294558260713957
1.3586594432037593,-0.9173147390663927,2.1042699950179977,-2.7577092127599796,1.5707963265503788,-2.929455824786442
1.3586594425442544,-0.9167176230550572,2.1042298899304392,-2.758266204842313,1.5707963266893703,-2.929455823912675
1.3586594477057583,-0.9163116255798247,2.104202608352052,-2.7586449613351234,1.5707963267838618,-2.9294558233185133
1.3586594550105577,-0.916035575450948,2.1041840499779667,-2.758902517021644,1.5707963268481075,-2.929455822914483
1.3586594625480666,-0.9158478804995642,2.1041714255814874,-2.7590776557510566,1.5707963268917922,-2.929455822639743
1.3586594694156315,-0.9157202609370357,2.1041628377897883,-2.7591967506726403,1.5707963269214968,-2.9294558224529195
1.3586594752668084,-0.9156334884704965,2.1041569959116564,-2.759277735616947,1.5707963269416978,-2.9294558223258798
1.3586597280468717,-0.9115116985220617,2.1038245540240506,-2.7630695430648013,1.5707963269559737,-2.9294558222419225
1.3586595751301382,-0.9087062334652499,2.103598905523185,-2.7656478675497,1.5707963269642713,-2.92945582218479
1.3586594935905596,-0.9067986805954856,2.1034454209281668,-2.7674011364262907,1.5707963269710414,-2.9294558221459672
1.3586594563735201,-0.9055016760023405,2.1033410204515435,-2.768593365506702,1.5707963269755494,-2.9294558221195657
1.3586594433372468,-0.9046198026459337,2.103270006895712,-2.769404085423621,1.5707963269785397,-2.929455822101612
1.358659442735625,-0.9040201898580666,2.1032217031524802,-2.7699553777458052,1.5707963269805298,-2.929455822089403
1.3586594479054466,-0.9036124947140767,2.1031888466876905,-2.770330258401492,1.570796326981861,-2.929455822081101
1.358659455194597,-0.9033352902660471,2.10316649752623,-2.770585178518764,1.570796326982756,-2.929455822075455
1.3586594627068886,-0.9031468104430256,2.1031512954862355,-2.7707585250611326,1.5707963269833616,-2.929455822071616
1.3586594695473526,-0.903018657212412,2.1031409549593416,-2.770876401295576,1.570796326983772,-2.9294558220690052
1.358659475373315,-0.9029315218819756,2.1031339212636495,-2.770956557532667,1.570796326984054,-2.9294558220672298
1.358659726648973,-0.8987937829076934,2.102745209980215,-2.7747080412550096,1.5707963269848009,-2.929455822068636
1.3586595746266545,-0.8959774665080171,2.1024812874009715,-2.7772589455294883,1.5707963269838852,-2.9294558220695572
1.358659493582697,-0.8940625351361229,2.102301777271554,-2.778993568621846,1.570796326984397,-2.9294558220702096
1.3586594566004522,-0.8927605135547377,2.1021796800636063,-2.780173118558163,1.5707963269846503,-2.9294558220706515
1.358659443652022,-0.8918752289255505,2.102096633162443,-2.7809752166537733,1.5707963269847462,-2.929455822070951
1.3586594430603762,-0.8912732966666587,2.102040147038045,-2.781520646136506,1.5707963269847691,-2.9294558220711537
1.3586594482027259,-0.8908640244166239,2.1020017267534343,-2.7818915400611433,1.5707963269847616,-2.9294558220712914
1.358659455449709,-0.8905857476286744,2.1019755943298204,-2.7821437492012966,1.5707963269847458,-2.9294558220713847
1.358659462917268,-0.8903965386775926,2.101957819763425,-2.782315252279274,1.5707963269847318,-2.929455822071448
1.358659469716358,-0.8902678896829631,2.10194572998095,-2.7824318749579824,1.5707963269847223,-2.929455822071491
1.3586594755067185,-0.8901804172623643,2.1019375068338166,-2.7825111787772134,1.5707963269847172,-2.92945582207152
1.3586597251320602,-0.8860279181238486,2.1014926443283852,-2.7862212676342155,1.5707963269852367,-2.9294558220736677
1.3586595740851082,-0.8832015592360571,2.101190528132392,-2.7887440233223035,1.5707963269841558,-2.929455822075094
1.3586594935796414,-0.8812797993646083,2.100985047184363,-2.790459505334862,1.570796326984562,-2.92945582207609
1.3586594568513506,-0.8799731347813151,2.1008452904512684,-2.7916260393260797,1.5707963269847436,-2.9294558220767652
1.358659443997005,-0.8790846931793443,2.100750235504559,-2.7924192865756905,1.5707963269847902,-2.929455822077223
1.35865944341498,-0.8784806143660775,2.1006855842025787,-2.792958697482178,1.570796326984779,-2.929455822077534
1.3586594485264956,-0.8780698825882971,2.100641611796409,-2.793325498774743,1.5707963269847491,-2.929455822077745
1.35865945572691,-0.8777906134102439,2.10061170406535,-2.7935749249250823,1.5707963269847167,-2.929455822077888
1.3586594631453095,-0.8776007296946395,2.100591362381683,-2.793744535570033,1.5707963269846916,-2.929455822077985
1.3586594698990373,-0.877471621901626,2.100577527021789,-2.7938598713943343,1.570796326984675,-2.9294558220780513
1.3586594756504224,-0.877383837526405,2.1005681169243346,-2.7939383001526092,1.5707963269846636,-2.929455822078096
1.358659723488212,-0.8732177540526045,2.100067237391206,-2.797605952265516,1.5707963269852114,-2.9294558220803903
1.358659573499545,-0.8703821526645299,2.099727018939987,-2.800099850888955,1.5707963269841372,-2.929455822081917
1.35865949357702,-0.8684541082667592,2.0994956293005496,-2.8017957100566715,1.5707963269845548,-2.9294558220829807
1.3586594571231287,-0.8671431705680175,2.0993382552878534,-2.8029489005025607,1.5707963269847436,-2.9294558220837024
1.358659444370131,-0.8662518235053974,2.0992312210218804,-2.803733074138017,1.570796326984796,-2.9294558220841918
1.3586594437981687,-0.8656457691586708,2.099158424075728,-2.80426631498591,1.5707963269847884,-2.929455822084524
1.3586594488761028,-0.8652336941423522,2.0991089128304177,-2.8046289206384043,1.5707963269847607,-2.9294558220847495
1.3586594560260112,-0.8649535116474378,2.099075238823758,-2.8048754937534865,1.5707963269847307,-2.9294558220849027
1.3586594633911684,-0.8647630069347928,2.0990523361643456,-2.805043164334509,1.5707963269847074,-2.9294558220850067
1.358659470095807,-0.8646334769036896,2.0990367594031842,-2.805157180915387,1.5707963269846905,-2.9294558220850773
1.3586594758050359,-0.8645454054337735,2.099026165195136,-2.8052347125881743,1.5707963269846803,-2.9294558220851252
1.358659721721012,-0.8603668987394085,2.0984694186042527,-2.8088589165793354,1.5707963269852234,-2.9294558220871147
