alanchuang0921/RL-path-planning/controllers/controller_final_test/robot_path_csv/joint_poses_4faceS_wp7cm_0702.csv
Joint1,Joint2,Joint3,Joint4,Joint5,Joint6
1.5396099068763438,-1.6108054948455475,1.5701473868847229,-0.05113834038306299,1.572001507703965,-0.015337758081720995
1.5099830225118,-1.6475239994024828,1.587597116477551,-0.10483475852196557,1.5705791117958707,-0.034235905524729986
1.4745031155918609,-1.679194960974322,1.6032943615038404,-0.1585138136201163,1.5758021859183624,-0.04487945124412406
1.46485846007514,-1.7091330084817835,1.6159074932939346,-0.21165108315708725,1.5826458387754203,-0.06258797632261481
1.4585059876602902,-1.7337580079077888,1.636155087865971,-0.26533376157009325,1.5772365940834254,-0.08267884690404903
1.4354701121559512,-1.75083315328325,1.6552497175283656,-0.31901268812897143,1.573427876572223,-0.08284261618959776
1.4274150791556988,-1.766596364020281,1.67789262167393,-0.36592440058578557,1.5789984135918005,-0.09662334121800453
1.4231280181146775,-1.7851159595521684,1.7055590614172869,-0.41964902041673735,1.581324292150349,-0.09628742175461669
1.4107557232529482,-1.792206385534344,1.730392519295149,-0.4665585566065502,1.5801915441735246,-0.09354838940550847
1.4091418363533352,-1.8025728180496265,1.7557640948237183,-0.5162182470180845,1.5717474603769177,-0.09743190780997446
1.3983975313250947,-1.8076688138375976,1.7778773013100735,-0.5657908956394255,1.5674724830824747,-0.0971697258610712
1.3965220233156217,-1.8172710836547397,1.7961460005073275,-0.6153662353029148,1.5500148163929974,-0.0958797302602474
1.3994588906984051,-1.8210586752921365,1.8117153595414743,-0.6666229634760734,1.5414362124214465,-0.10052022656178694
1.39065512348983,-1.825986564377559,1.8412726850872398,-0.7161449630665624,1.5426825461144056,-0.10277995745500801
1.37606335032105,-1.8253814242401585,1.8592440830079657,-0.7685458369241465,1.53482390485802,-0.10662313580149474
1.369676493244248,-1.8275981026280872,1.8787625246007214,-0.8209045573274558,1.5249907367338527,-0.11538406043797289
1.3632275433571412,-1.828264203129511,1.903282686905938,-0.8745919945460985,1.5216783770297064,-0.11553419709622526
1.3626071495722607,-1.8239538400677848,1.9302863220982518,-0.928270417212314,1.5049043988587916,-0.11711959874022193
1.3599528603066509,-1.8232567441062633,1.9467612685371385,-0.9751817942784076,1.5115426887679575,-0.10236990121452905
1.3568270967036904,-1.8202945243158055,1.9625365393721146,-1.0289060074017184,1.5011622766593744,-0.1049732182205369
1.3490283969558154,-1.814303246680152,1.9848087959187692,-1.0825841076590175,1.4956587750776187,-0.10475352504922117
1.3374842556930489,-1.8006738591190063,2.000294263219642,-1.1357207263160154,1.4997891210540937,-0.08830617681134746
1.3359671259795334,-1.7902866601407608,2.0175153208562313,-1.185183033383411,1.496042946748762,-0.08877522201153351
1.337337021618564,-1.7765873720989687,2.0320256499451985,-1.2364419231054233,1.499875366450664,-0.07858240556222118
1.3358603602849837,-1.7626557088860397,2.0493795572612425,-1.28596359888353,1.5035908394923898,-0.05931665873264859
1.3343297253046407,-1.751264346501549,2.067795802624799,-1.3355402267075789,1.493973517683899,-0.051320280515829604
1.326397284320579,-1.7366263473502437,2.077254431717066,-1.3851151159911552,1.4920864835578032,-0.045928172295188
1.3293115328691885,-1.7266841855485837,2.0920291915636886,-1.4363715297171398,1.4990680910740022,-0.05240993836196794
1.3257775078153768,-1.7081213339099632,2.0999745038237063,-1.4858932453955767,1.499435941456722,-0.05255779253074377
1.312512800179095,-1.6947354346348433,2.1131445829028177,-1.535469821715008,1.4897753979297423,-0.06072908548782629
1.3133935115754158,-1.6737662209356308,2.125279311031962,-1.5850446423551316,1.4860987670340144,-0.06083096542538723
1.3076241031860651,-1.657114167592705,2.133631110896942,-1.6363010174239028,1.4683958716723375,-0.06640291024367018
1.291485660455031,-1.6353877881816221,2.149984377623485,-1.6899956438738464,1.4754865399868717,-0.05887049293288271
1.2931023837864466,-1.612118779249553,2.1604789892290905,-1.7369060283393125,1.4673608877392461,-0.0609090409281906
1.2887102401469108,-1.5935978466186493,2.175467266878334,-1.786565169400684,1.4586131186510982,-0.056750724122671736
1.275187170389191,-1.566841863335722,2.180725067798842,-1.84027059092832,1.4561392951937204,-0.0670537844383613
1.2814264335484227,-1.5393487834099,2.183534255471285,-1.8939486344453762,1.4541494516976938,-0.07543043099637747
1.2736166821434596,-1.515363100251402,2.1876773685693705,-1.9476268586274346,1.439847966932766,-0.05733140033264338
1.2738971722048178,-1.4908719733493097,2.1877928746512665,-1.9970718814202497,1.4296231562493642,-0.06874999855602348
1.2836754593723056,-1.4616160051038358,2.185420522797374,-2.046650818685664,1.436566432974185,-0.0639271059829582
1.2750265158693517,-1.429205665506755,2.1853330500071633,-2.1003567534583647,1.4369979020594315,-0.05575112690456366
1.2652489436886785,-1.4026789572167386,2.1872613158971626,-2.1540347723198696,1.4366009684153853,-0.06041599815731435
1.263362972117313,-1.3827649932597654,2.1889413199203966,-2.2052028184588455,1.4367784890502497,-0.05125016778930056
1.2589900539153465,-1.3547529716483122,2.1912964327178615,-2.2583642129450157,1.432769780739141,-0.05037853930632619
1.260947045532724,-1.3236878125029354,2.1932736763473577,-2.305299364527329,1.4330331129647436,-0.048628164434213375
1.2641538382775663,-1.2907008326647582,2.1903194972354116,-2.356612458579785,1.4379732406746497,-0.03137959723960592
1.2661093735538866,-1.264901126597558,2.183321100708438,-2.4089867619756387,1.4374569789867782,-0.02640574099080796
1.269867080760117,-1.2406463291728655,2.1780021489577472,-2.455958577135895,1.427798396428953,-0.013998513575758206
1.2739939723953988,-1.2118625024805223,2.16934765650625,-2.5056157697970516,1.4282938482201009,-0.013910483722237167
1.2723221160187976,-1.187167553085415,2.1642745149549856,-2.551377581918055,1.4471159318274205,0.00552442012051485
1.273064566839137,-1.1678703937443182,2.1549233248255826,-2.5918534428583713,1.4496943210425262,0.029311529503264853
1.275485852471762,-1.1350321675228285,2.144004406812542,-2.638868742157638,1.4434746905508766,0.04519212163286885
1.271800647735295,-1.1134959632928936,2.1383794696425364,-2.6754758280271647,1.445300386252196,0.053347705193076196
1.2759524059008451,-1.0980184668528328,2.1325768167359516,-2.711679813795606,1.44159113947704,0.08521488161580036
1.27628071116304,-1.0729388994723632,2.1376137846841936,-2.73533980658125,1.4463980724609093,0.08819472568174372
1.2744603619487878,-1.0587865701593497,2.123093579093661,-2.755804972070317,1.444983880163925,0.09371177455463378
1.272059596907835,-1.0402997584722313,2.114892675395137,-2.773533178708605,1.4558689465697514,0.11500643622440755
1.268352263722432,-1.0235298988660528,2.104657635844706,-2.7884050420536814,1.456431151570986,0.13507427833454985
1.2700251703493612,-1.0130745006549515,2.1051093793257993,-2.7964262797941504,1.4592172916175514,0.137555632239697
1.2755193473723831,-0.9940804438324224,2.10103192581336,-2.807168490431793,1.469878509147938,0.14698866462847102
1.2617385994376722,-0.9784180852348194,2.094921367677136,-2.819352818923718,1.4739020385137116,0.15505910918137936
1.260033982032209,-0.9720900104700553,2.084776436104507,-2.8216015833619275,1.4764407057308773,0.16055025443093635
1.2629105745651001,-0.9648813378639168,2.0869618249610933,-2.826714816058223,1.4764690752032783,0.1611640983633934
1.2623144999261107,-0.958740137104974,2.074366745756272,-2.8278653300045105,1.479476364066691,0.1574001620913727
1.2680864279195827,-0.9547767234350096,2.071434887330011,-2.8310858360737496,1.485405497410401,0.17541824586214264
1.270719308406761,-0.9521455514060421,2.063975790606005,-2.836691158158031,1.4885276393827591,0.1947995505767884
1.275196459257512,-0.9502933696015268,2.060470385702883,-2.8434781268516147,1.4903039966814693,0.19735561873489646
1.2764318625411777,-0.9439635901314511,2.0599357409466874,-2.8454637560588236,1.4894865762142584,0.20564392490874928
1.2749656672795189,-0.9358176818671345,2.0555345366725586,-2.847719166900561,1.489963129173559,0.21527092513914836
1.2805823209433735,-0.9265582909186298,2.048393645636882,-2.8449599202563096,1.4968178860377246,0.22866065788897516
1.2749821966412214,-0.9232845546636861,2.044404471352526,-2.851045564155963,1.4950457428263866,0.23252324889171597
1.276751166263215,-0.9162741261909956,2.0454569088756616,-2.8482986324715176,1.5026403694902852,0.2453060756814971
1.2819203119658165,-0.9168237773672994,2.0485348994578865,-2.8479487657123514,1.4987594106949587,0.25653919452171525
1.2815664814782552,-0.9105311663140313,2.044847149897584,-2.849189688107355,1.4908666306534109,0.25366297582120073
1.2803447783464499,-0.9109560554411109,2.0421024609681555,-2.8449236824244135,1.491342655955418,0.25629453984578443
1.2768488778334375,-0.9068307972511818,2.027951688488408,-2.840681334165763,1.4938511629117308,0.2651410187582698
1.2851135364683997,-0.9055034977724679,2.0300110988643367,-2.8436076222198596,1.4994897829478575,0.27833142673118955
1.287482247837235,-0.9043038980565342,2.0295842629623775,-2.845499400102376,1.4978229511543708,0.27985582147806176
1.290675123540419,-0.9030960456461468,2.0350300300935635,-2.84260267325348,1.499897858763195,0.2821776015128111
1.2889759857443897,-0.9018049176919954,2.037357377050721,-2.843665373801752,1.5059543073410955,0.2842847239779347
1.287190724864588,-0.9009013486036362,2.034660359411543,-2.834802716228528,1.4980298384092408,0.28478195653603977
1.2848698669370617,-0.901579819295098,2.033073472246563,-2.836110955757011,1.4977736114466063,0.2833774748492882
1.2844180990299965,-0.9025101416804532,2.0334605486006585,-2.834713126149702,1.5057518238668557,0.28848063991006617
1.2746761019924133,-0.9026552497176893,2.0261766403437393,-2.8411738486219043,1.4978818821790525,0.2782989395908294
1.2750231209281075,-0.9017637369634927,2.026893856448414,-2.840041939508331,1.4986633658748951,0.27968817545019575
1.2730674117580074,-0.902445663523311,2.025680866990905,-2.8346700619670053,1.5006864794488575,0.28064212240726694
1.269979405364893,-0.9050306247965877,2.0232875865988844,-2.835000378031769,1.4956374553538032,0.2776259436069342
1.2673169146617214,-0.9033727096931815,2.0259280278734826,-2.8298775370538607,1.499244310860619,0.27655569860277907
1.2700207246862503,-0.8988049338150813,2.0240601777057763,-2.8269774399612575,1.4990890587340409,0.27836480059383373
1.2700207246862503,-0.8988049338150813,2.0240601777057763,-2.8269774399612575,1.4990890587340409,0.27836480059383373
1.2705461367248747,-0.8987551652766096,2.0255089979639034,-2.8286699427745505,1.4994135565349276,0.28192935437048594
1.2682841599798855,-0.9002631228985977,2.0296915454264517,-2.8335409796473745,1.5051868063914935,0.27927473802388275
1.2678712071057572,-0.9001948165882218,2.0296225901542697,-2.8364824427239,1.5081748733797975,0.27803057909652895
1.2847314507484502,-0.8929885340747561,2.035738264732293,-2.8314617380974885,1.5059257222315496,0.2933561337370041
1.2842062703701067,-0.8976032143863913,2.0322083476882677,-2.823352538208984,1.5100161842604045,0.2922451553509095
1.2846935738714267,-0.9002462927704039,2.038139467299866,-2.823157255019906,1.515353097421008,0.2862387939957808
1.2884401542272501,-0.9023501064831326,2.034930338507112,-2.821537271492647,1.5116859554152628,0.286011071913499
1.2832732060863756,-0.9066412584452442,2.0350960990822764,-2.8238240081082773,1.5106891523460115,0.28178386082735274
1.2866344052518646,-0.9102089425529084,2.033331881088968,-2.814984088494007,1.5133372033294261,0.28533185038265124
1.289152068542538,-0.9049779771185482,2.0388727445026897,-2.818095379182648,1.5143314290906709,0.27042435458897546
1.2849270535319561,-0.9009168122754208,2.0369003370654806,-2.812512054462456,1.515055594871691,0.27548192018243334
1.2832474567278727,-0.9052219958083841,2.042069904544589,-2.8108177944794437,1.514492038361693,0.27015183721245045
1.2788274104913984,-0.903717219867114,2.034445259273454,-2.806700823844511,1.5125983388455075,0.2642499315036002
1.2850350475122767,-0.9039584966935824,2.0411861484335603,-2.818139769371655,1.5114632656221427,0.25884291210578425
1.2861825829915012,-0.9058186458712302,2.041788077906202,-2.8204469435313952,1.5112955848856169,0.25756164008118665
1.2742287354921495,-0.9091852895224254,2.0412595480063724,-2.8232850105281293,1.5084812879931522,0.26759856790743347
1.2885660814399107,-0.9080357893501877,2.0429104938447544,-2.822235083364329,1.494963565574072,0.2690471574745698
1.2839173251171898,-0.907280771683978,2.041773995028149,-2.8222879395252867,1.4973867876915063,0.27703487581225034
1.2819948999751494,-0.9092510021570986,2.037939643120277,-2.825751420257948,1.4967938596117019,0.2862514877116025
1.2748241718664066,-0.9112826660681524,2.042728995300065,-2.8244957636861985,1.4922732565171064,0.28966236770707726
1.2741726348798506,-0.9111185127362819,2.0434914957083277,-2.8233546836566656,1.4984321759754187,0.29548244122688205
1.2754756440642216,-0.9103128187155799,2.0415801374322258,-2.820517015589336,1.5000366818114652,0.29779418216079057
1.2718979156183297,-0.9112850633645299,2.0393523632371218,-2.825019254552811,1.5006616821746366,0.293992537251747
1.2750462347782934,-0.9104831001849015,2.041297382971155,-2.826440566904618,1.497757693443646,0.2832904532677261
1.271578012373676,-0.913484752212728,2.034952666554392,-2.8232379667805168,1.5006760625612103,0.2853601924050172
1.2754488250483562,-0.9119323090974224,2.0364165526540208,-2.823467172836664,1.5001603853381498,0.2894758882067322
1.2731944902210344,-0.9115277074562734,2.045067061658464,-2.8119129295166885,1.5050415622741236,0.29486298275382994
1.2752246588789005,-0.9092091169562839,2.0421010157879786,-2.8159294372004338,1.5019699352633973,0.2929161761648343
1.27403847297843,-0.9126664063532733,2.039436299026185,-2.819567924029794,1.505302537069636,0.2880476368587258
1.2787645518779258,-0.9107180337011496,2.0418988619669323,-2.8239957250815486,1.503843752036333,0.27507236997391515
1.285256150265988,-0.9123289697055702,2.0409445702224467,-2.8240570280068136,1.5028001885939095,0.27455768000140623
1.288248563890049,-0.9068343086170203,2.039516799231181,-2.8224003760272054,1.4998515495486233,0.26414904408968426
1.2826051328805061,-0.9064892232536869,2.03769570257175,-2.8251379387082562,1.4975875533381298,0.2671952567798748
1.2819513941192286,-0.9069308161815463,2.034898020806122,-2.8246265069600462,1.4976523811800309,0.2702519995802048
1.2793474804851648,-0.9065349375001527,2.03521851793175,-2.8250399194861093,1.490500922026272,0.2686738152622476
1.2818806081252474,-0.9032132210752231,2.0345123065662283,-2.826814387776289,1.492595296355043,0.2644213117738278
1.2811190790677134,-0.9044206983595612,2.0418593186990885,-2.825922755834136,1.4929418017910527,0.2753944495010475
1.278503147953754,-0.8994123629728588,2.0347821270184716,-2.837135337836783,1.4905446803500961,0.28804048090296475
1.2781947060106087,-0.8986158757395205,2.035414504322617,-2.8394762856584244,1.4907740343571712,0.2894758679920933
1.2852302401326094,-0.8981309594899657,2.0300100636114564,-2.8349264916848522,1.4907158328519077,0.30139018624713076
1.2746263335484864,-0.8942094974688027,2.0270693347053523,-2.831861366767363,1.491876551600334,0.29822077372716443
1.2736866790127443,-0.893449603355797,2.0355443775228714,-2.835326955137233,1.493220115123883,0.29811832513034103
1.2731482552417739,-0.8931637216546182,2.0384205350537172,-2.8399678974528886,1.4950233120711967,0.3061838126130178
1.2739802476164446,-0.8931293474268508,2.0401059771089876,-2.842163377238895,1.4931023172245617,0.29488066709967004
1.2830190663018781,-0.9031693898597889,2.036677904884468,-2.8353788898042187,1.4945017461968353,0.2849478198587075
1.292630731508877,-0.8991914675802859,2.0311167482894246,-2.8342236989182954,1.4970492415349694,0.26488099674097687
1.2762629731977573,-0.9015128539406357,2.022602764391202,-2.8248974696777265,1.498175104908977,0.25923592289281533
1.2763699647285363,-0.9032492777706003,2.0185812598354747,-2.82235843037878,1.5067233006990637,0.26523542501576053
1.2748452177786644,-0.9055127021773143,2.0217933820737795,-2.823600990089487,1.5154087348079688,0.27166054295813535
1.2724968831522325,-0.902864471151658,2.0285129009263527,-2.8291025928208193,1.511346344989193,0.2854088429131293
1.276231810261328,-0.9001545130685881,2.0360701270710186,-2.826461698650544,1.5104825573537946,0.2873112191868319
1.2809341846937097,-0.8992270328527263,2.0407749569225766,-2.8293051044648947,1.5045763302425135,0.2996491486157089
1.2785077771036915,-0.8977758285153657,2.042793005785648,-2.827257688668481,1.5050519400517361,0.30655050011736984
1.2797193635381194,-0.8967099777148498,2.047263340987444,-2.8225665514449187,1.504460140837364,0.30468828814650145
1.2851095047358059,-0.9028261879050196,2.0415209877219205,-2.8144654393520625,1.4981498402700069,0.29725916085273013
1.286098112534606,-0.9050272864421948,2.0403640455103496,-2.8069764215198716,1.4972403276157205,0.2968301026310531
1.286098112534606,-0.9050272864421948,2.0403640455103496,-2.8069764215198716,1.4972403276157205,0.2968301026310531
1.2905294393700635,-0.9084949774803429,2.047261219481992,-2.8037435596358944,1.502518990588767,0.29498325820361576
1.2921866584724213,-0.907910018049538,2.04969233321578,-2.8035965878503957,1.5060928885121623,0.2930063823936472
1.2873382771201463,-0.9019867491245974,2.0523715545344903,-2.8115966118499034,1.5041988425676212,0.2849576056643017
1.2849710895824926,-0.898159862826511,2.0548327683074312,-2.7979872667536787,1.510379765502278,0.28297506929777233
1.2863030123942438,-0.8945636648439816,2.0504909031895195,-2.80594082231703,1.5108303429245769,0.2876367344207799
1.2883472896816839,-0.8922553834898349,2.048369632385534,-2.8079544777902976,1.5160129174208534,0.28649893854375663
1.2945752468288085,-0.9024741299240312,2.0430972097916227,-2.8000338496873503,1.5250847404865462,0.2907479764593632
1.295592649070803,-0.9062044169273892,2.046288076808254,-2.7985062147016033,1.5258042029261494,0.2743384521035137
1.295723887960872,-0.9062998654336435,2.047009631553957,-2.7992184249886067,1.5244532115470752,0.272714461205803
1.2971248033337752,-0.9090413221172103,2.044117816500473,-2.802556272569347,1.526817626136903,0.2696625283772806
1.3051282505139548,-0.9178927977793448,2.0446657276735367,-2.8076500929703236,1.5257421815024477,0.27137378118471717
1.3016915898809267,-0.9175330629987266,2.0484907526700495,-2.809571750390877,1.5289927133906616,0.2632970875137265
1.2965158416911502,-0.9172528172907336,2.0447675787649446,-2.806202071131497,1.527282189389817,0.26543623148570783
1.29349935454987,-0.9174201199907449,2.046391396718535,-2.8047640197940473,1.5322237316392449,0.2637492882471509
1.2956077039837832,-0.9227359143104764,2.0427435966587533,-2.8150168477393755,1.5258984790783268,0.2593176610775738
1.296531084777716,-0.9230713883048106,2.0455523439020245,-2.810568843432244,1.5248244495109564,0.2543629044276357
1.3056843999883225,-0.9260155989028113,2.038357951913742,-2.8122720623248822,1.5219543108687044,0.2490219260841193
1.302153481695364,-0.9247964493300429,2.0374853701240916,-2.812256831906581,1.519790757312295,0.2482932872790835
1.3002392589343856,-0.9203643812513774,2.034971772555814,-2.8168171131794857,1.5289719116433635,0.25597961130202596
1.297578628304954,-0.9207351063591666,2.0343520406307825,-2.8148826577616255,1.5283049463342542,0.2627774847307135
1.2987208164531907,-0.9225606915005783,2.0453578049230945,-2.815464486623954,1.5264452690126322,0.27366001247398103
1.2944257493807303,-0.9181659777785698,2.046974761726693,-2.8167730871035928,1.5249369802562005,0.28744481899435875
1.2896515311813939,-0.9176221006845723,2.0436690716976,-2.813527140127532,1.5232469401084072,0.290657868035014
1.2924427823203903,-0.9147679502046818,2.043104322123422,-2.8123445317981925,1.5268355490864653,0.2930869985889622
1.2908106858824862,-0.9170282356745901,2.040364507609347,-2.8133205967876953,1.5248394145810256,0.2940349609015956
1.2919916814172563,-0.915855889601466,2.0422226654143563,-2.812519024810668,1.5220301030218684,0.31540011989124156
1.2866624280771086,-0.9072522761634079,2.042406042672941,-2.8100005515554183,1.5047059986087792,0.2966036546207125
1.2954358898943548,-0.9061223173134373,2.040907752104948,-2.8125088318024143,1.5053718929690552,0.3068481216908137
1.2941010550575116,-0.9059236143361281,2.0416390080331013,-2.8132291937922567,1.5064299216097425,0.3040869480894762
1.293149787904228,-0.9036628377615218,2.045475853117743,-2.8047205372722597,1.4949564428012398,0.2823539774662898
1.2848342557577437,-0.8967287190203124,2.041670981095248,-2.8085713686458935,1.4951207203560803,0.29003283084867976
1.2841805824086687,-0.8949690166828779,2.040971333555568,-2.8054533258433554,1.5021571110405716,0.289749585003053
1.2885444431607818,-0.8935492777252307,2.0377730269673853,-2.8037608687903695,1.5092693029071735,0.2846062716135611
1.2888128985481668,-0.8951936169279103,2.03700326732676,-2.8062306578446,1.5107523035698007,0.28815408109730173
1.291875540589129,-0.897387031194643,2.0374748373051683,-2.804583589943988,1.5110785653972287,0.28332004173403275
1.2849526262696327,-0.8982488200030164,2.037521370588187,-2.810455370309805,1.5123398737092468,0.28160294982251205
1.2895385820970144,-0.8944236605377794,2.0349626052418324,-2.813360865829817,1.518806756993606,0.2737812414445162
1.292973460984334,-0.9010919357899317,2.0350080610245884,-2.8084716247613506,1.5116852757937855,0.26912114172750695
1.292973460984334,-0.9010919357899317,2.0350080610245884,-2.8084716247613506,1.5116852757937855,0.26912114172750695
1.283112106582642,-0.9037004230685478,2.0354803335360154,-2.8165368689938126,1.5149466105280336,0.2678153586194495
1.2795284220613756,-0.905326649121167,2.040327496649298,-2.81411566592637,1.512560656996936,0.26589956392556324
1.2803148797804949,-0.9089003098854648,2.038829884191745,-2.8083089836173225,1.5099180562592418,0.27562354518128857
1.2740439852674952,-0.9112783612042807,2.0420257540748175,-2.803720802080587,1.5119504233551075,0.27670909157088813
1.2702549546764201,-0.9204087443391672,2.0450470540233288,-2.8108374853239337,1.50379545625138,0.2780818087576761
1.271967377265085,-0.9178177744297575,2.0449375058941515,-2.8106225694255453,1.5093497512650105,0.26237076843841517
1.2741408583579545,-0.9183926280890933,2.0479379539600004,-2.815226551358505,1.504108689750394,0.25952376819349354
1.2851514910672555,-0.9230473441573775,2.048556458506627,-2.804814357607116,1.500100425726868,0.2715656374606255
1.2742884829073124,-0.9227531022411009,2.0516412927109458,-2.805270751659195,1.4925183164699278,0.2850976505932607
1.276215202696561,-0.9207179758814882,2.0513264514113643,-2.806571547024853,1.4959823018731828,0.2844975762250379
1.2745336256001634,-0.9194175152835847,2.0488834403559943,-2.809448707628105,1.5000503927601259,0.28274371761358713
1.2647431310427428,-0.9215070435469118,2.05300839930634,-2.804619343237622,1.5055414195194892,0.2793527091672836
1.2676997951012,-0.9196970801264283,2.0516032923303675,-2.8048841760901673,1.5011931917275212,0.2749250366014875
1.2750763852037514,-0.9170245034488803,2.055150392090993,-2.8111859584587457,1.4979493579714451,0.26920166954518704
1.2757526696352557,-0.9192541450992228,2.055567284424794,-2.8168643489411824,1.505341460408227,0.2673710842243146
1.2771335140180005,-0.9185472219836529,2.053522334092769,-2.8190770769011086,1.5055946371675457,0.26862796579918846
1.2749848778653778,-0.9176208066364245,2.0496007465822057,-2.816165605793574,1.502646342015102,0.2779717971432444
1.2745737207513232,-0.9189009145345518,2.053861579217548,-2.810464452955746,1.500473089124186,0.2642663052419045
1.269723964049555,-0.9145199880550507,2.051197178960637,-2.808103470485288,1.4990351673429116,0.2698973423845067
1.2754891809600384,-0.9136030065111304,2.05309692111384,-2.8091946636997034,1.4979854389640603,0.27212401524366564
1.2757875877116036,-0.9136146364627921,2.0503254013848022,-2.8112911317570544,1.4985222411877046,0.2754099133692877
1.2829395823240313,-0.9105193158847236,2.0484095731119005,-2.815416548696822,1.5002900367229266,0.2760164437605767
1.2854769324324085,-0.9101114598168941,2.0497229487540007,-2.818662202572388,1.5021034929351036,0.2777077364182044
1.28728841859748,-0.9102312844109458,2.0474414626424493,-2.819453683285346,1.5059493696461053,0.27351324031855234
1.29534288913865,-0.915047059940357,2.0428734814523613,-2.8175105622024774,1.5094239697168113,0.2730152147050431
1.2976280670387388,-0.9187140667842958,2.0480389893414674,-2.8266020406331274,1.5049881314715465,0.2853535435929766
1.2870841422174486,-0.9153168817573342,2.036559757986463,-2.82349953250226,1.515026659644809,0.2892585400520189
1.2877094142798438,-0.9167256823203952,2.040862311160283,-2.8205229477540987,1.5179421647576887,0.2828313873625139
1.28957017065528,-0.9114969850652719,2.0375855707431167,-2.8174930962375195,1.517067751784634,0.2747385506370011
1.2882540834810383,-0.9116868291846733,2.036964012029525,-2.8166625970707804,1.5210150002329603,0.28501741091323335
1.2906670061480516,-0.9125803515477222,2.037481445789226,-2.8154972276016834,1.5182516459148434,0.2847837568921283
1.295546699685046,-0.9121642560122097,2.036515989748003,-2.816034763813841,1.5201925655540207,0.29573724479079827
1.2963188771974408,-0.9151399883299572,2.0367854110268326,-2.8125479973874876,1.5126866156980265,0.2994095992294043
1.2915441170020416,-0.9181698601312894,2.034083069439419,-2.815471453817809,1.5204794664397439,0.2990996610814753
1.2976820928716324,-0.9160871062270486,2.035220608819613,-2.811080856042991,1.5148962823211414,0.3000004512972897
1.2894727096772152,-0.9181312547790882,2.0412842882574744,-2.804830104861463,1.5143599472306377,0.2995123623473023
1.2848839173035074,-0.9175284631850092,2.041799200379435,-2.809896352449742,1.5163053853214312,0.2884469038977026
1.2870364647570807,-0.9185064816040479,2.0405796106149294,-2.8049786987867775,1.520326930078102,0.28957609855633243
1.287832521179697,-0.9169031952252801,2.039315151872298,-2.8012987237098965,1.5149943568410005,0.2844535722453296
1.3018537506683519,-0.9169971741856122,2.037487086032898,-2.8012388482286665,1.5142525988447144,0.2748715641679474
1.2946800115103303,-0.9109041777326288,2.0411357851459386,-2.8003700815578814,1.5154412093699228,0.2717099506197314
1.2922400310358262,-0.9119478499101972,2.0385182596177662,-2.7949018841824294,1.5109086368533762,0.2741072746157624
1.281333261146991,-0.9186732724557166,2.0373377316580874,-2.802303892991511,1.5086208241467416,0.28548028679436666
1.277143967678034,-0.9170870660305112,2.04300392246203,-2.8081897256180994,1.5150325164521905,0.28178197659447013
1.2744548831467029,-0.9142300388503725,2.0474132736933424,-2.8084409290703345,1.5138719590247873,0.27987918620047597
1.28505278585921,-0.9103981245179441,2.051532154968258,-2.8150271813388184,1.5041938286766618,0.295048245428859
1.2835882742743983,-0.9048567363180565,2.0489353292330197,-2.813891572010832,1.5023277806385045,0.28460096383247757
1.2745172317660667,-0.9037882281486429,2.0447127873890114,-2.8125979585482774,1.5084298241874523,0.283953219504314
1.2819167325748948,-0.9073607131494493,2.045980317044456,-2.815000373961834,1.5002444377611779,0.2898465037881857
1.2813906996370106,-0.9091480948277287,2.0430649488121455,-2.8133871591938986,1.4995269106555493,0.2886871880338094
1.28523623640539,-0.9105465935431009,2.0414063655516665,-2.8174442903637513,1.5015493346163298,0.28606634209050374
1.286019702401579,-0.9100080435037236,2.0410523558167966,-2.8195951366043865,1.5006217452405979,0.2849149742356434
1.2826970407238782,-0.9098629720716085,2.038029819453917,-2.8139020055891457,1.5005755419479396,0.286769459477891
1.2810834646864189,-0.911070233304513,2.037979382308677,-2.8130744879130085,1.5051484035913407,0.29140962931027636
1.280166659153281,-0.9084412497353747,2.0387525615767808,-2.815616765651889,1.5097969407772356,0.29151906730430116
1.2813330013344828,-0.9101973934198985,2.0383128702980478,-2.811522146767859,1.5184515842041237,0.2953458895252008
1.2779698522293224,-0.9083109460923235,2.037663777533,-2.8044204919062623,1.5182569907146344,0.2890029430971962
1.2794781049993362,-0.9101142197282576,2.038387475512771,-2.8070534963945653,1.5140857048236471,0.29029343391961265
1.2818642881242355,-0.9091472776670172,2.0423371578868115,-2.8082016124938582,1.5106421454709906,0.2848065338770487
1.280638448525417,-0.90945733322483,2.042468682622121,-2.802897272481794,1.504914414122194,0.28336485791755095
1.2749602205160555,-0.9091016298324103,2.042595531939516,-2.813322135880993,1.509144764554663,0.29167103399422706
1.2750254974304118,-0.9063405274111026,2.04442494250988,-2.8089841107610765,1.5044200491921171,0.29376611773733313
1.2743290759426331,-0.9101999956050023,2.0391817055167047,-2.8094182298605097,1.5036216808899427,0.29528737055996807
1.282519820059034,-0.9093921783382494,2.039351716162423,-2.8070577741929883,1.5050131271475684,0.28664771968901376
1.2773200392929618,-0.9090503941281266,2.045308081114692,-2.809473960822442,1.498547708958728,0.2727983902432153
1.266154092510269,-0.9045358770996411,2.0339588700576274,-2.8150104442421306,1.5072418796548905,0.2796729918011472
1.2659875623723735,-0.9044669198627827,2.0337799697640393,-2.815093230156185,1.5073806001531485,0.27978967967196333
1.2741143837337892,-0.920222959258269,2.057350867173263,-2.786101805859748,1.527665668443444,0.27966334503882134
1.2796480478738987,-0.93094501643984,2.073384034797993,-2.766384434631391,1.5414659612031099,0.27957739255687025
1.2834104211062987,-0.9382357711121515,2.0842864722619923,-2.752975637413753,1.5508517211794517,0.2795189342856918
1.2859684273528622,-0.9431932028689242,2.0916999313810916,-2.743857359634745,1.5572342850799543,0.27947918147772693
1.2877076004340269,-0.9465640531808991,2.0967409180169283,-2.7376568463684854,1.5615743773696122,0.27945215035714815
1.288890057160194,-0.9488560910771805,2.1001686662832384,-2.7334404756489286,1.5645255552895223,0.2794337700727
1.2896940063671973,-0.9504145814728825,2.1024994483683948,-2.7305733394491134,1.566532292799823,0.27942127209661066
1.2902406101352402,-0.9514742904639187,2.104084320109444,-2.7286236870661322,1.567896834644003,0.27941277385203167
1.2906122455677487,-0.9521948490472852,2.105161991690666,-2.7272979243799838,1.5688247000905033,0.27940699526513657
1.290864920393034,-0.9526847994917612,2.1058947802423593,-2.726396406535774,1.569455635740001,0.2794030659492168
1.2910367140515908,-0.9530179459365761,2.106393057304806,-2.725783374926885,1.5698846649531475,0.2794003940823606
1.291153516658171,-0.9532444720953145,2.1067318726767104,-2.7253665137588667,1.5701764010282429,0.2793985772500178
1.291232930859361,-0.9533985008046563,2.1069622582669827,-2.7250830483608395,1.5703747795371232,0.2793973418241538
1.2912869246771612,-0.9535032341855291,2.1071189144401763,-2.724890292007155,1.5705096758541932,0.27939650174542285
1.2913236351636286,-0.9535744487297712,2.107225436536584,-2.7247592177565125,1.570601404790176,0.27939593049771266
1.2913485946993166,-0.9536228718095899,2.107297868770623,-2.7246700873081715,1.570663780176962,0.2793955420523812
1.2913658165715294,-0.9496428385190541,2.10718544457332,-2.728463185156247,1.5707061952805494,0.27939527795368485
1.2913771954813504,-0.9469337827814333,2.1071094406983377,-2.731042387063632,1.5707350374924105,0.27939509836731125
1.291384954358846,-0.9450917834559869,2.107057711776547,-2.732796252571164,1.5707546501584428,0.2793949762490353
1.291390247876162,-0.9438393516167187,2.1070225031568413,-2.733988887307506,1.5707679867528745,0.2793948932088606
1.291393859245862,-0.9429877851980929,2.106998538700615,-2.7347998830251408,1.5707770556289693,0.279394836741671
1.2913963229135992,-0.9424087793878053,2.1069822274206893,-2.735351362858001,1.5707832224615677,0.2793947983440471
1.2913980035698502,-0.9420150957999871,2.1069711252042027,-2.7357263709969684,1.5707874159068547,0.27939477223369497
1.291399150045981,-0.9417474184009456,2.106963568506339,-2.735981377786274,1.5707902674497212,0.2793947544786711
1.2913999321101606,-0.941565416421584,2.1069584250527584,-2.736154783254284,1.5707922064992719,0.2793947424052625
1.2914004655829867,-0.9414416677520059,2.1069549241682513,-2.7362726995504754,1.5707935250534288,0.2793947341953481
1.2914008294775754,-0.9413575272708239,2.106952541295747,-2.7363528830243706,1.5707944216706677,0.2793947286126081
1.291401328596293,-0.9372680935835883,2.106733490553819,-2.740224623787494,1.57079503136971,0.2793947248101621
1.2914013394175512,-0.934484643624515,2.1065849692376446,-2.7428573030846652,1.5707954459654507,0.27939472222451966
1.2914013694218407,-0.9325920601013561,2.1064839294890247,-2.744647533317329,1.5707957278915874,0.2793947204662596
1.2914014082426215,-0.9313052337995127,2.1064151902761874,-2.7458648961413363,1.5707959196012713,0.2793947192706461
1.291401447044852,-0.9304302810697436,2.106368425537603,-2.746692707010153,1.5707960499638185,0.27939471845763103
1.2914014817858765,-0.9298353738832775,2.106336610417475,-2.7472556211812074,1.5707961386103528,0.2793947179047822
1.2914015110526893,-0.9294308782556379,2.1063149658275564,-2.7476384046943148,1.5707961988900152,0.2793947175288457
1.291401534771917,-0.929155849278186,2.106300240477028,-2.7478986987544674,1.570796239880208,0.27939471727320947
1.2914015534870187,-0.928968848638175,2.1062902224492253,-2.748075699577787,1.570796267753561,0.2793947170993772
1.2914015679662632,-0.9288417011586697,2.106283406928889,-2.7481960607231057,1.5707962867074603,0.2793947169811715
1.2914015790009372,-0.9287552496754935,2.1062787701549612,-2.7482779066994674,1.5707962995961282,0.2793947169007919
1.2914018370070104,-0.9246461796395054,2.1060025023392424,-2.7521131554837264,1.5707963083608854,0.2793947168433
1.2914016854482873,-0.9218493701649664,2.1058150623177236,-2.7547210201640984,1.5707963143196622,0.2793947168042388
1.2914016049643815,-0.919947702665142,2.1056875586879737,-2.7564943764180163,1.5707963183727325,0.2793947167776516
1.2914015685829494,-0.9186546997142935,2.105600824671531,-2.7577002649268425,1.5707963211287184,0.279394716759574
1.291401556197154,-0.91777554718479,2.10554182390094,-2.7585202732587257,1.5707963230027109,0.2793947167472827
1.2914015560946754,-0.9171777843576718,2.105501688574406,-2.759077881704152,1.5707963242769838,0.2793947167389254
1.2914015616429684,-0.9167713470479815,2.1054743864446825,-2.7594570573238957,1.5707963251434678,0.2793947167332429
1.291401569216239,-0.9164949978318888,2.1054558141032422,-2.7597148980167407,1.570796325732668,0.2793947167293791
1.2914015769400289,-0.9163070995013478,2.105443180214077,-2.7598902305504547,1.5707963261333207,0.2793947167267518
1.2914015839368087,-0.9161793416411007,2.105434585970816,-2.7600094572589646,1.5707963264057652,0.2793947167249653
1.2914015898775937,-0.9160924751321837,2.1054287397079703,-2.7600905318183804,1.5707963265910296,0.2793947167237505
1.291401843068953,-0.9119662525609565,2.1050960490318076,-2.7638865226652034,1.5707963267175207,0.2793947167202999
1.2914016899753515,-0.9091577729299944,2.104870230463087,-2.7664676918718403,1.5707963268021352,0.27939471671798755
1.2914016083471629,-0.9072481701538456,2.1047166302590634,-2.7682228951623413,1.5707963268607994,0.2793947167163893
1.29140157109521,-0.9059497716239839,2.1046121512053686,-2.7694164396452376,1.570796326900595,0.27939471671530414
1.2914015580522784,-0.9050669503908327,2.1045410842422725,-2.77022805403617,1.57079632692758,0.2793947167145675
1.2914015574576603,-0.9044666930471305,2.104492744199074,-2.770779954600789,1.5707963269458867,0.2793947167140673
1.2914015626400512,-0.9040585596054805,2.1044598630617792,-2.771155248861363,1.5707963269583132,0.27939471671372756
1.2914015699430466,-0.9037810571152834,2.1044374971307764,-2.771410450229969,1.5707963269667529,0.27939471671349675
1.2914015774683532,-0.903592374623762,2.1044222836927475,-2.771583988023249,1.570796326972488,0.27939471671333993
1.291401584320119,-0.903464083578696,2.1044119354187507,-2.7717019943083137,1.5707963269763876,0.2793947167132333
1.291401590155438,-0.9033768545345255,2.10440489645744,-2.7717822389798275,1.5707963269790415,0.2793947167131608
1.2914018417829578,-0.8992347009025811,2.104015895058152,-2.775537846812276,1.5707963269813447,0.2793947167107107
1.2914016895493077,-0.8964153821513595,2.1037517742930953,-2.7780915554917454,1.5707963269814886,0.2793947167090786
1.2914016083928987,-0.8944984091842354,2.103572129435675,-2.779828085582495,1.570796326982723,0.2793947167079431
1.291401571359182,-0.8931949993176164,2.1034499406506812,-2.781008932278707,1.5707963269834666,0.2793947167071725
1.2914015583925922,-0.8923087706546317,2.1033668315029277,-2.7818119121713574,1.5707963269838954,0.2793947167066498
1.2914015577999596,-0.8917061964530734,2.1033103030682727,-2.782357941276178,1.5707963269841443,0.27939471670629507
1.2914015629493276,-0.8912964876823155,2.1032718540244657,-2.7827292429438666,1.5707963269842913,0.27939471670605426
1.2914015702062993,-0.8910179140604993,2.1032457020525697,-2.7829817293493075,1.5707963269843805,0.27939471670589067
1.2914015776841958,-0.890828503262557,2.1032279141987393,-2.7831534209676834,1.5707963269844376,0.27939471670577953
1.2914015844927258,-0.8906997170121862,2.1032158153844644,-2.7832701718538644,1.5707963269844751,0.279394716705704
1.2914015902911502,-0.8906121512577672,2.1032075860981836,-2.7833495628541782,1.570796326984503,0.27939471670565263
1.2914018404059449,-0.88645525915418,2.1027623922866296,-2.787063712923585,1.5707963269870109,0.2793947165621915
1.2914016892477431,-0.8836259126734836,2.1024600498802943,-2.7895892302458964,1.5707963269872816,0.2793947164646716
1.2914016086974618,-0.8817021212424022,2.1022544151488063,-2.791306590172594,1.5707963269886083,0.2793947163983326
1.291401571963337,-0.8803940751979119,2.1021145538819037,-2.792474401146375,1.5707963269894136,0.2793947163532236
1.2914015591216184,-0.8795046942023853,2.1020194278786657,-2.7932685167444293,1.570796326989886,0.2793947163225508
1.2914015585593723,-0.8788999766017445,2.10195472827612,-2.7938085181279537,1.570796326990164,0.279394716301694
1.2914015636919116,-0.8784888104487971,2.1019107230376544,-2.7941757209449363,1.5707963269903302,0.2793947162875117
1.2914015709117586,-0.8782092458958309,2.101880792988814,-2.79442542013189,1.5707963269904333,0.279394716277868
1.2914015783468622,-0.878019161325437,2.1018604361345963,-2.794595216441743,1.5707963269904988,0.27939471627131035
1.2914015851143243,-0.8778899169512734,2.10184659046248,-2.7947106785181792,1.5707963269905438,0.2793947162668512
1.2914015908766663,-0.8778020397009509,2.1018371733552574,-2.7947891931279076,1.5707963269905745,0.279394716263819
1.2914018389141924,-0.8736315889771005,2.1013359230460105,-2.7984608412463645,1.570796326989231,0.27939471640056596
1.2914016886240962,-0.870793017491395,2.1009954515302636,-2.8009574571630322,1.570796326986872,0.2793947164935873
1.291401608526995,-0.8688629534304404,2.1007638898477294,-2.8026551640928803,1.5707963269864171,0.2793947165568165
1.2914015719786611,-0.8675506423598647,2.100606398885602,-2.8038096110179294,1.5707963269860115,0.2793947165998139
1.2914015591777803,-0.8666583614043157,2.100499285121122,-2.8045946390595016,1.5707963269856595,0.2793947166290534
1.291401558584273,-0.866051672010555,2.100426434134304,-2.8051284609036466,1.5707963269853764,0.27939471664893695
1.29140156365501,-0.8656391651624442,2.1003768861537315,-2.805491461633622,1.5707963269851613,0.2793947166624582
1.291401570805079,-0.8653586890220683,2.1003431871754796,-2.805738303401403,1.5707963269850043,0.27939471667165283
1.2914015781737809,-0.865167984630635,2.100320267541065,-2.8059061566662638,1.5707963269848941,0.2793947166779053
1.2914015848831666,-0.8650383188180467,2.1003046792407494,-2.8060202974721546,1.5707963269848193,0.27939471668215693
1.2725192184275647,-0.8685721798633786,2.07494565498114,-2.810955276968443,1.5842869838347307,0.2765976449813982
1.2571207787945728,-0.8732430307524436,2.0687079470309735,-2.8049089415872963,1.5935159998408353,0.2723967898610035
1.2398948458046384,-0.8761785822684657,2.0546136291068873,-2.800568153459439,1.5973915563041499,0.2801229354141875
1.2284460289859302,-0.883264360094567,2.0483484506048066,-2.794917694315655,1.5931692466037295,0.28700495330977294
1.2185396353179923,-0.8924808657697908,2.044363763923308,-2.796400060363471,1.5957249947770737,0.2850382086246467
1.2180008286133563,-0.895101452253697,2.038247303437769,-2.795581886660193,1.5892041000562445,0.2805337580649148
1.2170926860445301,-0.8957106506509785,2.0338783623933816,-2.793871067263704,1.5895169640974567,0.2803685429968889
1.2204478564099874,-0.9006776091680829,2.0344720367224114,-2.792897207143752,1.5950792346556326,0.28927465480093845
1.2091734851744462,-0.9079453681869668,2.027500326323952,-2.795010745125033,1.600285853720035,0.29770389960175714
1.19759669854403,-0.907384221135702,2.0332141418561895,-2.792667001244637,1.5848934026338017,0.3066615031164571
1.1986903904973087,-0.9096004427228478,2.036974477946592,-2.7957781843366183,1.5871847684448634,0.30828696007956397
1.1976351344077634,-0.9091754387310217,2.030845402985207,-2.7895232848453957,1.5770623462397022,0.30495703806806634
1.1979069981091388,-0.913052957480328,2.0317304558634475,-2.785605122373346,1.5702061063557307,0.29493540901976173
1.1949814335453577,-0.9183400319481255,2.027923236990749,-2.7876929723623705,1.5647020210906781,0.2892577612386355
1.2002449342935584,-0.9167560939416787,2.020183521427406,-2.7867850603906383,1.5750464677072276,0.2919090941428171
1.2003636326747371,-0.9144766577022282,2.0185286613871267,-2.794380292652826,1.5770020719884585,0.30490000711704435
1.199348508665375,-0.9142214511242609,2.0134614357456413,-2.7986602572268153,1.5650387117749336,0.31958335699880197
1.2028514940138901,-0.9117722016974721,2.007310172411116,-2.7876264620607376,1.5713632252556116,0.32491937299397733
1.2028514940138901,-0.9117722016974721,2.007310172411116,-2.7876264620607376,1.5713632252556116,0.32491937299397733
1.2039650196019611,-0.9106362527009607,2.0150385508980824,-2.785932866274633,1.5714550262849853,0.33178208329056286
1.1990618176066934,-0.9096677403906513,2.0230889035280093,-2.77943465727595,1.5786505179249528,0.3350671341848891
1.1999963085409546,-0.9099006655232075,2.0257904938232714,-2.78073748894986,1.5778642104652167,0.33584593855006084
1.1945689634806427,-0.9112160080584591,2.0315476722838395,-2.77991515941818,1.570699249714889,0.34181056660383835
1.2056171004527605,-0.9159633677227256,2.0303804812801607,-2.7736987757699803,1.574048330877782,0.33954704806349006
1.206696454454343,-0.9180320275064088,2.0299891538891583,-2.7644003170880747,1.5694015314916903,0.3332756499081963
1.2060609341496562,-0.9161671216127378,2.0374028429110536,-2.7653828010813353,1.566870738823687,0.32867799435418227
1.2006441333086124,-0.9189496038950641,2.0307400513133076,-2.7589933259630786,1.5645954788264402,0.3354403517731634
1.201962342718101,-0.9203766664815893,2.032660887214472,-2.7578169417533767,1.5659193773253774,0.3349348236206932
1.2051315243267713,-0.9213999826341776,2.038286251554399,-2.76259821550747,1.553867611616838,0.33410397746581283
1.2052255432735872,-0.9214247216230119,2.0384586389465635,-2.762771790653499,1.5534300070842155,0.33408583584751467
1.2128985298229988,-0.9311188549753493,2.0589080857806175,-2.7495337366074883,1.5589863563284203,0.3364827334515443
1.2181225951617054,-0.9377150512151995,2.0728184060784063,-2.740530925370365,1.5627653746150114,0.3381129593297073
1.2216744987035821,-0.9422003704786793,2.082277206268246,-2.734408753542262,1.5653352865247814,0.3392215946402397
1.2240894328847618,-0.9452502577389533,2.088708959749307,-2.730245602155734,1.5670828545383702,0.3399754800075413
1.2257313484325172,-0.9473240855464872,2.0930823771586162,-2.727414640361061,1.568271194222155,0.34048811967598647
1.2268476909977932,-0.9487342216907376,2.096056176502297,-2.7254895831037547,1.5690792549311068,0.3408367103648792
1.2276066966081831,-0.9496930684683854,2.0980782737566432,-2.72418054473964,1.5696287285973805,0.34107374877924523
1.2281227481631443,-0.9503450531041365,2.0994532407637623,-2.7232903997787243,1.5700023659638285,0.34123493284919776
1.2284736144504058,-0.950788381507694,2.10038817803546,-2.7226851021303826,1.5702564366536134,0.3413445368167036
1.2287121705538782,-0.9510898304914369,2.101023907986284,-2.722273500368295,1.5704292032204519,0.34141906683813217
1.2288743663890584,-0.9512948060930525,2.101456185746693,-2.721993611585432,1.5705466836774584,0.34146974687892095
1.228984644444826,-0.9514341829266718,2.1017501219901313,-2.7218032874774605,1.5706265699619253,0.34150420910252277
1.229059623285737,-0.951528954719146,2.1019499900572467,-2.7216738672515213,1.5706808924149287,0.3415276433039042
1.2291106019628808,-0.9515933965203648,2.1020858945170935,-2.721585861604292,1.5707178315715287,0.34154357850115796
1.229145262766643,-0.9516372149009004,2.1021783055925147,-2.7215260178322116,1.570742950143333,0.3415544144032311
1.2291690793022427,-0.9476715232262363,2.1020799469904397,-2.725322040669315,1.570760030742836,0.3415617828417633
1.2291849439728146,-0.9449722215998566,2.1020135106236686,-2.7279032315740253,1.5707716455424814,0.3415667933727477
1.2291957527011035,-0.9431368553014413,2.1019682871259713,-2.7296584496101235,1.570779543602272,0.34157020052861253
1.2292031197823579,-0.9418889340867262,2.101937501820299,-2.730852004072294,1.57078491428137,0.341572517391875
1.2292081409480924,-0.9410404350004428,2.1019165449640247,-2.7316636252075597,1.5707885663431584,0.34157409285747176
1.2292115631228493,-0.9404635150462002,2.1019022786811337,-2.73221553032699,1.5707910497457582,0.3415751641733425
1.2292138954593221,-0.940071249886173,2.1018925669475994,-2.732590827662453,1.570792738460227,0.34157589266775773
1.229215485007223,-0.9398045370477497,2.101885955700843,-2.732846031106387,1.5707938867867037,0.34157638804376783
1.2292165683123377,-0.9396231909888533,2.1018814551021605,-2.7330195703001623,1.5707946676492228,0.3415767248993603
1.2292173065966652,-0.9394998883575373,2.1018783913242722,-2.733137577530237,1.5707951986361295,0.34157695396111687
1.2292178097412614,-0.9394160511902049,2.1018763056610936,-2.7332178228393773,1.5707955597075134,0.3415771097230887
1.2292184020933017,-0.9353442722296416,2.1016581037985986,-2.7370728054835234,1.5707958052360684,0.34157721563300436
1.229218478199362,-0.9325728290555252,2.1015101631392636,-2.739694089216594,1.570795972194604,0.34157728765194034
1.2292185524603507,-0.9306884101321303,2.101409518095014,-2.741476570452478,1.5707960857275487,0.34157733662476225
1.2292186212667378,-0.9294071357613186,2.101341047138571,-2.742688663954378,1.5707961629298888,0.34157736992626797
1.2292186803857832,-0.9285359583448357,2.101294464717809,-2.743512891682783,1.570796215427432,0.34157739257128683
1.229218728892796,-0.92794361837064,2.1012627735087848,-2.744073369317899,1.57079625112574,0.3415774079698981
1.2292187674871076,-0.9275408684464319,2.1012412131345743,-2.7444544959864015,1.5707962754005826,0.3415774184409529
1.2292187975264806,-0.9272670265464911,2.1012265450211367,-2.7447136633921496,1.5707962919074745,0.3415774255612704
1.22921882052403,-0.9270808331185115,2.1012165658945765,-2.7448898980904346,1.570796303132165,0.3415774304030866
1.2292188379050235,-0.9269542345426379,2.101209776813596,-2.7450097382707033,1.5707963107649572,0.34157743369552135
1.2292188509059117,-0.9268681563134925,2.1012051580093263,-2.7450912299908095,1.5707963159552587,0.341577435934378
1.2292191088149196,-0.9227767491703338,2.100929713940854,-2.748909641899434,1.570796319485188,0.3415774374538921
1.2292189590639664,-0.9199919520183937,2.100742837555012,-2.7515060574618166,1.5707963218841765,0.3415774384872102
1.2292188796778987,-0.9180984528821441,2.1006157170543798,-2.753271628302578,1.5707963235166003,0.3415774391898386
1.2292188439379936,-0.9168110044205212,2.1005292434219562,-2.7544722227262386,1.57079632462655,0.34157743966762516
1.2292188319177133,-0.9159356289431922,2.100470419614995,-2.755288631078868,1.5707963253812387,0.34157743999252205
1.2292188320161375,-0.9153404345104396,2.1004304045579483,-2.7558437915379717,1.570796325894383,0.34157744021345215
1.2292188376688702,-0.9149357437078681,2.100403184167035,-2.756221302526875,1.5707963262432982,0.34157744036368487
1.2292188452914021,-0.9146605821157817,2.100384667377929,-2.7564780112706986,1.5707963264805505,0.34157744046584326
1.2292188530339614,-0.9144734913689401,2.1003720712440077,-2.75665257407906,1.5707963266418772,0.341577440535311
1.229218860033532,-0.9143462826651524,2.1003635026605387,-2.75677127737432,1.570796326751579,0.3415774405825492
1.2292188659694594,-0.9142597895822949,2.1003576738370238,-2.7568519960127214,1.5707963268261766,0.34157744061467116
1.2292191177401206,-0.9101511751622458,2.1000259698308805,-2.7606313670546085,1.5707963268774559,0.3415774406342115
1.2292189655329704,-0.9073546706103726,2.0998008257477077,-2.763201234752578,1.570796326910921,0.3415774406475349
1.2292188843774698,-0.9054532108729125,2.0996476840458804,-2.7649487530047834,1.570796326934801,0.3415774406565678
1.2292188473430923,-0.9041603496116852,2.0995435166260976,-2.7661370716575755,1.5707963269509446,0.34157744066271273
1.2292188343781885,-0.9032812937208939,2.0994726614739068,-2.7669451324827494,1.570796326961847,0.34157744066689216
1.22921883378953,-0.9026835968089983,2.0994244653945175,-2.7674946166222414,1.5707963269692164,0.34157744066973483
1.2292188389441734,-0.9022772044600028,2.09939168210692,-2.767868267713595,1.5707963269742053,0.34157744067166823
1.2292188462067979,-0.9020008859120328,2.099369382682798,-2.768122351727086,1.5707963269775875,0.3415774406729832
1.229218853690096,-0.9018130085006456,2.0993542144485198,-2.768295129718872,1.5707963269798821,0.3415774406738774
1.2292188605034402,-0.9016852649096407,2.099343896898896,-2.768412619338913,1.570796326981445,0.34157744067448553
1.2292188663059556,-0.9015984081339276,2.099336878820556,-2.768492512678209,1.570796326982508,0.34157744067489904
1.2292191165120152,-0.8974737917573363,2.098949027964233,-2.7722317355303745,1.570796326983703,0.3415774406726282
1.229218965140979,-0.8946663998511616,2.09868569317953,-2.7747743023832143,1.5707963269830971,0.3415774406711179
1.2292188844425038,-0.892757537124458,2.098506582635939,-2.7765032560199745,1.5707963269838165,0.34157744067006535
1.2292188476175756,-0.8914596422241191,2.098384757032999,-2.7776789507235615,1.5707963269842111,0.34157744066935114
1.229218834723905,-0.890577163738159,2.0983018947462684,-2.778478427259988,1.570796326984402,0.34157744066886675
1.2292188341343555,-0.8899771396561497,2.098245534107704,-2.77902207408218,1.5707963269844896,0.34157744066853807
1.2292188392544303,-0.8895691649658145,2.0982071991183204,-2.7793917557975525,1.5707963269845273,0.34157744066831497
1.2292188464702603,-0.889291770517975,2.098181124671682,-2.7796431406353723,1.5707963269845417,0.3415774406681634
1.2292188539058164,-0.8891031615577952,2.0981633895135285,-2.779814083187751,1.5707963269845489,0.3415774406680605
1.2292188606758296,-0.8889749205567098,2.098151326517751,-2.7799303247090474,1.570796326984552,0.34157744066799056
1.2292188664414732,-0.8888877255715183,2.098143121578183,-2.7800093693412364,1.5707963269845564,0.341577440667943
1.2292191151524485,-0.8847482846142639,2.0976992401692787,-2.783707382466616,1.570796326987275,0.3415774405262931
1.2292189648436003,-0.8819308063940943,2.0973977938678208,-2.7862219266282526,1.5707963269876928,0.3415774404300047
1.229218884743828,-0.8800150853670644,2.097192768329995,-2.7879318247943314,1.5707963269891168,0.3415774403645032
1.2292188482147985,-0.8787125272007916,2.0970533211596813,-2.789094561767133,1.5707963269899894,0.34157744031996373
1.2292188354444302,-0.8778268779628222,2.0969584766367433,-2.7898852270433294,1.5707963269905063,0.3415774402896782
1.2292188348848487,-0.87722469795675,2.0968939683696104,-2.7904228822076105,1.570796326990815,0.3415774402690847
1.2292188399882542,-0.8768152573674113,2.096850093191086,-2.7907884895953807,1.5707963269910026,0.3415774402550815
1.2292188471673715,-0.8765368661970936,2.0968202515504255,-2.7910371038904267,1.5707963269911187,0.3415774402455595
1.2292188545606235,-0.8763475795264363,2.0967999547917064,-2.791206162473766,1.5707963269911949,0.3415774402390847
1.2292188612900405,-0.8762188777237496,2.096786149969583,-2.791321122896167,1.5707963269912455,0.34157744023468184
1.2292188670200213,-0.8761313694217756,2.096776760630228,-2.791399296381146,1.5707963269912824,0.3415774402316879
1.2292191136780852,-0.8719782688317931,2.0962769822322334,-2.79505506814847,1.570796326989711,0.34157744036704857
1.2292189642267912,-0.8691514968823685,2.0959375153458177,-2.797540888108951,1.5707963269872018,0.341577440459127
1.2292188845747476,-0.8672294564943249,2.095706636648724,-2.7992312537777546,1.5707963269866423,0.3415774405217152
1.2292188482292628,-0.8659226015256651,2.0955496099578594,-2.8003807086416894,1.5707963269861671,0.3415774405642767
1.2292188354992162,-0.8650340307203394,2.095442811789865,-2.8011623420805596,1.5707963269857665,0.34157744059321976
1.2292188349087183,-0.8644298642285208,2.0953701753356864,-2.8016938555945003,1.5707963269854526,0.34157744061290174
1.2292188399510329,-0.8640190729532707,2.0953207731879555,-2.8020552866598165,1.5707963269852154,0.34157744062628587
1.2292188470611807,-0.8637397634019961,2.09528717334263,-2.8023010610555863,1.5707963269850431,0.3415774406353873
1.229218854388803,-0.8635498522907895,2.095264321095979,-2.802468188507463,1.5707963269849226,0.34157744064157636
1.2292188610608201,-0.863420725908479,2.095248778604014,-2.8025818357605172,1.5707963269848413,0.34157744064578494
1.2192896194770806,-0.9157109568297094,2.09104949980378,-2.750259480421666,1.5886011930236783,0.28925307624363833
1.1970698500939325,-0.964642069428919,2.1053928579481127,-2.696568879889299,1.6022234568489997,0.23556413576702545
1.1811671029602964,-1.0131750047742203,2.126504516820895,-2.6434293668807505,1.6151543701128577,0.18242625459834916
1.1776734001814817,-1.0553858750000822,2.1460048083207317,-2.5902843593935483,1.620215418775634,0.12928284902764126
1.172057180701651,-1.1068224672570801,2.1623301037197535,-2.536599309813713,1.6218752669775804,0.07559940734566735
1.15510326756754,-1.1453852611673436,2.1781789081093024,-2.483574129374935,1.6258616197959532,0.021919612508029863
1.1651021599637565,-1.1856612130749953,2.203093124003557,-2.442385184949765,1.633611448557622,-0.029249865995289222
1.1710239454003402,-1.2241850728167518,2.225593533227929,-2.404195229396716,1.6358750575877168,-0.08294665493497833
1.1633548593110155,-1.2547349607223663,2.2423139859527748,-2.3654205354651947,1.6351550113290911,-0.13662633101668165
1.1590306938430939,-1.275097637391182,2.270145192341163,-2.3320789906066284,1.6432715267773852,-0.19030611712702095
1.1638460454348247,-1.2981573516810714,2.2925365049192865,-2.301386416336151,1.644858115989356,-0.24398592870902236
1.1615432317832362,-1.3224608034070389,2.3068340182675318,-2.2776681598608306,1.6393076931768427,-0.2951554448317676
1.1725879267833514,-1.3368212837681346,2.325257396148482,-2.2568518065504386,1.6454806962953836,-0.34637900748063577
1.1632713287018581,-1.3554104331749908,2.3387938887221296,-2.244900396870846,1.6447391064130694,-0.3976013389133891
1.1600172944923166,-1.3657917945594151,2.3533258414955482,-2.2414039547489932,1.6336699370495518,-0.44712548867438995
1.1588807577481668,-1.3741252763530987,2.3651488226114767,-2.242159442667846,1.6381846811257694,-0.4995275319006657
1.1602718618532806,-1.3830794525283128,2.3687451220489506,-2.237659744337812,1.6342703543555126,-0.5464994481209778
1.1567476745625644,-1.3875609908551014,2.3812731221297345,-2.2321221000639873,1.6291281275239062,-0.5961580715016591
1.158850145785833,-1.3950020309609383,2.3959325519942927,-2.234897597293421,1.6207345998645772,-0.6498650919432126
1.1605810565368668,-1.3972032742963802,2.39658802784364,-2.235035759575144,1.6206832743412853,-0.6967762949619821
1.1646215850175825,-1.3974259451889581,2.4027024668196515,-2.245115326642326,1.611880852184269,-0.7480914706438501
1.1572108183487353,-1.3956034923173937,2.407739657617494,-2.2487533806654705,1.601898180341215,-0.7951138509748178
1.1557256272502112,-1.391968127752642,2.408423307288646,-2.252601766139702,1.5985477006746673,-0.846426617946172
1.1409928296398404,-1.3893386482997272,2.4206661723262943,-2.2565973060728846,1.5955012795782997,-0.8959478055174642
1.1321490262384122,-1.3896841685358048,2.426085458640899,-2.2706786775747796,1.5937159427239527,-0.9455257435718453
1.139155539055008,-1.386035257794404,2.4289939764402915,-2.2810741184362557,1.5922129152419893,-0.99510199569792
1.1403518004500783,-1.3791369403461193,2.425967595700785,-2.287241169551512,1.592611038183586,-1.0463598248321884
1.1551629767214093,-1.3664977830908838,2.422888946873023,-2.296390534841555,1.5830148736428857,-1.098736536476456
1.1517650179158105,-1.3600338615844163,2.422155221977784,-2.30684239630102,1.5731006509386591,-1.1457095722588744
1.1529819391936194,-1.354579942955251,2.424164761704968,-2.317416345419637,1.5694717754110288,-1.1953682119174067
1.1605130658451834,-1.33497923195537,2.4248385376369965,-2.3328141159048497,1.5608974141463081,-1.2490752377728545
1.1581703974393365,-1.3263335601162425,2.4264502279898434,-2.345387895968458,1.5586987104974217,-1.2985207894161672
1.1572786247262237,-1.3099166429302895,2.41866391000084,-2.365145487594008,1.5545991420807443,-1.3517009257694073
1.1562052257249864,-1.2964420657948816,2.41091576330715,-2.380165332260916,1.556011454754211,-1.40538411890877
1.1602834516507898,-1.2811463036234785,2.409333522876067,-2.395094269506329,1.5603931958366835,-1.4585221074385093
1.1603857683741676,-1.2708972691889031,2.399227815302014,-2.407060746812657,1.551122645909406,-1.505459741163213
1.164563606250014,-1.255056299428251,2.3945259847997673,-2.423914303387707,1.553239470559293,-1.559185171626739
1.165888043372604,-1.2448949381363854,2.3894638231708147,-2.4409541631142138,1.552371619237408,-1.6103537283277218
1.164333773779964,-1.2363981277569693,2.3838836339030274,-2.454601728532929,1.5426226404817813,-1.6640505290387282
1.1701863529110779,-1.2273099109045533,2.3757970574040903,-2.4694482578937627,1.543125934896003,-1.7152197185402278
1.1738943085788163,-1.2179395629819618,2.3613212820108727,-2.484803782486455,1.550844164429631,-1.7689165209079845
1.1702931063648052,-1.2084010034772403,2.3595210771040285,-2.492997188761732,1.5562158317126717,-1.8158281359034654
1.1751566862800105,-1.194077204780276,2.3525856547760453,-2.5025824367287877,1.5536664970191145,-1.8654887362021857
1.1858958762168377,-1.1847663309485856,2.3358027734090756,-2.515034959302968,1.5571206858819664,-1.9178888062510506
1.1983466244861376,-1.1748360111332232,2.3321543280688983,-2.531785885760293,1.5523816159811066,-1.9690859176708149
1.2023907528403839,-1.1645347621145299,2.324514176180131,-2.5367071118533917,1.5512362186612203,-2.0151854203696273
1.199991739591729,-1.1515380382125735,2.317717918903158,-2.5463289723487517,1.5600287216347515,-2.0452326047878517
1.2050507026372232,-1.1397864098820314,2.3159194782700068,-2.559557593451156,1.5554988936882173,-2.0976724543521192
1.2069938567247247,-1.1248908917367169,2.3126799380522343,-2.5854883951440577,1.5595114178929463,-2.1467624825221567
1.2187371261294242,-1.1189769033412311,2.3081034284323194,-2.601972000430036,1.5592521245856716,-2.1852770161074457
1.2229560612703823,-1.1016632266839912,2.2938445807079195,-2.615076838240045,1.568752240557729,-2.2212068983622895
1.2187593945390458,-1.0859887575700584,2.2849943281351366,-2.6252214425941838,1.5698982865787716,-2.259032300873288
1.2267319200422993,-1.0772089167432923,2.2736709262834442,-2.6350434263428304,1.5739798124971176,-2.3065490410298675
1.2236665438340972,-1.0676763149361783,2.259905772570763,-2.6484480868867433,1.573043069925824,-2.3364351937797134
1.2221495505686055,-1.0600119687679275,2.249130611213246,-2.663400819106665,1.5715024828365791,-2.365074137990662
1.214996275102657,-1.0538511952387528,2.2407927998545816,-2.6698690053977203,1.5692782673947363,-2.401467515966097
1.2184791633768142,-1.0469754323028257,2.2352572816983853,-2.67016712137428,1.5694791930160512,-2.4252107596840022
1.2297994228854707,-1.0409582843858363,2.2333658538523298,-2.67940547288187,1.5721340206329644,-2.446044760201104
1.2249376923424042,-1.033632175902733,2.2128708858349553,-2.687925623654865,1.5722390324154731,-2.460023235278989
1.225953838206813,-1.0285605694823725,2.2077237407693695,-2.689762559061049,1.5786693429531689,-2.485444983471538
1.2204747268064324,-1.0189519147816422,2.1996392127313222,-2.6985766220364384,1.577060808322725,-2.5050103855726507
1.2089910877137733,-1.0142456064973564,2.1917361167531277,-2.700086804893087,1.577174416823957,-2.5360067113083065
1.204601790664906,-1.0081439974624093,2.1869246293182902,-2.7034823229154594,1.575832828506566,-2.542915906174189
1.2062540626613572,-1.000510941456223,2.1836634554610703,-2.716048708123728,1.5752336005839827,-2.5653361483402284
1.2104942109089327,-0.9944145080111653,2.181146514467792,-2.7190749780608985,1.5749532316277552,-2.571925599654417
1.217899924988508,-0.9956916621168713,2.177743607138333,-2.728263771772199,1.5766161007405508,-2.5953527470615403
1.2164054875360062,-0.9936818353287908,2.1754142157289427,-2.732377199583819,1.5748611571448672,-2.615013851660697
1.2189446492557017,-0.9922409095875747,2.172750549605712,-2.732938709335006,1.5724661498843007,-2.6183499586295227
1.2172366560764887,-0.9843037715042313,2.1638862584904017,-2.7335221897269286,1.5720397044211372,-2.636449333218236
1.2214100200011746,-0.9814716274178066,2.1543497767496387,-2.7395241691105685,1.5786545142900774,-2.640556614452674
1.2186510716841332,-0.9768259435293346,2.1621350012642027,-2.7441519836418062,1.5820850877021393,-2.6553543989363013
1.2198614957653395,-0.9755895987121742,2.153009216894978,-2.7457348781172404,1.5772853537113307,-2.6753871085365257
1.22506154100801,-0.9730818827619234,2.1404492812664824,-2.737675277132933,1.5742117243966873,-2.685040657665096
1.2216137743266542,-0.9712536551516308,2.1461241048981874,-2.7424159603763996,1.5778763390679347,-2.6878123886826537
1.2287507710310377,-0.969917076234006,2.146298140416185,-2.746262655322127,1.5857696599237305,-2.697098476200733
1.2287088248942952,-0.963660176216236,2.1349585262469994,-2.752552028728382,1.5811338491063496,-2.707767492750594
1.2249523677576009,-0.9620634788686526,2.1263860854963252,-2.763095435006592,1.5768921343920024,-2.71596700788401
1.2247513120519977,-0.9613459773563593,2.1235330805213266,-2.7626515644688054,1.5782326252434482,-2.7173677310137307
1.2247513120519977,-0.9613459773563593,2.1235330805213266,-2.7626515644688054,1.5782326252434482,-2.7173677310137307
1.2204234045684168,-0.9578237543257458,2.1149865271632686,-2.761847891288392,1.5759718266226672,-2.7297002180347003
1.2251559413790118,-0.9583106307964052,2.1160375778357645,-2.762900424432025,1.5800764733580943,-2.735298398062045
1.2258866059107194,-0.9544466259712749,2.113655040540065,-2.7593264565277464,1.5688472269912066,-2.7450014203200532
1.228365591943199,-0.9500453790204155,2.113857457844316,-2.765083326408663,1.5771727699566753,-2.728667187038546
1.2249633096398198,-0.9492572593363254,2.1134159321722295,-2.77137785834526,1.5832933412170567,-2.7401899154803515
1.230569531260431,-0.9458209678175707,2.1087273555606676,-2.770943528501357,1.5745496882197247,-2.7511587575768344
1.2297564183294376,-0.9416376515163821,2.108659303810249,-2.7752609050274506,1.573881987511217,-2.7563455143407563
1.2308832795193052,-0.9338595947855246,2.108322334544699,-2.7762707669287083,1.5716263883477786,-2.765009640576869
1.2331061534218892,-0.9371283906194899,2.107408118894769,-2.773987700558355,1.5756192406595382,-2.763406856570202
1.2453893220360726,-0.9381112420207945,2.104919848680483,-2.777641097251188,1.5804101160962745,-2.772486071240323
1.2451443788185432,-0.9378950484256272,2.1016721386828676,-2.7749435986557405,1.5833682055068898,-2.7793204945815875
1.2456423498422622,-0.9361509989908887,2.096836924700464,-2.7732029005481658,1.5812218261533248,-2.7960157771824243
1.2374699583190731,-0.9323269867905528,2.0943900787607133,-2.7761603873383014,1.5864367742617385,-2.8055348629968604
1.2342856570085723,-0.9295703342091521,2.0934692037778335,-2.774976883213022,1.5878687837109184,-2.8061573584687505
1.2366468820098666,-0.9301701337366496,2.0957805405241072,-2.7776215659066663,1.5865354461714882,-2.804655337014239
1.2369489757802359,-0.9288771478195023,2.0944597284747926,-2.7784953349046795,1.584780644043502,-2.8034370900152576
1.2436997410237725,-0.9248543785492034,2.096939028633388,-2.7779802494410983,1.5870322551658478,-2.815922426222714
1.2407041357169057,-0.9273518651513973,2.093040704256948,-2.7735075924902732,1.5832703807455224,-2.8150244611786257
1.2530220670724457,-0.9267843971534868,2.0996177030860133,-2.774165496174531,1.5821555075797251,-2.804518463989468
1.257659975755312,-0.9204479134284161,2.1029367273523962,-2.775034418274822,1.5781462075715342,-2.8034747670168567
1.2558972437852207,-0.9236544017464076,2.097390063547257,-2.7708694901091744,1.5908553271036945,-2.815932977639142
1.2521003735732004,-0.9178396960191307,2.0847878952138585,-2.768713599514662,1.5933112779821323,-2.81152495200818
1.2554782923563432,-0.9173154324865828,2.0854725147661113,-2.7715611288860202,1.5844319439896346,-2.8175986093357035
1.2588966865020834,-0.9174493281765633,2.0853300053757824,-2.772146981643428,1.5852868266983138,-2.812521598134658
1.2549817846955973,-0.917607059926961,2.090475466470181,-2.7742207487930526,1.5787172104906473,-2.8223705493353335
1.2539428716678227,-0.9158332000495487,2.086976612946928,-2.7751771177101205,1.5792533045152384,-2.8233883468297836
1.2468241191042808,-0.9162358849227495,2.085745040962924,-2.765119713028843,1.5792015748902841,-2.816777848674568
1.2414295612227264,-0.9148679791387146,2.0909145372802396,-2.7631287229446366,1.5735189536830019,-2.8130566890171207
1.2389620626042113,-0.9158644638127706,2.0913667961043454,-2.7613134171654994,1.5721759866927707,-2.815777664929053
1.2470387592468088,-0.9115597845283833,2.082762728316107,-2.7632599169920424,1.5690593310408607,-2.8251502099791876
1.247524560464846,-0.9102112861773771,2.085463709812471,-2.7622802634031207,1.567303806576477,-2.8303151583372346
1.2439809520648073,-0.9154663312074741,2.0826590157090354,-2.760013562217986,1.5589185929641096,-2.8350033734844153
1.2477845024979892,-0.9120967657348014,2.082974747687613,-2.76362768254223,1.5549485684169537,-2.84750813729289
1.2519675152073482,-0.918036461378179,2.082620005508257,-2.7650766869142065,1.552925779513135,-2.8521164912624926
1.250913675722384,-0.9198256150305528,2.082282903621685,-2.765437361014799,1.551446257550591,-2.8550665711638765
1.2551081346457293,-0.9193016725378262,2.0738332368614087,-2.760225987818217,1.5594393746571624,-2.861496950622368
1.2531797509862732,-0.9181943667510416,2.072342709968359,-2.7601363483084733,1.5602267834556875,-2.861099328219583
1.2498198431700231,-0.9149584169153109,2.0693882215948274,-2.757801321623484,1.5604234649364905,-2.8540423921331524
1.2444771773108303,-0.9153516541830011,2.0695075142444836,-2.7564279169139008,1.5578711618771555,-2.8574913227279954
1.2383054147278454,-0.9116021463963162,2.0601351382898248,-2.7565726567862807,1.5654274679722882,-2.8665883023848036
1.2378295759674627,-0.9112619686215215,2.0593106484979553,-2.756594509272007,1.5661169524110048,-2.8673124057550954
1.2350690365370187,-0.9242058736311626,2.0730888987992473,-2.7453315647297085,1.5676142794797892,-2.8457738966932844
1.233192212627939,-0.9330146405390946,2.082460018232571,-2.73767280619547,1.5686325266369054,-2.8311266683013887
1.2319159987326858,-0.9390042887126543,2.0888323329695724,-2.732464802710406,1.5693249455557667,-2.8211662769805814
1.2310481759269136,-0.9430769688924306,2.0931654392282972,-2.728923339848787,1.5697957915542324,-2.8143931514039897
1.2304580542074723,-0.9458461984336192,2.0961118959462204,-2.7265151357337336,1.5701159659192256,-2.8097874221983177
1.2300567681191568,-0.9477291435155298,2.098115445269341,-2.7248775520147865,1.5703336834697577,-2.8066555332589838
1.2297838904757912,-0.9490094574884286,2.099477829418053,-2.7237639921943693,1.5704817306596857,-2.804525855385657
1.2295983311697507,-0.9498800109806264,2.1004042301131856,-2.7230067696908584,1.5705824022652806,-2.8030776789259337
1.2294721489457359,-0.9504719467324784,2.101034168402299,-2.722491857189556,1.5706508586566765,-2.802092921666153
1.2293863436514252,-0.9508744355297328,2.1014625166953116,-2.722141715885803,1.5706974088190777,-2.801423288309778
1.2293279950646978,-0.9511481092683621,2.101753786863419,-2.721903619256782,1.5707290628173571,-2.800967938518515
1.2292883173299878,-0.9513341947743691,2.1019518460189532,-2.721741713181192,1.5707505874674246,-2.800658301156352
1.2292613359832278,-0.951460724352973,2.102086523132771,-2.7216316168000834,1.5707652241869923,-2.8004477480241863
1.2292429883276028,-0.9515467586606946,2.102178101447017,-2.721556751091465,1.5707751771298235,-2.800304572045334
1.2292305116850826,-0.9516052580556343,2.102240373252447,-2.7215058422946994,1.5707819451143055,-2.8002072124628277
1.229222277752902,-0.9476495548962811,2.1021215218418274,-2.7253079341304005,1.5707865473328582,-2.8001410079578166
1.2292163502061737,-0.944957044775402,2.1020411514200985,-2.7278932518074206,1.570789676832941,-2.8000959889106
1.2292123415703067,-0.9431262960949495,2.101986453529112,-2.7296512759669613,1.5707918048897889,-2.8000653759739573
1.229209633757901,-0.9418815144518929,2.101949226160393,-2.7308467385478563,1.570793251965572,-2.8000445591855003
1.2292078046156505,-0.9410351500002891,2.101923889058801,-2.7316596571767326,1.5707942359752338,-2.8000304037739707
1.229206568999415,-0.9404596814139186,2.1019066444521504,-2.7322124445747185,1.5707949051005972,-2.8000207780966635
1.229205734319473,-0.9400684030609773,2.1018949076234175,-2.732588341848524,1.5707953601050728,-2.8000142326374857
1.2292051704848188,-0.9398023611690378,2.101886919423767,-2.7328439532432642,1.5707956695076202,-2.800009781726016
1.2292047896156715,-0.9396214712987742,2.1018814825728835,-2.733017769838792,1.570795879901038,-2.8000067551066445
1.2292045323451273,-0.93949847883911,2.10187778219479,-2.7331359656988914,1.5707960229683655,-2.800004697005712
1.2292043585676706,-0.9394148525641989,2.1018752636781644,-2.7332163392743594,1.5707961202540268,-2.800003297497212
1.2292044906448767,-0.9353432235789549,2.101656767862176,-2.7370714029142276,1.5707961864084017,-2.8000023458373593
1.2292042537898173,-0.9325718823807849,2.1015086273305137,-2.73969274172254,1.57079623139196,-2.8000016987078964
1.229204115251946,-0.93068753279385,2.1014078463833794,-2.7414752604086114,1.5707962619818567,-2.8000012586600436
1.2292040393645454,-0.9294063055671994,2.1013392830199873,-2.7426873793761364,1.570796282782875,-2.800000959427583
1.2292040000977633,-0.9285351602058176,2.1012926377672456,-2.7435116244208886,1.5707962969274847,-2.8000007559495472
1.2292039817060605,-0.9279428420272579,2.101260903835672,-2.744072113830961,1.5707963065457748,-2.8000006175845007
1.2292039748113932,-0.9275401069229725,2.1012393144122696,-2.7444532485063426,1.5707963130861906,-2.800000523496277
1.229203973919454,-0.9272662750999224,2.1012246265468124,-2.7447124213567173,1.5707963175336639,-2.8000004595162884
1.2292039758843059,-0.9270800885238586,2.1012146339898297,-2.7448886597573203,1.5707963205579452,-2.8000004160098984
1.229203978963293,-0.9269534946070971,2.101207835776789,-2.745008502455153,1.5707963226144586,-2.800000386425553
1.2292039822388336,-0.9268674195460764,2.1012032107631327,-2.7450899958871986,1.5707963240128924,-2.800000366308199
1.2292042335338016,-0.9227760212479073,2.100927762785685,-2.748908402582912,1.5707963249643182,-2.8000003526312396
1.2292040792859258,-0.9199912301112204,2.1007408837432724,-2.751504814600483,1.5707963256098945,-2.8000003433308063
1.2292039968417128,-0.9180977350653705,2.1006137614362186,-2.7532703830307685,1.5707963260500057,-2.8000003370065483
1.2292039590220436,-0.9168102893852619,2.100527286575438,-2.754470975815307,1.5707963263491875,-2.800000332706058
1.2292039455873258,-0.9159349157994087,2.1004684619331973,-2.755287383053338,1.5707963265525566,-2.8000003297817257
1.2292039447237617,-0.9153397226529052,2.10042844630816,-2.755842542754519,1.5707963266908058,-2.800000327793179
1.2292039497221974,-0.9149350327250222,2.100401225531011,-2.756220053228039,1.5707963267847946,-2.8000003264409683
1.2292039568996849,-0.914659871727764,2.1003827084792595,-2.7564767616214065,1.5707963268486975,-2.8000003255214647
1.2292039643395127,-0.9144727813854369,2.1003701121667353,-2.7566513241914583,1.5707963268921479,-2.800000324896202
1.229203971133141,-0.9143455729567456,2.100361543461811,-2.7567700273246727,1.5707963269216954,-2.8000003244710236
1.2292039769289573,-0.9142590800609767,2.1003557145557026,-2.756850745852884,1.570796326941788,-2.8000003241819025
1.2292042286040599,-0.9101504724391675,2.1000240108662758,-2.760630110522376,1.5707963269560512,-2.800000323987968
1.2292040763326015,-0.9073539725106889,2.099798866999846,-2.7631999738870956,1.570796326964342,-2.800000323856053
1.2292039951332845,-0.9054525159171508,2.0996457254453436,-2.764947489192688,1.570796326971104,-2.8000003237663766
1.2292039580690415,-0.9041596567938002,2.099541558125683,-2.766135805841784,1.5707963269756082,-2.800000323705397
1.2292039450837773,-0.9032806023567673,2.0994707030415336,-2.7669438653044445,1.570796326978595,-2.800000323663929
1.2292039444812357,-0.9026829064334386,2.099422507008386,-2.7674933485174273,1.5707963269805836,-2.80000032363573
1.2292039496264109,-0.9022765147566776,2.099389723752213,-2.7678669989787568,1.570796326981914,-2.8000003236165547
1.2292039568825754,-0.9020001966658304,2.099367424349448,-2.7681210825638316,1.5707963269828071,-2.8000003236035154
1.2292039643614658,-0.9018123195652836,2.099352256129682,-2.768293860264294,1.5707963269834109,-2.8000003235946482
1.2292039711718,-0.9016845761856599,2.099341938589921,-2.7684113496862364,1.5707963269838228,-2.800000323588619
1.2292039769722591,-0.9015977195536817,2.0993349205182836,-2.768491242890824,1.5707963269841032,-2.8000003235845186
1.2292042271758274,-0.897473109920656,2.0989470701040913,-2.772230459443844,1.5707963269847856,-2.800000323583849
1.2292040758037959,-0.8946657226006741,2.098683735621436,-2.774773022013244,1.5707963269838303,-2.8000003235833586
1.2292039951045919,-0.8927568629925796,2.0985046252831783,-2.77650197273726,1.5707963269843124,-2.8000003235830513
1.2292039582791254,-0.8914589702128942,2.098382799819806,-2.777677665460181,1.570796326984545,-2.800000323582841
1.2292039453850596,-0.8905764931689831,2.09829993762794,-2.7784771406497537,1.5707963269846266,-2.8000003235826965
1.2292039447952228,-0.8899764700675655,2.0982435770538577,-2.7790207865560848,1.5707963269846397,-2.8000003235825974
1.2292039499150882,-0.8895684960440331,2.098205242108303,-2.779390467648672,1.5707963269846263,-2.8000003235825295
1.2292039571307662,-0.8892911020496191,2.0981791676914554,-2.7796418520629995,1.5707963269846068,-2.8000003235824833
1.2292039645662127,-0.8891024933977705,2.0981614325535523,-2.7798127943274027,1.57079632698459,-2.8000003235824518
1.2292039713361471,-0.8889742526063513,2.098149369571539,-2.7799290356528767,1.570796326984577,-2.8000003235824305
1.2292039771017327,-0.8888870577637323,2.098141164641326,-2.7800080801519047,1.570796326984572,-2.800000323582416
1.2292042256708158,-0.8847476236011379,2.0976972841089023,-2.783706087358233,1.5707963269851044,-2.8000003235846296
1.229204075266118,-0.8819301500018989,2.097395838404946,-2.7862206274948953,1.5707963269840342,-2.8000003235861013
1.2292039951011235,-0.880014432117103,2.0971908132733543,-2.7879305229239875,1.5707963269844465,-2.800000323587127
1.2292039585277068,-0.8787118760875487,2.0970513663792145,-2.789093258035637,1.570796326984632,-2.8000003235878235
1.2292039457271307,-0.877826228302546,2.096956522044031,-2.78988392204625,1.5707963269846812,-2.8000003235882955
1.2292039451469907,-0.8772240492844928,2.096892013904541,-2.790421576349933,1.5707963269846728,-2.8000003235886157
1.2292039502364067,-0.8768146093670095,2.096848138812794,-2.790787183152498,1.5707963269846437,-2.8000003235888333
1.2292039574060025,-0.8765362186535531,2.0968182972311284,-2.791035797049604,1.5707963269846135,-2.800000323588981
1.2292039647927742,-0.8763469322935638,2.0967980005125164,-2.791204855362345,1.5707963269845897,-2.8000003235890816
1.229203971517782,-0.8762182307021281,2.0967841957176603,-2.7913198156007377,1.5707963269845724,-2.8000003235891495
1.229203977244763,-0.8761307225438064,2.0967748063968425,-2.7913979889605924,1.570796326984563,-2.8000003235891957
1.2292042240421592,-0.8719776285406121,2.096275028193594,-2.7950537543384786,1.570796326985128,-2.8000003235916373
1.2292040746863482,-0.8691508610707375,2.095935561440976,-2.7975395699541212,1.5707963269840701,-2.800000323593263
1.2292039950991822,-0.8672288237287846,2.095704682834807,-2.799229932668431,1.570796326984497,-2.800000323594394
1.2292039587977723,-0.865921970831467,2.095547656205715,-2.800379385523308,1.5707963269846925,-2.8000003235951616
1.2292039460976696,-0.8650334014346563,2.0954408580796864,-2.8011610175960193,1.5707963269847478,-2.8000003235956825
1.2292039455275146,-0.8644292359006281,2.0953682216540184,-2.8016925301809716,1.5707963269847431,-2.800000323596036
1.2292039505836496,-0.8640184452766716,2.095318819525657,-2.802053960614576,1.570796326984718,-2.800000323596276
1.2292039577031872,-0.8637391361682775,2.095285219693491,-2.8022997345807816,1.570796326984689,-2.800000323596439
1.2292039650371869,-0.8635492253582281,2.0952623674557795,-2.8024668617405544,1.5707963269846676,-2.8000003235965494
1.2292039717135392,-0.8634200991807046,2.095246824969889,-2.8025805087949776,1.5707963269846512,-2.8000003235966244
1.2292039773987333,-0.8633323023310843,2.0952362540612413,-2.802657789189773,1.5707963269846408,-2.8000003235966755
1.2292042222911346,-0.8591666987175804,2.0946807262062874,-2.8062703102971236,1.5707963269852212,-2.800000323598856
1.2292040740642503,-0.8563314199484973,2.0943033391721286,-2.80872671973061,1.5707963269841616,-2.800000323600306
1.2292039950977598,-0.8544035952798319,2.094046675613866,-2.8103970862008123,1.5707963269845944,-2.8000003236013176
1.2292039590880122,-0.8530928073483974,2.093872115843775,-2.811532941599002,1.570796326984793,-2.8000003236020032
1.229203946495316,-0.8522015623761792,2.0937533956098338,-2.8123053273978758,1.5707963269848513,-2.800000323602468
1.2292039459355057,-0.851595577623723,2.0936726524417377,-2.8128305525156607,1.5707963269848482,-2.8000003236027835
1.2292039509556538,-0.851183550050703,2.0936177379260847,-2.8131877074713647,1.5707963269848244,-2.8000003236029976
1.2292039580212906,-0.8509033998990404,2.093580389804674,-2.813430574112589,1.5707963269847969,-2.800000323603143
1.229203965298548,-0.8507129172357779,2.09355498882133,-2.813595724291418,1.5707963269847744,-2.8000003236032422
1.229203971922622,-0.8505834022364597,2.0935377132502366,-2.8137080269988464,1.570796326984758,-2.8000003236033093
1.229203977562942,-0.8504953410141957,2.0935259638856425,-2.8137843932377233,1.5707963269847485,-2.800000323603355
1.229204220420009,-0.8463183617029709,2.092914849535995,-2.817352699096583,1.5707963269852634,-2.8000003236048374
1.2292040733996819,-0.8434753431040894,2.092499653286684,-2.81977904208257,1.5707963269841516,-2.800000323605813
1.229203995095349,-0.841542255690025,2.092217280301794,-2.8214289633285534,1.5707963269845526,-2.800000323606501
1.229203959396231,-0.8402278894248604,2.0920252387462925,-2.8225509159636273,1.5707963269847307,-2.8000003236069673
1.2292039469175726,-0.8393342114231199,2.091894631325006,-2.8233138478803044,1.5707963269847744,-2.800000323607283
1.229203946368375,-0.8387265723762968,2.091805805159637,-2.8238326443572412,1.570796326984762,-2.800000323607498
1.2292039513498467,-0.8383134199976805,2.091745394402842,-2.824185427836939,1.5707963269847305,-2.8000003236076427
1.229203958357804,-0.8380325050569698,2.091704308971197,-2.8244253218744686,1.570796326984698,-2.8000003236077413
1.229203965574429,-0.8378415023910861,2.0916763667077,-2.8245884506828265,1.5707963269846716,-2.8000003236078084
1.2292039721426815,-0.8377116338268267,2.091657363127765,-2.82469937885838,1.5707963269846548,-2.8000003236078537
1.2292039777351103,-0.8376233322055255,2.091644438759039,-2.8247748104156187,1.5707963269846432,-2.8000003236078843
1.229204218636589,-0.8334360926729273,2.090977915001968,-2.8282979624404256,1.5707963269754717,-2.8000003238131326
1.2292040730386808,-0.830586093170272,2.0905250300816256,-2.8306936007405614,1.570796326967762,-2.800000323952669
1.2292039955322789,-0.8286482590628673,2.0902170296399203,-2.8323226427606443,1.5707963269636833,-2.8000003240475784
1.2292039602271203,-0.8273306653646462,2.0900075620363676,-2.833430397511527,1.5707963269608152,-2.800000324112115
1.229203947913072,-0.8264347929355761,2.089865105327643,-2.8341836748636973,1.5707963269587881,-2.8000003241559988
1.2292039474047554,-0.8258256618368124,2.089768221935922,-2.834695906235816,1.5707963269573666,-2.800000324185839
1.2292039523653393,-0.8254114949726113,2.0897023324615307,-2.8350442254440114,1.5707963269563767,-2.8000003242061298
1.2292039593258233,-0.8251298902571542,2.0896575216352073,-2.8352810837769042,1.5707963269556922,-2.8000003242199276
1.2292039664874714,-0.8249384185961232,2.089627046193828,-2.835442148306149,1.5707963269552234,-2.80000032422931
1.229203973002878,-0.8248082311504692,2.089606320114393,-2.83555167277195,1.5707963269549055,-2.80000032423569
1.2292039785488467,-0.8247197127138997,2.0895922244877485,-2.835626149806592,1.5707963269546892,-2.8000003242400284
1.2292042167609052,-0.820523309907169,2.0888704854477105,-2.8391032449217684,1.5707963269648546,-2.8000003240412
1.2292040722429018,-0.8176670758202333,2.0883800439912985,-2.8414675644446867,1.5707963269702871,-2.8000003239059645
1.2292039952908322,-0.815725002499372,2.0880465059438045,-2.843075309657205,1.5707963269751497,-2.8000003238140287
1.2292039602052705,-0.8144045264398784,2.0878196733883687,-2.8441685825684537,1.5707963269783618,-2.800000323751511
1.2292039479313632,-0.8135066942221493,2.0876654089358126,-2.844912012266441,1.5707963269804694,-2.800000323708998
1.2292039473752991,-0.8128962306187426,2.0875604965661796,-2.8454175472327705,1.5707963269818592,-2.8000003236800883
1.2292039522520282,-0.8124811577563325,2.0874891475823136,-2.8457613128847994,1.570796326982782,-2.8000003236604294
1.2292039591203894,-0.8121989370342749,2.087440624422287,-2.8459950747994838,1.570796326983397,-2.800000323647061
1.229203966195458,-0.8120070465382074,2.087407624684122,-2.8461540337643827,1.5707963269838137,-2.8000003236379705
1.2292039726356865,-0.8118765743185149,2.087385182144084,-2.846262126446472,1.570796326984094,-2.8000003236317887
1.229203978119439,-0.811787862258646,2.087369919365805,-2.846335629868225,1.570796326984287,-2.800000323627585
1.2292042141293285,-0.8075833697664184,2.0865931684532257,-2.8497657977494306,1.5707963269850078,-2.800000323626041
1.2292040711742898,-0.8047216315222682,2.0860653089142307,-2.8520982066747376,1.5707963269840093,-2.800000323624959
1.2292039950946434,-0.8027758156612993,2.0857063274081105,-2.853684252642357,1.570796326984503,-2.8000003236242477
1.229203960436524,-0.8014527949641145,2.0854621939179974,-2.8547627700566944,1.570796326984744,-2.8000003236237623
1.2292039483383705,-0.8005532325997733,2.0852961652512887,-2.855496166013584,1.5707963269848313,-2.800000323623432
1.2292039478229086,-0.7999415926414437,2.0851832535025507,-2.855994878035028,1.5707963269848486,-2.800000323623206
1.2292039526732426,-0.7995257199579134,2.0851064651354743,-2.8563340040843075,1.5707963269848364,-2.8000003236230517
1.2292039594867814,-0.7992429554264538,2.0850542433269803,-2.8565646110691043,1.5707963269848166,-2.8000003236229465
1.2292039664994319,-0.7990506951872397,2.08501872859757,-2.8567214246817167,1.5707963269847993,-2.800000323622875
1.2292039728800974,-0.7989199715744985,2.084994575924415,-2.8568280585242904,1.5707963269847882,-2.8000003236228266
1.2292039783116984,-0.7988310885893859,2.084978150297003,-2.8569005699352052,1.5707963269847804,-2.8000003236227937
1.2292042118096234,-0.7946195582950796,2.08414660676094,-2.8602829777479246,1.5707963269853265,-2.800000323624283
1.2292040703530798,-0.7917530315533509,2.0835814783682123,-2.8625829097484914,1.570796326984201,-2.800000323625264
1.229203995091983,-0.7898039597840723,2.08319715487732,-2.864146871369359,1.5707963269846121,-2.8000003236259556
1.229203960816511,-0.7884787253447582,2.0829357894514806,-2.8652103714176556,1.5707963269847982,-2.800000323626424
1.2292039488581366,-0.7875776578329512,2.082758043487604,-2.865933555562477,1.5707963269848477,-2.8000003236267417
1.2292039483550894,-0.7869649945123339,2.082637164261744,-2.866425323550787,1.5707963269848377,-2.800000323626957
1.2292039531573413,-0.786548426038025,2.0825549582037466,-2.866759727657307,1.5707963269848084,-2.800000323627103
1.229203959899603,-0.786265188434614,2.082499052496831,-2.8669871237210085,1.5707963269847762,-2.8000003236272017
1.2292039668374894,-0.7860726065515565,2.082461032805727,-2.8671417539073083,1.5707963269847516,-2.8000003236272692
1.2292039731494124,-0.7859416642518164,2.082435176819226,-2.8672469030200287,1.5707963269847354,-2.800000323627315
1.2292039785220863,-0.7858526325805628,2.0824175929799074,-2.867318404814677,1.5707963269847238,-2.800000323627346
1.2292042093948257,-0.7816350916651665,2.081531487773678,-2.8706522561557355,1.5707963269853047,-2.800000323628105
1.2292040695005708,-0.7787644752788179,2.0809292477191828,-2.8729191696778953,1.5707963269841951,-2.80000032362859
1.2292039950917155,-0.7768126228048566,2.080519689131791,-2.8744606786961775,1.5707963269846208,-2.8000003236289435
1.2292039612139372,-0.7754854977480655,2.0802411644506167,-2.8755089109646104,1.5707963269848175,-2.8000003236291824
1.2292039494002605,-0.7745831448039007,2.0800517506096856,-2.8762217130160095,1.5707963269848737,-2.8000003236293436
1.229203948909386,-0.7739696075205986,2.0799229375106427,-2.8767064211798767,1.5707963269848695,-2.800000323629453
1.2292039536609671,-0.7735524448426697,2.07983533661123,-2.8770360246055486,1.5707963269848426,-2.8000003236295266
1.229203960328549,-0.773268803243453,2.0797757625427633,-2.877260156206252,1.5707963269848142,-2.8000003236295763
1.2292039671882458,-0.7730759466861961,2.079735248454503,-2.877412566557745,1.5707963269847898,-2.80000032362961
1.22920397342834,-0.7729448176373573,2.0797076963381818,-2.8775162061828334,1.5707963269847725,-2.800000323629633
1.2452625496892562,-0.7869434973755575,2.070666409194976,-2.8636528644341666,1.5696860570421927,-2.8099837554387244
1.2570674367348698,-0.7953262507021844,2.066292571020014,-2.8626576616591555,1.5730589319572905,-2.8143045274939813
1.2705073779858294,-0.8068615211946745,2.062110432325409,-2.863817061378896,1.5787044459303636,-2.8251306233849043
1.2813797691481679,-0.8150947735326745,2.060417515267446,-2.8550557895381874,1.5824703113019454,-2.8270838538803202
1.2887512711945468,-0.825043569788784,2.0485681230654595,-2.856975180177164,1.583026801957037,-2.8370175256660706
1.2960203510888886,-0.833262024998671,2.0450276336851605,-2.8528282675272347,1.590944540370885,-2.8298207625052894
1.2947987047829472,-0.8390600975883825,2.0428133450779065,-2.851375272312858,1.5889083144994773,-2.833338038007276
1.2986022029873596,-0.8458657563037323,2.03867393670394,-2.8498129886872863,1.59519678087175,-2.832417205878411
1.2922996901517567,-0.8572118740408684,2.0319173671277673,-2.850224314508132,1.5933883237540487,-2.835207390759124
1.2954754243385327,-0.8656008977663258,2.0275804452326276,-2.8504705724476422,1.5942119338733978,-2.834523934877876
1.2950036513123255,-0.8736220965040696,2.034678805554491,-2.844726340657553,1.5931445885175664,-2.828925232071927
1.287644172988314,-0.8750172894291283,2.0358208661403547,-2.840282167700138,1.5892516428213124,-2.828748396916877
1.2978820078442594,-0.8761481452243202,2.040001182858528,-2.832328750758493,1.5884973709981716,-2.8350473398864766
1.300374821451964,-0.8765974122934753,2.039627202740881,-2.830146022846313,1.5878480391359564,-2.832700742230457
1.2971965770126217,-0.8791537546872812,2.0348481759253287,-2.823884310825148,1.5880679974426142,-2.8479807268108437
1.295948724678003,-0.8791401161627145,2.036740935593785,-2.821040827807544,1.5868511821540048,-2.8437605436806614
1.2925971693985074,-0.8789243557738579,2.037764189847542,-2.817825228398357,1.574894427734162,-2.839627865064779
1.2985987292926875,-0.8851560847234675,2.040687658528334,-2.8166860426697125,1.5687514104940288,-2.842181032436767
1.28890853391042,-0.8869355199433246,2.0373427994064714,-2.8147980021997316,1.5760648749504838,-2.8453652557595714
1.2880528446146022,-0.8870778663411806,2.037045845057594,-2.8146357962455,1.5767128692904036,-2.845637069779645
1.2903360585966583,-0.9084093128543856,2.0596082140372807,-2.785809999607867,1.5748200182771226,-2.8521502721032603
1.2918932174157183,-0.9229265135845023,2.0749542413012274,-2.766207091061679,1.5735325065933585,-2.8565804717677588
1.2929518250485148,-0.9327977505596684,2.0853895843536225,-2.752876599940133,1.5726569169412286,-2.85959329920749
1.2936714540251018,-0.9395097353364318,2.0924855358722314,-2.743811696659065,1.5720615056575358,-2.8616420639436133
1.294160647549083,-0.9440735627762135,2.0973106939896105,-2.737647505413688,1.5716566311339535,-2.8630352102164114
1.2944931938520952,-0.9471767446737126,2.1005917289204317,-2.7334558349943117,1.571381322683917,-2.8639825306917572
1.2947192535617027,-0.9492867585376138,2.1028227786959297,-2.730605491081576,1.5711941174278705,-2.8646266946687677
1.294872925288572,-0.9507214665806519,2.1043398540049956,-2.728667253610171,1.571066820660514,-2.8650647174515047
1.2949773888047778,-0.9516969994778685,2.105371438247348,-2.7273492502619305,1.570980260511753,-2.86536256784342
1.2950484013759007,-0.9523603154533039,2.106072896861473,-2.7264530069027613,1.5709214005573469,-2.865565103224076
1.2950966745451915,-0.9528113389120357,2.1065498758692827,-2.7258435607430727,1.5708813763235732,-2.8657028256784023
1.2951294898471268,-0.9531180135987353,2.106874212780608,-2.725429136915274,1.570854160145637,-2.86579647606382
1.2951517971490847,-0.9533265379838854,2.107094755845903,-2.7251473284208805,1.570835653313856,-2.865860157842048
1.2951669612884613,-0.9534683248126353,2.107244721002882,-2.7249556984494703,1.5708230687635827,-2.8659034611870964
1.295177269625248,-0.95356473325275,2.1073466944875823,-2.724825389937741,1.5708145113233343,-2.865932907317793
1.2951842770682302,-0.9536302865230065,2.107416034527565,-2.7247367800616162,1.570808692294648,-2.86595293060832
1.295189292456038,-0.9496615145576217,2.1073014975170943,-2.728530607146023,1.570804735372582,-2.8659665463588895
1.2951923715732847,-0.946960115776204,2.107224057255439,-2.731110304846899,1.5708020446735451,-2.865975805051458
1.2951944869947793,-0.945123322676679,2.1071713518469855,-2.7328645074460454,1.570800215005359,-2.8659821009489272
1.2951959432360804,-0.9438744307271555,2.107135479392372,-2.734057371376978,1.5707989708344199,-2.865986382151907
1.29519694544325,-0.9430252712011717,2.1071110636481665,-2.7348685229298995,1.570798124800166,-2.8659892933660056
1.2951976350046597,-0.9424479019215887,2.1070944455735385,-2.73542010871991,1.570797549498043,-2.865991272989482
1.2951981093513374,-0.942055331069933,2.1070831347914223,-2.735795188902714,1.5707971582932925,-2.8659926191323115
1.2951984355916772,-0.9417884102615712,2.1070754363057898,-2.7360502446772395,1.5707968922744726,-2.865993534508828
1.2951986599314242,-0.9416069227174052,2.1070701964612586,-2.736223683452197,1.5707967113819192,-2.8659941569645326
1.2951988141749766,-0.9414835238330042,2.1070666300474454,-2.7363416223951527,1.570796588375126,-2.8659945802342373
1.295198920208654,-0.9413996211855169,2.1070642026260322,-2.7364218212675757,1.5707965047305907,-2.865994868057543
1.2951992440212843,-0.9373099636320655,2.1068451073366066,-2.7402939437857987,1.5707964478524863,-2.865995063781493
1.2951991355990233,-0.9345263614010444,2.106696555657771,-2.742926882676411,1.5707964091739122,-2.8659951968741804
1.2951990845239283,-0.9326336743279755,2.106595495268495,-2.744717289432417,1.5707963828736229,-2.865995287377142
1.2951990682149928,-0.9313467776087514,2.1065267420250184,-2.7459347722921374,1.570796364989344,-2.8659953489191072
1.2951990695316422,-0.9304717769930795,2.106479967748945,-2.7467626647851304,1.5707963528279627,-2.8659953907676208
1.2951990787840286,-0.9298768372429665,2.106448146145539,-2.747325634460559,1.5707963445581798,-2.8659954192245993
1.29519909071944,-0.9294723194713637,2.1064264971484485,-2.7477084557166065,1.570796338934702,-2.86599543857534
1.2951991026537584,-0.9291972754356672,2.106411768801996,-2.747968775441942,1.5707963351107244,-2.8659954517338417
1.2951991133553031,-0.9290102645559115,2.106401748737582,-2.7481457937175806,1.5707963325104117,-2.865995460681622
1.2951991223853554,-0.928883110113355,2.1063949318327437,-2.748266166730479,1.5707963307421966,-2.865995466766113
1.2951991297145202,-0.9287966538953445,2.1063902941176043,-2.7483480207768,1.5707963295398077,-2.865995470903566
1.2951993852322718,-0.9246871959805076,2.1061140076918083,-2.752183641703736,1.5707963287227105,-2.86599547371985
1.2951992319397025,-0.921890122713611,2.105926554938644,-2.7547917594420688,1.5707963281656734,-2.865995475634927
1.2951991502795421,-0.9199882758354441,2.1057990426545086,-2.756565287775692,1.570796327788008,-2.8659954769371994
1.29519911310045,-0.9186951509073875,2.1057123027562312,-2.7577712932988168,1.5707963275311005,-2.8659954778227394
1.295199100173697,-0.9178159154334872,2.105653297988122,-2.7585913812004583,1.570796327356326,-2.865995478424904
1.295199099704324,-0.9172180962042829,2.105613159944708,-2.7591490437533346,1.5707963272374361,-2.865995478834374
1.2951991050037577,-0.9168116205412626,2.10558585596847,-2.7595282561661527,1.570796327156568,-2.8659954791128137
1.2951991124082158,-0.9165352452449782,2.105567282372049,-2.7597861218782938,1.570796327101567,-2.865995479302152
1.295199120017481,-0.9163473291799674,2.105554647629934,-2.7599614714251315,1.5707963270641616,-2.865995479430902
1.2951991269365573,-0.9162195592603255,2.1055460528069596,-2.760080709702568,1.570796327038725,-2.865995479518452
1.295199132824613,-0.9161326845510589,2.105540206150107,-2.7601617921288564,1.5707963270214307,-2.865995479577986
1.2951993860116926,-0.9120060729672869,2.105207493618368,-2.7639581501383796,1.5707963270101497,-2.865995479621008
1.2951992328739896,-0.9091973287734005,2.1049816601096625,-2.7665395690165653,1.5707963270010643,-2.8659954796502305
1.295199151218695,-0.9072875460948359,2.1048280497496994,-2.7682949420839953,1.5707963269960148,-2.8659954796701275
1.2951991139506087,-0.9059890252313221,2.1047235637932094,-2.7694886020152953,1.5707963269924865,-2.865995479683656
1.2951991008982522,-0.9051061208113226,2.104652492138414,-2.7703002949111712,1.570796326990011,-2.8659954796928537
1.295199100298263,-0.9045058069006079,2.104604148906346,-2.770852248859162,1.5707963269882843,-2.8659954796991074
1.2951991054777001,-0.9040976349934267,2.1045712656016224,-2.7712275794204317,1.5707963269870888,-2.8659954797033595
1.2951991127791587,-0.9038201063466936,2.104548898197448,-2.7714828054735134,1.5707963269862646,-2.8659954797062506
1.2951991203037376,-0.9036314060687534,2.1045336837581217,-2.771656360052236,1.5707963269857006,-2.8659954797082166
1.2951991271552228,-0.9035031029289361,2.1045233348035532,-2.771774377751403,1.5707963269853162,-2.8659954797095533
1.2951991329904942,-0.9034158656603432,2.104516295379664,-2.771854630184507,1.5707963269850576,-2.8659954797104623
1.2951993846491177,-0.8992733245579049,2.1041272685007057,-2.775610599970702,1.5707963269854337,-2.865995479713641
1.2951992323959642,-0.8964537422928844,2.103863130329935,-2.7781645547796012,1.5707963269842646,-2.8659954797157687
1.2951991512291625,-0.8945365901367219,2.1036834736399896,-2.779901252238627,1.5707963269846061,-2.865995479717241
1.295199114190666,-0.893233058421523,2.1035612768122096,-2.781082212745354,1.5707963269847427,-2.8659954797182405
1.295199101222364,-0.892346746901524,2.103478162197624,-2.7818852700291816,1.57079632698476,-2.8659954797189187
1.2951991006296029,-0.8917441163572266,2.10342163004705,-2.782431351760013,1.5707963269847278,-2.865995479719379
1.2951991057795813,-0.8913343692734342,2.1033831784774506,-2.7828026892133915,1.5707963269846843,-2.8659954797196923
1.2951991130374396,-0.8910557695987809,2.1033570247887137,-2.7830551999531026,1.5707963269846437,-2.8659954797199045
1.2951991205162567,-0.890866341084924,2.1033392357679053,-2.7832269081187824,1.570796326984612,-2.865995479720049
1.2951991273256298,-0.890737542787741,2.103327136160406,-2.783343670257131,1.5707963269845902,-2.865995479720147
1.2951991331247714,-0.8906499688414989,2.1033189063349496,-2.7834230689089194,1.5707963269845764,-2.865995479720214
1.2951993831274426,-0.8864926912706208,2.102873683839292,-2.787137575720474,1.5707963269851615,-2.865995479722462
1.2951992318528476,-0.8836630826389859,2.10257132184698,-2.7896633356283007,1.570796326984123,-2.8659954797239573
1.295199151226259,-0.8817391129455887,2.10236567380049,-2.791380860513401,1.57079632698456,-2.8659954797249996
1.295199114442507,-0.880430945682673,2.102225803482795,-2.7925487836589795,1.5707963269847607,-2.8659954797257066
1.295199101568563,-0.8795414822586279,2.1021306713273353,-2.793342975533883,1.5707963269848213,-2.865995479726186
1.2951991009854265,-0.8789367086066233,2.1020659675428437,-2.793883028785674,1.5707963269848193,-2.8659954797265117
1.29519910610445,-0.8785255043387723,2.1020219594617133,-2.7942502668730804,1.5707963269847955,-2.8659954797267324
1.2951991133155725,-0.8782459138676868,2.101992027480576,-2.7944999900439242,1.570796326984768,-2.8659954797268825
1.2951991207450582,-0.8780558116729913,2.1019716693128823,-2.794669802662822,1.570796326984746,-2.865995479726984
1.2951991275089132,-0.8779265553143119,2.1019578227479303,-2.794785275829408,1.5707963269847303,-2.8659954797270535
1.295199133268946,-0.8778386699145249,2.1019484050338026,-2.7948637979804385,1.5707963269847218,-2.8659954797271006
1.2951993816443137,-0.8736678356475521,2.1014471212733454,-2.798535796157703,1.570796326983927,-2.8659954798940706
1.2951992315445664,-0.8708290033200837,2.101106626928455,-2.80103265011518,1.570796326981939,-2.8659954800075766
1.2951991515796943,-0.8688987618870209,2.1008750497256936,-2.802730518913019,1.5707963269817373,-2.8659954800847864
1.2951991151234954,-0.8675863302033422,2.1007175482133182,-2.803885075908382,1.5707963269815048,-2.8659954801372876
1.29519910238676,-0.8666939672308808,2.100610427277054,-2.8046701787977937,1.5707963269812693,-2.865995480172987
1.295199101837876,-0.8660872220656343,2.1005375714150323,-2.8052040515384777,1.570796326981066,-2.8659954801972614
1.2951991069396331,-0.8656746772929301,2.100488020120411,-2.805567086878103,1.5707963269809069,-2.865995480213768
1.295199114111252,-0.8653941753638515,2.1004543188893443,-2.8058139521804466,1.5707963269807868,-2.8659954802249925
1.2951991214949166,-0.8652034534361088,2.1004313977235145,-2.8059818214488104,1.5707963269807013,-2.8659954802326246
1.295199128214686,-0.8650737756988411,2.100415808382176,-2.8060959731370834,1.5707963269806433,-2.8659954802378147
1.2951991339359366,-0.8649856037888058,2.1004052056224443,-2.8061735966829,1.5707963269806045,-2.865995480241344
1.2951993800532007,-0.8608023783794082,2.0998480127292263,-2.8098020725532904,1.5707963269824379,-2.8659954800809637
1.2951992308716815,-0.8579551153529205,2.0994694895973574,-2.812269331262541,1.570796326982226,-2.865995479971872
