alanchuang0921/RL-path-planning/controller_final_test/robot_path_csv/joint_poses_4faceS_wp7cm_0703.csv
Joint1,Joint2,Joint3,Joint4,Joint5,Joint6
1.5705475857214568,-1.6080314579152712,1.5872153004009404,-0.04685291287628958,1.5621406939961893,-0.04567108254671159
1.56463055145953,-1.6473594362312056,1.6122445965027592,-0.10057838239629026,1.556062958776895,-0.09478948581998858
1.557257385684237,-1.685500565085288,1.6345742938333474,-0.15425728791349247,1.550245881461294,-0.13982242449648064
1.5576308418612326,-1.7163636100950874,1.657519837382407,-0.20542616465250862,1.5422390937948902,-0.18798865635517747
1.5520276076306463,-1.7424326286183678,1.687100614228145,-0.2591222336215857,1.5351204719222813,-0.2408668681424414
1.548391306032094,-1.7572376675222443,1.7067842236276622,-0.30603326182269264,1.52899441268484,-0.2852399673652076
1.5414365353749855,-1.7716262719369487,1.736712449461533,-0.35975803043777965,1.5263543009669382,-0.3343480372834161
1.5419051788487235,-1.786460255540003,1.7574318066798988,-0.40666762740885076,1.5229234202201676,-0.3587488026611053
1.5408811248665364,-1.799396615901421,1.7816958724722864,-0.45632741636691243,1.5216729948508247,-0.3850562153763354
1.5326866383846425,-1.808419202497096,1.8091487837026201,-0.5100334382897342,1.5206044517005655,-0.41503356545779224
1.5303910538034782,-1.8129876740010127,1.831735209404361,-0.561201456452812,1.5250288396703415,-0.43215524144558903
1.5301842798232275,-1.8124411740651227,1.8539117942011338,-0.6148971974177124,1.527682900980802,-0.452931874875269
1.5314000023968461,-1.8068624352203402,1.8765787497336468,-0.6660653706388846,1.5316505666292732,-0.46418438602875367
1.5318435392889567,-1.8041372374585112,1.8949077825289828,-0.7197610454956838,1.5335200301011171,-0.4718900141330872
1.5325446063683776,-1.8046158534725725,1.9171690084928565,-0.7666718042285119,1.5384490021981634,-0.4794615355948494
1.5332926287658482,-1.7980680169554455,1.9418223574796785,-0.8179858515038987,1.5416778434952843,-0.4851507645875651
1.5367289393263772,-1.7925845111649976,1.9608789950108187,-0.8650073734759491,1.545312736277205,-0.48355625590458595
1.5390613408760927,-1.7884173209720218,1.978869868108081,-0.9163189961023503,1.5486572667691134,-0.4840803518871709
1.5346373682480146,-1.7796263685312308,2.000624957606986,-0.965839212285494,1.5519712839648354,-0.4707441180193135
1.5309037247442507,-1.7690706257632356,2.017851782198224,-1.0154160950593303,1.5557812882890762,-0.4593958591864228
1.5269442832455213,-1.756439535911438,2.0352083857471968,-1.0685936366985835,1.5613063822037179,-0.4501650992953422
1.5230616963993029,-1.752010810673271,2.051816200335518,-1.1155283501651683,1.5678203378697655,-0.4321365008110139
1.521314193616659,-1.7437857541509738,2.0661837716460107,-1.165186970746511,1.5735935829664662,-0.4104323219758578
1.5188311929304137,-1.7374051239538644,2.082514689849923,-1.2164417243717693,1.5765755769358518,-0.39116850667511016
1.5257792487953121,-1.7248849205899364,2.0992778677138673,-1.26881709028837,1.5807780514070693,-0.3641895450573097
1.5284123592058292,-1.7094035896259985,2.118400420909851,-1.3157890045596785,1.5900286768774583,-0.3425355078804002
1.5205107258439645,-1.693986207750831,2.1366037551156625,-1.367101496590803,1.5914518902397095,-0.31442490855162986
1.5117355006699427,-1.6749737230287576,2.1528409659375636,-1.4183205926101863,1.5979653106766731,-0.28879534886082125
1.5028563070371699,-1.6581167674746116,2.163220228313501,-1.4653463041225123,1.6052141558907942,-0.25214138460420926
1.4963408398708058,-1.6387885981003973,2.178139221630986,-1.5150019158440697,1.606392563637202,-0.2291247761672695
1.4908345394816331,-1.6218810751556452,2.1873892211066837,-1.566256638220863,1.607620431291424,-0.18853151019130893
1.484994747122927,-1.6007160780148821,2.1995359753219623,-1.618631911178956,1.6100900740207809,-0.15373993445399942
1.4735038599308,-1.5748011282508725,2.2085935464277977,-1.6698280795572273,1.6119811720320822,-0.12365634012256761
1.4610566170746646,-1.5548052209514425,2.215985509820248,-1.7168547929751785,1.6121402235306523,-0.08455676918756047
1.4440672433805049,-1.5276755394905908,2.2246913319771235,-1.77057808665782,1.6120010263934033,-0.05510881149811674
1.4407493840002217,-1.4988968170463912,2.231824617504388,-1.8242560683050106,1.6110146750711605,-0.02572629709799956
1.4369290224189877,-1.473552407183238,2.2395436233732857,-1.875424175248443,1.610456757661184,0.0070870849065351686
1.4306804221308755,-1.4487745722098802,2.245713320488873,-1.9266462749171112,1.6110953375652455,0.03640773446094315
1.4213017910922598,-1.421159750142177,2.2479521026904448,-1.9761690376669732,1.6112406035837676,0.06998740700149442
1.411906876501085,-1.3901735280809973,2.248341110331428,-2.025745552829262,1.6094430488492542,0.0953581319920616
1.4030289855923483,-1.367393896093437,2.2488282670934314,-2.0753203756974674,1.6091830554669029,0.12673116267542167
1.3982755617863258,-1.331842934449266,2.2512990016068772,-2.126576699297357,1.6083151345664823,0.16042164289878735
1.3931180680156348,-1.3019124687130446,2.2540278571389463,-2.176098341097,1.6041338612379217,0.17992017602759544
1.3875080549322352,-1.2675387507257039,2.252216429994861,-2.229276137068453,1.6021239540392977,0.21517857612187444
1.3843554119606685,-1.2348513022149237,2.247359568614403,-2.282417559766319,1.5984841349753143,0.2361145269433972
1.3828832581023167,-1.2040997360140504,2.2406483672784234,-2.336099408874244,1.595389134284116,0.2550532326149294
1.3756868680550158,-1.1795366482036282,2.23495536284529,-2.3884390627752676,1.5953373341876416,0.2685584227845425
1.3722249386095293,-1.1532741435494969,2.233097256892001,-2.4356731592441747,1.5922965694391968,0.2807701069286499
1.368299384040013,-1.119432891095577,2.2224287195853134,-2.485242930848705,1.5898218041420278,0.28452352516898816
1.365363979441238,-1.0949827686909144,2.2119101523286546,-2.525651857485104,1.584261019514862,0.2765565879361808
1.362100356943446,-1.0739395759682102,2.202578041254652,-2.5585945090789872,1.5855342326974937,0.2786510040321646
1.3646094266511029,-1.0575476836920692,2.1893129213111395,-2.582356256325774,1.582356003213183,0.2850214549835098
1.3673380109848674,-1.0410041361283195,2.1811680845151074,-2.6137393015189825,1.5751311112936142,0.27998957438978905
1.3696951521678729,-1.0248660578361313,2.170029455102115,-2.6371637343026735,1.576377360069963,0.28141062174513054
1.36333792193425,-1.0142588417632281,2.16427654244795,-2.6559400590842817,1.5746735176345488,0.27330910852372925
1.3629807513164267,-1.013757339345278,2.1640158708970323,-2.656852288218773,1.574574620184486,0.27286114336604556
1.361606406988276,-0.9782532837383731,2.1445331455499086,-2.6934192857996817,1.5733656907745635,0.2534272832825931
1.3606671633352232,-0.9540882775181627,2.1312809617301465,-2.7182850310562054,1.5725435172650526,0.24021002966838498
1.360028837386795,-0.9376562587368842,2.12226892435336,-2.735193995919135,1.5719844144176054,0.23122167965894358
1.3595950551919227,-0.9264831076303093,2.1161406103079923,-2.7466921930832724,1.571604220903644,0.22510947211872956
1.359300266549652,-0.9188859050695846,2.111973331818281,-2.7545110111383515,1.5713456904823189,0.2209531733740313
1.3590999311649976,-0.9137202141643682,2.1091395815188596,-2.7598278298133994,1.5711698913944556,0.2181269176617137
1.3589637834734873,-0.910207834883835,2.107212634047666,-2.763443279520189,1.571050349176178,0.21620508841344818
1.3588712567895658,-0.9078196195860913,2.10590231186662,-2.7659017935343564,1.570969061183945,0.21489826175574797
1.358808374739438,-0.9061957728665071,2.105011293877217,-2.767573588483313,1.570913785760418,0.21400963064399645
1.3587656392570369,-0.9050916528307464,2.1044054020676977,-2.76871041269784,1.5708761986995967,0.21340536825714373
1.3587365955355557,-0.9043409166125965,2.1039933957038484,-2.769483455642194,1.5708506396207214,0.21299447392055165
1.358716856889672,-0.9038304605924689,2.103713231279842,-2.7700091265331444,1.5708332595119123,0.2127150682215627
1.3587034421040847,-0.9034833808921262,2.1035227193144506,-2.7703665838908598,1.5708214410716528,0.2125250738132829
1.3586943251166097,-0.903247387392197,2.1033931710101625,-2.7706096556798903,1.5708134045495072,0.21239587849589373
1.358688128990298,-0.9030869259007769,2.1033050780064864,-2.7707749450324357,1.5708079397230503,0.21230802621019948
1.3586839179387464,-0.9029778216754195,2.103245174626315,-2.7708873421577587,1.5708042236452275,0.21224828697667475
1.358681055986279,-0.9029036373279771,2.103204440210782,-2.770963772452338,1.5708016967142384,0.21220766449291092
1.3586793573806508,-0.8987747074017732,2.1027928153482454,-2.7747127198471873,1.5707999784005056,0.21218004134941323
1.3586778796373546,-0.8959643802755438,2.1025133123360824,-2.7772618992851297,1.5707988099463315,0.21216125769377062
1.3586768972053307,-0.8940535208655517,2.102323208104713,-2.7789953494166943,1.57079801539865,0.21214848485160168
1.3586762473473806,-0.8927542677195086,2.1021939073075853,-2.7801741017005734,1.5707974751060982,0.21213979934618016
1.3586758176883147,-0.8918708652934414,2.1021059622328138,-2.780975657369356,1.5707971077070406,0.2121338932195731
1.358675533762298,-0.8912702127106119,2.102046145527057,-2.78152071798737,1.5707968578755998,0.2121298770642083
1.3586753462554015,-0.8908618104923567,2.102005460563112,-2.781891361074696,1.5707966879901702,0.21212714608531294
1.358675222511933,-0.8905841252276425,2.101977788233019,-2.78214339963943,1.5707965724680515,0.21212528902392372
1.3586751409124151,-0.8903953184471549,2.1019589665787906,-2.782314786722175,1.5707964939129997,0.21212402622487112
1.3586750871493902,-0.8902669428854897,2.1019461648074187,-2.7824313305215567,1.5707964404955608,0.21212316752321944
1.3586750517591801,-0.8901796563710457,2.1019374575270384,-2.7825105807011847,1.570796404171707,0.21212258360717565
1.3586752733835035,-0.8860272871729988,2.101492266202333,-2.7862206299157477,1.570796379472325,0.2121221865405754
1.358675103296477,-0.8832010166355365,2.101189926415233,-2.7887433586453496,1.5707963626753427,0.21212191653650397
1.358675009843189,-0.8812793168343511,2.1009842934287204,-2.790458822325338,1.5707963512545362,0.21212173293386105
1.358674964309725,-0.879972693093902,2.1008444333111713,-2.7916253438500314,1.5707963434882952,0.21212160808417804
1.3586749454672,-0.8790842792620841,2.1007493080636515,-2.792418582622219,1.5707963382071788,0.21212152318647887
1.3586749408125838,-0.8784802193307844,2.1006846089570894,-2.7929579877639674,1.5707963346159806,0.2121214654561031
1.3586749431541632,-0.8780695003917861,2.100640604043421,-2.79332478513647,1.5707963321739467,0.21212142619948843
1.358674948470512,-0.877790239943629,2.1006106742067088,-2.793574208621154,1.5707963305133568,0.21212139950501763
1.3586749546073054,-0.8776003621641761,2.100590317490589,-2.793743817453461,1.5707963293841554,0.21212138135279673
1.358674960489165,-0.8774712584077264,2.100576471908025,-2.793859152045175,1.5707963286163003,0.21212136900929732
1.3586749656473622,-0.8773834767774488,2.100567054858596,-2.7939375799653052,1.5707963280941633,0.2121213606157267
1.3586752130810018,-0.8732173988170069,2.1000661709112944,-2.797605228175346,1.5707963277396437,0.2121213549060711
1.3586750628176636,-0.8703818011784845,2.0997259494587643,-2.800099124144834,1.5707963274971297,0.21212135102360663
1.3586749827081546,-0.8684537593305398,2.099494557778026,-2.801794981507868,1.5707963273333698,0.21212134838349658
1.358674946126945,-0.867142823365803,2.0993371823768974,-2.8029481707265833,1.5707963272219176,0.21212134658821893
1.3586749332872368,-0.8662514774824239,2.0992301471665047,-2.803732343527569,1.5707963271460539,0.21212134536742927
1.3586749326562038,-0.8656454239376846,2.0991573495779146,-2.8042655838080313,1.5707963270944256,0.21212134453729362
1.358674937693885,-0.8652333494668115,2.099107837895558,-2.8046281890746787,1.5707963270592948,0.21212134397280094
1.3586749448163524,-0.8649531673428761,2.0990741635915535,-2.804874761927392,1.5707963270353966,0.2121213435889468
1.3586749521627954,-0.86476266288256,2.099051260729822,-2.805042432330008,1.57079632701914,0.212121343327926
1.358674958854665,-0.8646331330230924,2.0990356838309836,-2.805156448789574,1.5707963270080882,0.21212134315043193
1.358674964555175,-0.8645450616699342,2.099025089529234,-2.805233980379872,1.5707963270005734,0.21212134302973604
1.3586752104650388,-0.8603665586772966,2.098468343217472,-2.808858181035845,1.5707963269960357,0.21212134294554133
1.3586750616115597,-0.8575225072832149,2.0980901247962946,-2.811322532589378,1.5707963269914946,0.2121213428883277
1.3586749823125537,-0.8555887172369505,2.097832896020198,-2.812998299708926,1.570796326989562,0.21212134284939638
1.3586749461510654,-0.8542738728444986,2.097657952023711,-2.8141378275512525,1.570796326988152,0.21212134282292458
1.358674933505151,-0.853379869477437,2.097538970598605,-2.8149127106129583,1.570796326987117,0.2121213428049246
1.3586749329427446,-0.8527720090162161,2.0974580498764825,-2.815439633869734,1.5707963269863696,0.21212134279268513
1.3586749379837648,-0.85235870596129,2.0974030146619476,-2.8157979435600393,1.5707963269858387,0.21212134278436262
1.358674945078873,-0.8520776884820729,2.0973655844909236,-2.8160415954208253,1.5707963269854666,0.21212134277870348
1.3586749523864936,-0.8518866160362151,2.0973401277311985,-2.8162072795489688,1.5707963269852108,0.21212134277485536
1.3586749590381886,-0.851756699984855,2.0973228142439257,-2.8163199453419363,1.5707963269850347,0.21212134277223868
1.358674964702004,-0.8516683660473012,2.097311039104296,-2.8163965584789836,1.5707963269849181,0.21212134277045935
1.3586752085650422,-0.847478584288838,2.096698591138476,-2.819976331652102,1.5707963269853888,0.21212134276732658
1.3586750609330849,-0.8446268590131095,2.096282485152054,-2.822410472437758,1.5707963269842433,0.21212134276523004
1.3586749823049704,-0.8426878510648139,2.0959994936749378,-2.8240656961948423,1.5707963269846255,0.2121213427637793
1.3586749464588328,-0.8413694588311487,2.095807031669243,-2.8251912545399276,1.5707963269847904,0.21212134276279426
1.3586749339293287,-0.8404730431688362,2.0956761384265503,-2.825956638340197,1.5707963269848266,0.21212134276212566
1.3586749333785735,-0.839863542512124,2.0955871179599233,-2.826477102098227,1.5707963269848073,0.2121213427616717
1.358674938381231,-0.8394491242385537,2.0955265751170415,-2.826831019329154,1.5707963269847716,0.21212134276136335
1.358674945418608,-0.8391673484892209,2.095485399893107,-2.827071684317549,1.5707963269847367,0.21212134276115388
1.3586749526653785,-0.8389757604734898,2.095457396588635,-2.827235337372508,1.5707963269847078,0.21212134276101155
1.3586749592609801,-0.8388454938713645,2.0954383515128883,-2.827346622035756,1.5707963269846879,0.2121213427609148
1.3586749648766363,-0.8387569215843527,2.0954253989351748,-2.8274222960046305,1.5707963269846752,0.212121342760849
1.3586752065602141,-0.834556987165673,2.0947574294018034,-2.830956695544599,1.5707963269852476,0.2121213427591961
1.3586750602223259,-0.8316983541660707,2.0943035584349285,-2.8333599821800113,1.5707963269841645,0.21212134275810468
1.3586749823033257,-0.8297546492852388,2.0939948876142105,-2.834994225075022,1.570796326984593,0.2121213427573378
1.358674946789461,-0.8284330634547639,2.0937849642801805,-2.8361055164232054,1.5707963269847887,0.21212134275681785
1.3586749343817295,-0.8275344763730377,2.093642197761352,-2.8368611986622874,1.5707963269848448,0.21212134275646552
1.3586749338421154,-0.8269234993092756,2.093545103757359,-2.837375065357748,1.5707963269848404,0.21212134275622663
1.358674938803246,-0.826508077188318,2.0934790711062785,-2.8377244965858948,1.5707963269848138,0.21212134275606456
1.3586749457788285,-0.8262256188979966,2.093434162946662,-2.837962111092385,1.570796326984785,0.21212134275595457
1.3586749529606905,-0.8260335668059248,2.0934036213368374,-2.8381236898196884,1.5707963269847618,0.21212134275587985
1.3586749594965606,-0.8259029846670916,2.0933828502751894,-2.838233563940175,1.5707963269847454,0.21212134275582908
1.3586749650609837,-0.8258141978391326,2.0933687240689967,-2.8383082787400067,1.5707963269847365,0.21212134275579456
1.3586752044421277,-0.8216052166864501,2.092645427443284,-2.8417963929914216,1.5707963269852667,0.21212134275420866
1.3586750594724533,-0.8187404283913907,2.0921539238701863,-2.8441682055509254,1.570796326984145,0.21212134275316236
1.3586749823022046,-0.8167925382118161,2.091819663719607,-2.84578104603488,1.5707963269845533,0.21212134275242642
1.358674947138778,-0.8154681066808385,2.091592340264052,-2.8468777837329418,1.5707963269847358,0.2121213427519275
1.3586749348592202,-0.814567584738949,2.091437742087925,-2.8476235694866734,1.5707963269847827,0.21212134275158948
1.3586749343310776,-0.8139552921213781,2.0913326028461574,-2.8481307065711388,1.5707963269847713,0.2121213427513603
1.358674939248182,-0.8135389755284126,2.0912610996297825,-2.848475561663578,1.5707963269847403,0.21212134275120484
1.3586749461584264,-0.8132559090690548,2.091212471619107,-2.8487100643977703,1.570796326984707,0.2121213427510993
1.358674953271717,-0.8130634434713169,2.0911794006011046,-2.848869527119948,1.5707963269846812,0.21212134275102765
1.3586749597445162,-0.8129325801823104,2.0911569096033866,-2.8489779623569915,1.5707963269846648,0.21212134275097896
1.3443192822056031,-0.8315839704548552,2.0747720893648314,-2.8417337742239988,1.5692529154366603,0.21365791612152052
1.3348864982280502,-0.8502231717782543,2.058003005996351,-2.833790197137857,1.5713603605124058,0.21498091915748793
1.3246815059349768,-0.8673430035851134,2.0458864197573137,-2.8247987794631264,1.5719929383375344,0.2121511330290016
1.3232014380172306,-0.8852205155331382,2.0396401547576173,-2.8183808314045287,1.5701979450518144,0.2164584389185618
1.319628118101358,-0.8911532942421515,2.0330661514418003,-2.8144469254394395,1.5705423980510904,0.21709528592772911
1.3143244995035521,-0.8930898414393454,2.0291553254135057,-2.8180110969832057,1.5725065904963134,0.21677830276571838
1.3092867275490774,-0.8981922224667621,2.0234609373617767,-2.8144372736187293,1.5726152149213466,0.21723500747172356
1.3096945598855338,-0.8965979682301847,2.018046088463149,-2.8146010320158013,1.574965217989853,0.21972578135729046
1.304629875126622,-0.9060463593681981,2.014368015148922,-2.807594826503236,1.579214642548754,0.22791342592824979
1.3035684686176288,-0.9084981594399374,2.0119132881468715,-2.794531096198906,1.5793294065983812,0.22765423217572603
1.3035409120871806,-0.9085661178443462,2.0118340969433754,-2.7940858550895267,1.5793253461139587,0.22762951360906208
1.299657055303857,-0.9068510427452762,2.041443691888549,-2.7870058849422525,1.576597064162585,0.24418827962681727
1.2970150263766007,-0.9056779829168712,2.061587829172404,-2.7821894228558444,1.5747410160268238,0.25545329555973045
1.2952185651993573,-0.9048809912557073,2.0752857667320397,-2.7789138053166456,1.573478700766326,0.263114614580951
1.2939970396533444,-0.9043395012286114,2.0846000576591535,-2.7766862714540386,1.5726202964214313,0.268324454432187
1.2931664410065624,-0.9039715841425542,2.0909334984037597,-2.7751715243281194,1.5720365904255833,0.27186709399044623
1.2926016567426135,-0.903721592537228,2.09524002840199,-2.774141496431944,1.5716396831411776,0.27427602561524744
1.2922176173190127,-0.9035517244154728,2.09816831960185,-2.7734410826443274,1.571369795615252,0.27591405607564795
1.2919564791744684,-0.9034362977977067,2.1001594541474975,-2.772964806328076,1.5711862779857826,0.2770278919721417
1.29177891075739,-0.9033578636052556,2.1015133546821523,-2.7726409423234117,1.5710614894280095,0.2777852872052175
1.2916581678062502,-0.903304565867736,2.102433958630771,-2.7724207175689957,1.5709766351380117,0.27830030936312217
1.2915760649357553,-0.9032683486536984,2.1030599363563027,-2.7722709666468925,1.5709189352845911,0.27865052130861195
1.2915202365223422,-0.9032437379727227,2.103485578794558,-2.772169137321593,1.570879699963591,0.27888866406394197
1.2914822742185048,-0.9032270142018194,2.1037750004153675,-2.772099894262046,1.5708530202580502,0.2790506006139933
1.291456460525698,-0.903215649798792,2.1039717967617064,-2.772052809577071,1.5708348782258894,0.27916071732670766
1.2914389076608117,-0.9032079272461493,2.104105611239631,-2.772020792392903,1.570822541733221,0.27923559670697795
1.2914272187724085,-0.8991198355262372,2.1038123878379,-2.7757000638490537,1.5708141529680517,0.2792865147851957
1.291418946738073,-0.8963372766351967,2.1036133944955844,-2.778201863863817,1.5708084486267162,0.27932113917545576
1.2914133438456847,-0.8944452993892436,2.1034780347509434,-2.779903096101742,1.5708045696892137,0.27934468382221245
1.291409551851885,-0.8931588858911416,2.103385958786733,-2.7810599402697185,1.5708019320184812,0.2793606942311575
1.291406985392439,-0.8922842142394332,2.1033233256403667,-2.781846598445391,1.5708001384057289,0.2793715813461108
1.2914052483433187,-0.8916894984378203,2.103280720401636,-2.782381528781816,1.5707989187506763,0.27937898461081
1.291404072646473,-0.8912851331207051,2.103251738803064,-2.7827452832852932,1.5707980893859996,0.27938401884937164
1.2914032768893655,-0.8910101928665384,2.103232024472097,-2.7829926376172796,1.5707975254183562,0.2793874421443361
1.2914027382906847,-0.8908232526321276,2.1032186140640343,-2.7831608394240845,1.5707971419204985,0.27938976999353304
1.2914023737481382,-0.8906961462764279,2.103209491811358,-2.7832752172370054,1.5707968811420068,0.27939135293675593
1.2914021270143579,-0.8906097227882859,2.103203286518287,-2.7833529945463416,1.5707967038126485,0.2793924293419751
1.2914022052603775,-0.8864536079871822,2.1027594690406075,-2.78706604677658,1.5707965832284527,0.27939316128958996
1.2914019372260621,-0.8836247900341283,2.1024580625193443,-2.789590817568495,1.570796501229416,0.2793936590175539
1.291401777194531,-0.8817013579826246,2.1022530641685213,-2.791307669854462,1.5707964454712715,0.27939399747330435
1.2914016864093019,-0.8803935563018123,2.1021136356259693,-2.7924751356322286,1.5707964075556684,0.2793942276237594
1.2914016368100867,-0.8795043414628868,2.102018803865513,-2.793269016496644,1.570796381772998,0.2793943841264533
1.291401611250753,-0.8788997368408686,2.101954304341499,-2.79380885826098,1.5707963642407514,0.27939449054854865
1.2914015993838117,-0.8784886475076161,2.1019104351520435,-2.794175952536649,1.5707963523188089,0.2793945629157516
1.2914015950429258,-0.878209135187794,2.1018805976135946,-2.794425577915294,1.5707963442118833,0.2793946121255683
1.2914015946159183,-0.8780190861328109,2.1018603036644867,-2.79459532403532,1.5707963386991746,0.279394645588322
1.2914015960365297,-0.8778898659068084,2.1018465007665452,-2.794710751982534,1.5707963349505378,0.27939466834304605
1.2914015981625462,-0.8778020050755053,2.1018371127449003,-2.794789243384277,1.5707963324014695,0.2793946838162917
1.291401844029725,-0.8736315652888894,2.101335881351286,-2.7984608750930775,1.5707963306671442,0.27939469417848073
1.2914016922636633,-0.8707930012393805,2.100995422697784,-2.8009574798511183,1.5707963294863287,0.2793947012249793
1.2914016111626756,-0.8688629422343375,2.100763869761349,-2.8026551791930485,1.570796328684532,0.279394706016555
1.2914015739315226,-0.8675506346012322,2.10060638474642,-2.80380962095827,1.570796328139218,0.27939470927482035
1.2914015606661893,-0.8666583559827349,2.1004992750259404,-2.8045946454911226,1.5707963277683314,0.2793947114904386
1.2914015597567505,-0.8660516681778384,2.100426426788983,-2.8051284649493087,1.570796327516087,0.2793947129970597
1.2914015646125727,-0.8656391624099017,2.1003768806782794,-2.8054914640568085,1.5707963273445396,0.27939471402156296
1.2914015716164358,-0.8653586870038438,2.100343182971519,-2.805738304721287,1.5707963272278782,0.2793947147182256
1.291401578885668,-0.8651679831115893,2.100320264201706,-2.805906157235887,1.570796327148546,0.27939471519195697
1.291401585527375,-0.8650383176383198,2.1003046764893147,-2.806020297531588,1.5707963270946002,0.27939471551409534
1.2914015911953711,-0.8649501540677008,2.100294074837036,-2.806097913330445,1.5707963270579186,0.27939471573314956
1.2914018372529548,-0.8607673095586255,2.0997369182946324,-2.809726044342836,1.570796327035024,0.2793947160377304
1.2914016880696975,-0.8579203055757769,2.0993584199647377,-2.8121930685478467,1.5707963270179992,0.2793947162448931
1.2914016085763873,-0.855984507771888,2.099101000892794,-2.813870653072998,1.570796327007577,0.27939471638573654
1.2914015723066619,-0.8546682981030485,2.098925927536009,-2.8150114167520006,1.570796327000396,0.2793947164815093
1.2914015596032222,-0.8537733663477421,2.0988068581737065,-2.8157871401829193,1.5707963269954357,0.27939471654663695
1.2914015590125347,-0.853164874582517,2.0987258776730915,-2.816314634890845,1.57079632699202,0.27939471659092385
1.2914015640416554,-0.8527511422409503,2.098670801821905,-2.8166733331679596,1.5707963269896752,0.27939471662103915
1.2914015711336435,-0.8524698328469017,2.0986333440265725,-2.8169172492677825,1.5707963269880694,0.2793947166415177
1.2914015784425206,-0.8522785618990332,2.098607868488156,-2.8170831130784735,1.5707963269869745,0.2793947166554432
1.2914015850973681,-0.852148510866356,2.0985905422353297,-2.8171959010555754,1.5707963269862277,0.27939471666491256
1.291401590764894,-0.8520600851415442,2.0985787584178066,-2.817272597277833,1.570796326985724,0.27939471667135174
1.2914018349543264,-0.8478659944086774,2.0979658605371676,-2.8208562289987613,1.5707963269859158,0.2793947166739363
1.2914016871219476,-0.8450113386844819,2.097549447642609,-2.8232929936057056,1.570796326984581,0.27939471667572824
1.2914016083869795,-0.8430703380335673,2.097266247511232,-2.824950001563737,1.570796326984834,0.2793947166769205
1.2914015724916408,-0.8417505907606497,2.0970736436624176,-2.8260767731663017,1.570796326984911,0.27939471667773386
1.291401559944459,-0.8408532536711719,2.0969426539948333,-2.82684298198192,1.5707963269848868,0.27939471667828775
1.291401559392317,-0.8402431264438842,2.0968535679785036,-2.827364006750472,1.5707963269848277,0.27939471667866506
1.2914015644012233,-0.8398282821023394,2.0967929805748344,-2.827718305468583,1.570796326984764,0.27939471667892196
1.2914015714477258,-0.8395462166268308,2.096751775058373,-2.8279592298682728,1.5707963269847092,0.2793947166790969
1.2914015787040152,-0.8393544315973441,2.096723751160949,-2.8281230593229156,1.5707963269846694,0.2793947166792159
1.2914015853083458,-0.8392240310259007,2.096704692086039,-2.8282344639379517,1.5707963269846412,0.2793947166792969
1.2914015909314736,-0.8391353676397871,2.0966917299916346,-2.8283102194740426,1.5707963269846232,0.27939471667935195
1.2914018329380923,-0.8349311605322305,2.096023272449314,-2.8318484031687423,1.5707963269852003,0.2793947166774449
1.2914016864057043,-0.8320696217712515,2.095569068656626,-2.8342542630378063,1.5707963269841183,0.2793947166761809
1.2914016083833428,-0.830123940974515,2.095260171558842,-2.8358902557340437,1.5707963269845497,0.27939471667529653
1.2914015728222037,-0.8288010115193867,2.0950500943991037,-2.8370027369478548,1.570796326984748,0.27939471667469673
1.291401560397796,-0.8279015107721802,2.094907223307859,-2.8377592282958153,1.570796326984805,0.27939471667429006
1.2914015598572648,-0.8272899124156254,2.0948100582142835,-2.838273645185394,1.5707963269848009,0.2793947166740142
1.2914015648248194,-0.8268740678154768,2.094743977235595,-2.8386234505455707,1.5707963269847751,0.27939471667382704
1.2914015718095495,-0.8265913222392753,2.0946990362222144,-2.8388613194618504,1.5707963269847462,0.27939471667369997
1.291401579000878,-0.8263990747928026,2.094668472277936,-2.839023071187814,1.5707963269847238,0.27939471667361365
1.2914015855453969,-0.8262683598129841,2.0946476860329963,-2.839133062947392,1.5707963269847063,0.279394716673555
1.2914015911172068,-0.826179482653165,2.094633549504969,-2.839207857741807,1.570796326984697,0.2793947166735151
1.2914018308140462,-0.8219662684597094,2.093909727642474,-2.8426996792515293,1.5707963269852696,0.2793947166723803
1.2914016856534496,-0.8190986013781203,2.0934178659153577,-2.845074012754771,1.5707963269841767,0.2793947166716408
1.2914016083817115,-0.8171487536249691,2.0930833622657494,-2.8466885674826825,1.570796326984605,0.27939471667111343
1.2914015731718145,-0.815822990941702,2.0928558732744618,-2.8477864708673906,1.5707963269848009,0.2793947166707564
1.2914015608758043,-0.8149215638152603,2.092701162563734,-2.8485330492882817,1.5707963269848566,0.2793947166705148
1.2914015603466773,-0.8143086556717365,2.0925959468185322,-2.8490407253864944,1.5707963269848513,0.2793947166703512
1.2914015652700102,-0.8138919205209043,2.092524391593425,-2.8493859470083076,1.570796326984824,0.27939471667024035
1.2914015721891665,-0.8136085694420871,2.092475728226024,-2.8496206989824833,1.5707963269847944,0.27939471667016513
1.291401579311695,-0.8134159103030566,2.0924426331716903,-2.8497803311878545,1.570796326984771,0.2793947166701141
1.2914015857929384,-0.8132849154059345,2.092420125833497,-2.849888881673472,1.5707963269847545,0.2793947166700794
1.2843377244665235,-0.8356567501831859,2.0709141130336715,-2.837881820182551,1.5728922742136984,0.28924082317028854
1.277287520642348,-0.8582592521262339,2.0606429453635,-2.834959978683104,1.574182938900025,0.28482314623578325
1.271580177341949,-0.8666790557386762,2.0546078839351543,-2.829658558419142,1.577835328449176,0.28879656585608243
1.2627064074398933,-0.8791341366434214,2.0447411970206053,-2.8171028217239913,1.579091958409064,0.29565733811223716
1.254932492997351,-0.8895333616981506,2.038150519702178,-2.8092313389434063,1.5796694240603415,0.2944457332389106
1.2518287824912013,-0.8916120771750656,2.0326219408816466,-2.8088664536740233,1.5819056122236486,0.29506905410536033
1.2492676493462846,-0.8971803962337813,2.028017077985518,-2.8084604714450543,1.5822846529093155,0.29497610603641694
1.2445647644532676,-0.8977171505397389,2.0255993962065997,-2.794925355940451,1.583252141356962,0.2856620664580381
1.2445191189623201,-0.8977150659702023,2.0255792657720817,-2.7947868969469245,1.5832624271867075,0.28556684676355304
1.2396242738772523,-0.8989010907540522,2.0491717302498,-2.7864288536759916,1.5792742344206834,0.30348586203015515
1.2362941143278672,-0.8997039942561831,2.065221072249521,-2.780743934147474,1.5765614863300237,0.31567440232773053
1.2340297610210382,-0.9002503771596964,2.0761343796242953,-2.776877888461783,1.5747166230107514,0.3239634152473064
1.2324901025239303,-0.900622188629315,2.0835551418229197,-2.7742488964673195,1.573462086592042,0.3296000526241305
1.2314431976891362,-0.9008751943469607,2.0886010358056324,-2.7724611648452337,1.5726090099601235,0.333432930978045
1.2307313422098092,-0.9010473516178558,2.0920320822159497,-2.771245507470241,1.572028929825902,0.33603924296033355
1.2302473061418573,-0.9011644933904152,2.094365081237868,-2.770418864126218,1.5716344841972312,0.3378115037495897
1.2299181783915312,-0.9012441996076762,2.0959514432567183,-2.7698567502193425,1.5713662667091421,0.33901662272937094
1.2296943826041387,-0.9012984331922541,2.097030116646115,-2.7694745154945126,1.5711838820420287,0.3398360937148094
1.2295422088437116,-0.901335334457177,2.097763578617494,-2.7692145978186886,1.5710598622789842,0.340393328896657
1.229438735618191,-0.9013604424360045,2.098262308325862,-2.7690378551316726,1.5709755298357497,0.34077224632887093
1.2293683771326915,-0.9013775260700524,2.098601427923972,-2.7689176710097922,1.5709181843145004,0.3410299090276123
1.229320535585194,-0.9013891498405194,2.0988320179694315,-2.7688359464187893,1.5708791896501233,0.3412051191691717
1.2292880048274692,-0.9013970586691523,2.0989888115357607,-2.768780374109615,1.570852673432711,0.34132426188511483
1.2292658849171745,-0.9014024398264756,2.0990954259535104,-2.7687425852174976,1.57083464248624,0.341405278890834
1.2292510894225352,-0.8973405413237879,2.0987848440918886,-2.7724017856168333,1.5708223814881925,0.34146037048931993
1.2292407070151772,-0.8945757945439718,2.09857405136802,-2.7748899371583557,1.570814044025152,0.3414978328267214
1.2292336691096197,-0.8926959288654784,2.098430668454356,-2.7765818883617803,1.5708083745632206,0.3415233072448803
1.229228901321589,-0.8914177507984166,2.0983331369720615,-2.7777324213897816,1.5708045193348144,0.3415406298746189
1.229225671334154,-0.8905486789484026,2.0982667942361313,-2.778514787969977,1.5708018977821536,0.34155240928294345
1.2292234830953357,-0.8899577708174652,2.098221666588062,-2.7790468000093473,1.5708001151275104,0.34156041929555175
1.229222000596401,-0.8895559945871458,2.0981909698273644,-2.779408570063283,1.5707989029228087,0.3415658661148191
1.2292209962188578,-0.8892828148264563,2.0981700892381254,-2.77965457496481,1.5707980786237445,0.3415695699593746
1.2292203157618318,-0.8890970716712794,2.098155885809833,-2.7798218591558777,1.5707975181003826,0.3415720885787706
1.2292198547581181,-0.8889707792926065,2.098146224327482,-2.779935612988195,1.5707971369444536,0.3415738012434029
1.2292195424325105,-0.8888849092849317,2.0981396523746128,-2.780012965989539,1.5707968777583707,0.3415749658576505
1.2292195746980357,-0.8847463697507487,2.0976968815376416,-2.783709828486257,1.5707967015116866,0.3415757577905723
1.2292192772052337,-0.8819295044528757,2.0973961904139666,-2.7862235902194215,1.5707965816620872,0.3415762963076451
1.2292190970174182,-0.8800142001876319,2.097191678383836,-2.787932956333532,1.5707965001655408,0.34157666249960794
1.2292189924264296,-0.8787119254012309,2.0970525803897497,-2.7890953315104645,1.570796444747812,0.341576911510434
1.2292189333724082,-0.8778264688487487,2.096957973300626,-2.7898857507650483,1.570796407063686,0.341577080838011
1.2292189013387995,-0.8772244198598025,2.0968936264844826,-2.7904232386343097,1.5707963814384398,0.3415771959809166
1.2292188850389905,-0.8768150683558084,2.096849861089975,-2.7907887322612246,1.5707963640132534,0.34157727427819895
1.2292188776632391,-0.876536737759118,2.0968200941006896,-2.7910372691987084,1.5707963521641173,0.3415773275204217
1.2292188751586435,-0.8763474922754363,2.096799848103747,-2.791206275178768,1.5707963441067017,0.3415773637251814
1.2292188751571023,-0.8762188184777188,2.096786077798871,-2.7913211998308345,1.570796338627661,0.34157738834444995
1.2292188763096956,-0.8761313292175966,2.0967767119307488,-2.79139934899191,1.5707963349019165,0.3415774050855728
1.2292191199958378,-0.8719782414958855,2.0962769491178643,-2.7950551039248994,1.570796332368966,0.3415774164677719
1.2292189685235233,-0.869151478296043,2.0959374928291763,-2.797540912437991,1.5707963306450883,0.34157742420785114
1.2292188874970018,-0.8672294438572011,2.0957066213384086,-2.7992312703225384,1.5707963294740033,0.34157742947106184
1.2292188502167285,-0.8659225929336152,2.0955495995477667,-2.8003807198931527,1.5707963286775746,0.34157743305003907
1.2292188368509147,-0.8650340248786591,2.095442804711875,-2.8011623497325453,1.5707963281359294,0.3415774354837403
1.2292188358280074,-0.8644298602568852,2.0953701705234993,-2.8016938607988253,1.5707963277675687,0.3415774371386576
1.2292188405762134,-0.8640190702531105,2.0953207699165,-2.8020552901997187,1.5707963275170629,0.3415774382640017
1.2292188474863124,-0.8637397615663251,2.0952871711188656,-2.802301063463671,1.5707963273467087,0.34157743902923704
1.2292188546778564,-0.8635498510428863,2.0952643195846425,-2.802468190145905,1.5707963272308654,0.3415774395495962
1.229218861257306,-0.8634207250601952,2.09524877757713,-2.802581836875595,1.5707963271520915,0.34157743990344136
1.2292188668765829,-0.8633329283430118,2.0952382069937863,-2.802659117049567,1.5707963270985275,0.3415774401440562
1.2292191117247313,-0.8591673182886178,2.0946826787427835,-2.8062716439197177,1.5707963270626801,0.34157744030543324
1.2292189634670683,-0.8563320351391726,2.094305291437851,-2.8087280572719258,1.57079632703685,0.34157744041521526
1.2292188844796805,-0.8544042074918465,2.09404862769553,-2.8103984264068598,1.5707963270204395,0.34157744048983973
1.2292188484557494,-0.8530934175349055,2.093874067800346,-2.8115342836170663,1.5707963270091845,0.3415774405405848
1.2292188358534242,-0.8522021711853289,2.0937553474813853,-2.81230667064811,1.5707963270014553,0.3415774405750918
1.229218835287076,-0.8515961854962607,2.0936746042555074,-2.8128318966037695,1.5707963269961573,0.341577440598558
1.2292188403027844,-0.8511841572863323,2.093619689700584,-2.8131890521292267,1.5707963269925311,0.341577440614515
1.2292188473654047,-0.8509040067015685,2.0935823415524837,-2.8134319191578823,1.5707963269900547,0.3415774406253659
1.229218854640613,-0.8507135237437903,2.0935569405510006,-2.8135970696001644,1.5707963269883665,0.3415774406327446
1.229218861263293,-0.8505840085441959,2.093539664967581,-2.813709372486741,1.5707963269872187,0.34157744063776213
1.229218866902667,-0.8504959471857444,2.093527915594609,-2.8137857388474377,1.5707963269864396,0.34157744064117407
1.2292191097600178,-0.8463189613000992,2.0929168005629375,-2.817354050593857,1.5707963269864575,0.341577440641646
1.2292189627392216,-0.8434759382301021,2.0925016038483633,-2.819780397583403,1.5707963269850087,0.341577440642001
1.2292188844346157,-0.8415428477756821,2.092219230547161,-2.821430321551811,1.5707963269851828,0.34157744064221723
1.2292188487353473,-0.8402284794430706,2.0920271887766324,-2.8225522760381327,1.5707963269852045,0.3415774406423656
1.229218836256611,-0.8393348000354615,2.0918965812091717,-2.82331520921366,1.5707963269851444,0.3415774406424677
1.2292188357073777,-0.8387271600326489,2.091807754944434,-2.8238340065466128,1.5707963269850593,0.3415774406425378
1.2292188406888342,-0.8383140070039581,2.091747344120088,-2.8241867906084033,1.5707963269849787,0.34157744064258583
1.2292188476967896,-0.8380330916211933,2.0917062586425237,-2.8244266850417556,1.570796326984913,0.3415774406426187
1.2292188549134184,-0.8378420886547153,2.0916783163478083,-2.8245898141192725,1.570796326984864,0.34157744064264023
1.2292188614816753,-0.8377122198860482,2.091659312746654,-2.8247007424778547,1.5707963269848313,0.34157744064265605
1.22921886707411,-0.8376239181257548,2.0916463883635013,-2.8247761741595516,1.5707963269848095,0.3415774406426666
1.2292191077714274,-0.8334366723937825,2.0909798645884874,-2.8282993323484704,1.570796326985338,0.3415774406407848
1.2292189620339835,-0.8305866686751919,2.09052697965456,-2.830694974840226,1.5707963269842269,0.34157744063953766
1.229218884432747,-0.8286488317009476,2.0902189792036765,-2.8323240197106143,1.5707963269846341,0.34157744063866496
1.2292188490631402,-0.8273312360532685,2.0900095115939403,-2.8334317763997054,1.5707963269848173,0.34157744063807305
1.2292188367052932,-0.8264353622985642,2.0898670548810507,-2.834185055069858,1.570796326984865,0.34157744063767176
1.2292188361672118,-0.8258262302983649,2.089770171486524,-2.8346972873382037,1.5707963269848537,0.3415774406373996
1.2292188411075673,-0.8254120628211838,2.0897042820102434,-2.8350456071558328,1.5707963269848233,0.34157744063721485
1.2292188480543043,-0.8251304576888983,2.0896594711826477,-2.8352824659031413,1.5707963269847918,0.34157744063708945
1.2292188552066101,-0.8249389857444264,2.0896289957404113,-2.8354435307141883,1.570796326984766,0.34157744063700424
1.2292188617156674,-0.8248087981060326,2.0896082696604,-2.835553055371614,1.5707963269847476,0.34157744063694634
1.2292188672573212,-0.8247202795384002,2.0895941740333663,-2.835627532536563,1.570796326984736,0.341577440636907
1.2292191056715849,-0.8205238699508453,2.0888724334810886,-2.839104632935492,1.5707963269852847,0.3415774406355678
1.229218961290507,-0.81766763125236,2.088381990994698,-2.841468956051375,1.57079632698418,0.3415774406346891
1.2292188844315854,-0.8157255547956456,2.088048452246898,-2.8430767037071125,1.5707963269845961,0.34157744063406725
1.2292188494093985,-0.8144050766037737,2.0878216192153296,-2.8441699782797505,1.5707963269847842,0.3415774406336459
1.2292188371786077,-0.8135072429360279,2.0876673544390547,-2.844913409107484,1.5707963269848344,0.34157744063336065
1.2292188366518777,-0.812896778346612,2.0875624418493266,-2.8454189448420397,1.5707963269848249,0.3415774406331673
1.2292188415485632,-0.8124817048137166,2.08749109271582,-2.8457627110164623,1.5707963269847973,0.34157744063303624
1.2292188484305016,-0.8121994836357267,2.0874425694540535,-2.845996473286375,1.5707963269847662,0.3415774406329473
1.2292188555148071,-0.8120075928296224,2.087409569646715,-2.84615543249283,1.570796326984742,0.3415774406328869
1.2292188619613202,-0.8118771203991086,2.0873871270596474,-2.8462635253391757,1.5707963269847245,0.3415774406328459
1.1851340133602108,-0.8292785468423335,2.0683046869722355,-2.8432016070152093,1.568038130228153,0.2879055316897629
1.1493846026652188,-0.8458806403089721,2.05112038921025,-2.841859194639876,1.5649937072325835,0.23422574276857575
1.1204307484916092,-0.8611920459455077,2.034654372990128,-2.8385882506905222,1.559277738438457,0.1818846309901053
1.0947469528642566,-0.8822484411675598,2.028660067210566,-2.8422323931175817,1.5467538546168607,0.12952390137630754
1.0699319918778318,-0.89789306822417,2.0166285888909847,-2.8392207722848353,1.534531939551584,0.07583519518595132
1.0446834583272078,-0.9136869181925621,2.0065414952164002,-2.8410100275734047,1.5201802545596372,0.022697295237699602
1.0197633717071197,-0.9299530956298739,1.9981155840384663,-2.8450552982938064,1.5046840799741577,-0.029651626575899367
0.9946427075936101,-0.9406702121707918,1.9925299896155666,-2.8452759878903433,1.4831044119939676,-0.08280277122634361
0.9769105516705439,-0.9599305170698916,1.9807362173890661,-2.8438667164362483,1.4661272588622147,-0.13515163547557607
0.9604820166075893,-0.9646278069646151,1.9748749875560083,-2.8490054612060254,1.4501324679431888,-0.18751227534220438
0.9445090960991483,-0.9773569322017382,1.9675273683285202,-2.8558674224349994,1.4318655444870116,-0.23871004355965686
0.928785769893054,-0.9898203523190697,1.9615567715785498,-2.8632437333906378,1.4148600566386975,-0.2918726943153723
0.909236726797143,-1.001443347439604,1.9619501013952452,-2.8728720387324964,1.3962365701857924,-0.34501578298450963
0.8949296635532106,-1.006464455312251,1.9612198683716442,-2.8792629079343417,1.377422318390676,-0.39869919841386225
0.8801240126991078,-1.0065026009764269,1.9566212699573486,-2.87641973193193,1.3643253028590214,-0.44561125192650974
0.8726474440958313,-1.0122730230055212,1.9526330386834492,-2.8828762081726573,1.3530078382652075,-0.4952717228079141
0.8582175442862692,-1.0177753886328789,1.948038567688585,-2.893788989752043,1.3365083512440035,-0.5465276178253861
0.8502002126398064,-1.0194894915747852,1.9464876519258865,-2.8944472402095704,1.324956613474666,-0.5996897294260032
0.8422277755540754,-1.0226716304417687,1.9422747236647016,-2.9052979175448024,1.3095959326949913,-0.6466260493176405
0.8378303348452489,-1.0236895023312476,1.9377684341051646,-2.9124402806025893,1.2998242762144705,-0.69628579466629
0.8335560484449782,-1.0206098233364747,1.935460193937209,-2.921947963938988,1.2874763629492452,-0.7458593692996599
0.8260592915608083,-1.0228642725005617,1.9309005550637377,-2.936000721164249,1.280841126335428,-0.7954356009082314
0.8190425250708361,-1.021437098499885,1.9341811710069494,-2.9414021520214746,1.2765446470808397,-0.8450118212109071
0.8209535162111434,-1.0204759441159013,1.9295659339980151,-2.9511424690479044,1.2679862805461632,-0.8962696316988982
0.8170905495009595,-1.0210579868363812,1.9249671840730251,-2.9628110747492427,1.2619415046870903,-0.9494317213695304
0.811858710992303,-1.0178998619358106,1.919845443785738,-2.9714062110017294,1.2548485454476879,-1.0017805172804126
0.8076120924594578,-1.0165281517689735,1.9123837205099763,-2.9788435968938933,1.2496895441953448,-1.0554693237730615
0.8058554389785201,-1.0156366817063558,1.9092606397540506,-2.97770935975316,1.2457156199764599,-1.1066386583514556
0.8052180395438252,-1.016114518657864,1.9074271334869275,-2.977177941126768,1.2447037933856058,-1.1561645117926116
0.8103282452136925,-1.011758964277201,1.9100572642187186,-2.9788807721453567,1.2436131291245378,-1.2057424063514353
0.810333315968762,-1.0087045203443255,1.9108709007315983,-2.989055752634031,1.2470380481855563,-1.2553186003820473
0.8153878725099833,-1.0049868576704,1.9105387724233107,-2.986144548246258,1.2501686301916572,-1.3090261830902234
0.8208608585576023,-1.0062615355311555,1.9112036539120831,-2.980026394287303,1.2539814225722894,-1.35593739637861
0.8298800356434395,-1.0005039397634334,1.9082244756832787,-2.9715247736582624,1.256735997625675,-1.4055980344278514
0.8372313766492983,-0.9965547195400264,1.9086669903996611,-2.967182751165556,1.2578479496129589,-1.4551716778423096
0.8481887847562364,-0.9910674475064382,1.9101123423981377,-2.96635369185217,1.2640671645944268,-1.5064295965548127
0.8572685181704177,-0.9886140602784251,1.9114939251263474,-2.966338030923884,1.268700142390849,-1.5559527029765434
0.8651932519629218,-0.9876619482788122,1.9133673107331464,-2.9609393187495403,1.2753355978324796,-1.6072117030457067
0.8732470216455417,-0.9838533026979541,1.9131550278952214,-2.9517565554552876,1.283797414431429,-1.6567347753595787
0.8830957294830672,-0.9837771131075695,1.9156717290400394,-2.944345746566798,1.2914130808745599,-1.706312779155286
0.8951643171741261,-0.981358500698073,1.9153681506873232,-2.9339576250967454,1.3031420884433096,-1.7575706079041027
0.9150112919200872,-0.977692867532496,1.918669489858077,-2.928786015874515,1.3161778783419222,-1.809947327787832
0.9293173276063071,-0.9684772764446479,1.9259370731652417,-2.917718475130942,1.32543053364505,-1.856920459642794
0.9403785388757732,-0.9670056741374525,1.929769986898837,-2.90691874996235,1.3365922431589474,-1.906579153910781
0.9502443433568194,-0.9618978335449851,1.938913099839732,-2.892816221863798,1.346519653666246,-1.9561528592329334
0.9704368042612913,-0.954166707197129,1.9449503762986873,-2.8736021372973415,1.3624456447797715,-2.0098604728201557
0.9853114950935299,-0.9504189030501641,1.9486513531280318,-2.8716031840026455,1.3756068435083497,-2.0610294586653626
0.9969979370921356,-0.9480884378086835,1.9537789600541764,-2.862848246162372,1.3902824350976037,-2.1147262736612435
1.0190960593427387,-0.9413625895451151,1.9568070706495717,-2.8590988385325655,1.4013067162874338,-2.165895497591364
1.035493241038367,-0.9427892387281039,1.9656053901366917,-2.8518067970425163,1.4118613305777692,-2.215421430650277
1.0530475618128963,-0.9368960422390565,1.9715763798966623,-2.840788033752763,1.4241304745138381,-2.2666803856134865
1.0703405995649897,-0.9294788425392179,1.9771500754680569,-2.8423727820331464,1.4393523718016674,-2.316203480401602
1.0917767937397835,-0.9303075330985373,1.9832754995891422,-2.83436980313638,1.4491146819000533,-2.3657815070944257
1.1051087168531009,-0.9295581171528611,1.9908725087111878,-2.8286928420644335,1.4578187151043054,-2.4194890857631677
1.1129945629713567,-0.9261924713777644,1.9998300920386518,-2.8246864918543046,1.4700939416111025,-2.4664002860700993
1.1235233353639913,-0.9268056421901313,2.0056008256642417,-2.817772510581659,1.4793092542818238,-2.5160609317901126
1.1390450768834435,-0.924116975105467,2.0114720261494963,-2.8120459125681156,1.48887805617573,-2.5651870580009533
1.1559778841136576,-0.9212206072288109,2.016363168337818,-2.802443550103893,1.502435406699572,-2.60514543796655
1.1693526578358526,-0.9197989540113057,2.0175162523038903,-2.7930499684875705,1.5125870675065405,-2.6357503432299465
1.1772247506033044,-0.9242865311381471,2.022597785859147,-2.783366070652491,1.5231179139253355,-2.6770101867033573
1.1852860967680345,-0.9244926501333434,2.0269474086852393,-2.778261962860738,1.5300638585405497,-2.72625702488309
1.193469767623346,-0.9201906176676854,2.031920658350714,-2.777940888788016,1.5371086170323098,-2.756498033306412
1.2020101620269739,-0.9275849494147098,2.0353109920187076,-2.7781819652543143,1.540109624277931,-2.7852622821061757
1.206468276618617,-0.9266638875487664,2.0402280718179377,-2.7825755407691544,1.5462508664052566,-2.8064736316486716
1.2113314161264475,-0.9217466900272409,2.0418391907036777,-2.775955437435977,1.5570773427382962,-2.8346396855352243
1.2113625976941556,-0.9217135297469873,2.0418474613100344,-2.7759070552828455,1.5571485577150617,-2.8348224829264863
1.2170688993607615,-0.9152228504251471,2.060232913102622,-2.7735891395944505,1.5615150180628659,-2.8236819262905066
1.2209530419044003,-0.9108018662869081,2.072742044913251,-2.7720121349043203,1.564484879514936,-2.8161043251778253
1.2235939993038096,-0.9077961970106594,2.081248049369498,-2.770939725491422,1.5665045534277215,-2.8109510499373243
1.2253896405159252,-0.9057527766772856,2.087031844731187,-2.770210490074102,1.5678779566751981,-2.8074467345201524
1.2266105340605356,-0.9043635373371077,2.0909645932882697,-2.7697146215729944,1.5688118637054818,-2.805063810862113
1.2274406452196325,-0.9034190444180059,2.09363869322873,-2.7693774416933956,1.5694469101532418,-2.8034434471642653
1.2280050554778639,-0.9027769158168351,2.0954569628916837,-2.7691481674561853,1.5698787341584732,-2.8023416189431347
1.2283888101726572,-0.902340353195084,2.096693304874205,-2.768992266679718,1.5701723697838628,-2.801592387978344
1.2286497333347792,-0.9020435476643031,2.0975339618369024,-2.7688862580742115,1.5703720392994494,-2.801082918156077
1.2288271407112474,-0.9018417583732017,2.0981055707299485,-2.7688141748907924,1.570507813065651,-2.8007364827987056
1.2289477639018007,-0.901704567640003,2.0984942390500554,-2.768765160133576,1.5706001384108867,-2.8005009090587283
1.2290297782887805,-0.9016112955121703,2.0987585160259075,-2.7687318313211318,1.570662919210883,-2.8003407201888972
1.2290855417046636,-0.9015478823537298,2.098938212492416,-2.7687091685549676,1.5707056099267407,-2.8002317924574673
1.2291234565070503,-0.9015047694517797,2.0990603980205758,-2.7686937584323217,1.570734639495791,-2.8001577219838296
1.2291494810533445,-0.897409905027707,2.098760403139838,-2.772368170511114,1.5707543795402026,-2.8001073542464794
1.2291668537196572,-0.8946227434932787,2.0985568082400916,-2.7748666662184283,1.5707678027446375,-2.8000731042873324
1.2291786876638326,-0.8927276372808666,2.098418318978198,-2.776565651577689,1.570776930510111,-2.800049814380178
1.2291867516384827,-0.8914390966766185,2.0983241145820517,-2.777720967902099,1.5707831373840684,-2.8000339772788263
1.2291922465027914,-0.8905629789984263,2.098260033855504,-2.7785065871672985,1.5707873580557972,-2.800023208069276
1.2291959906560168,-0.8899672801764225,2.098216444094124,-2.779040811060435,1.570790228111875,-2.8000158850173578
1.2291985418405595,-0.8895622465952086,2.0981867929055245,-2.779404085193318,1.570792179750096,-2.8000109053478366
1.2292002801363935,-0.8892868520511181,2.0981666231752207,-2.7796511128807397,1.5707935068644567,-2.80000751917573
1.229201464541707,-0.8890996029881515,2.098152903042386,-2.7798190925743507,1.570794409302638,-2.8000052165804363
1.2292022715401476,-0.8889722866895945,2.0981435701406057,-2.7799333193538187,1.5707950229609728,-2.800003650816595
1.2292028213864086,-0.888885720481725,2.098137221581444,-2.780010993962832,1.570795440248944,-2.8000025860977105
1.229203439883244,-0.8847467142926032,2.0976946029429655,-2.7837080687592732,1.570795724004071,-2.800001862095764
1.2292035409959763,-0.8819295316966733,2.0973940152962323,-2.7862219748590853,1.5707959169566834,-2.8000013697734816
1.2292036318405102,-0.8800140116877693,2.097189573617863,-2.787931439144041,1.5707960481656538,-2.8000010349946303
1.229203711538661,-0.878711590208422,2.0970505234543073,-2.78909388107798,1.5707961373877117,-2.800000807345153
1.2292037777928402,-0.8778260339131582,2.096955948883985,-2.7898843457278137,1.5707961980586813,-2.8000006525435794
1.2292038309633873,-0.877223917104629,2.096891624176541,-2.790421864466136,1.5707962393149357,-2.800000547278542
1.2292038725989747,-0.8768145194868833,2.096847873813152,-2.790787379084188,1.5707962673691938,-2.800000475698334
1.2292039046171754,-0.8765361575351162,2.096818117043114,-2.79103593029575,1.5707962864461003,-2.8000004270238006
1.2292039288992027,-0.876346890731411,2.0967978779939513,-2.791204945982244,1.570796299418407,-2.8000003939251212
1.2292039471118468,-0.8762182024369527,2.0967841124126707,-2.7913198772347196,1.5707963082395846,-2.800000371418021
1.2292039606497107,-0.8761307033195623,2.096774749755981,-2.7913980308840887,1.5707963142379955,-2.8000003561131934
1.2292042127578378,-0.8719776154710626,2.0962749896790087,-2.7950537828466704,1.5707963183174238,-2.8000003457081353
1.229204067013076,-0.8691508521856602,2.0959355352518734,-2.797539589339881,1.5707963210900295,-2.8000003386325685
1.2292039898812914,-0.8672288176886861,2.095704665026715,-2.799229945850908,1.5707963229765431,-2.8000003338212256
1.229203955249478,-0.8659219667255825,2.095547644096497,-2.800379394487525,1.5707963242592773,-2.800000330549518
1.2292039436846782,-0.8650333986437418,2.0954408498455614,-2.801161023691794,1.5707963251314592,-2.8000003283247588
1.2292039438865319,-0.8644292340036541,2.0953682160548643,-2.8016925343261847,1.5707963257245001,-2.800000326811923
1.2292039494676483,-0.8640184439873875,2.095318815718223,-2.802053963433389,1.5707963261277462,-2.800000325783196
1.2292039569441944,-0.8637391352920728,2.0952852171043888,-2.802299736497629,1.5707963264019427,-2.800000325083661
1.2292039645209842,-0.8635492247627988,2.095262365695119,-2.802466863044054,1.5707963265883933,-2.8000003246079777
1.2292039713624558,-0.8634200987761077,2.095246823772554,-2.8025805096813907,1.5707963267151783,-2.800000324284513
1.229203977159953,-0.8633323020561776,2.0952362532469593,-2.8026577897925593,1.5707963268013954,-2.800000324064557
1.2292042221282133,-0.8591666985313717,2.094680725654467,-2.8062703107082885,1.5707963268605982,-2.8000003239167692
1.22920407395293,-0.8563314198225521,2.0943033387987815,-2.808726720011468,1.5707963268994058,-2.8000003238162328
1.2292039950215419,-0.8544035951948344,2.0940466753618794,-2.8103970863930576,1.5707963269269472,-2.800000323747895
1.229203959035677,-0.8530928072912111,2.0938721156743143,-2.8115329417309876,1.57079632694558,-2.8000003237014233
1.2292039464592304,-0.8522015623378811,2.09375339549649,-2.812305327488882,1.5707963269581746,-2.800000323669822
1.2292039459104787,-0.8515955775982513,2.0936726523665548,-2.812830552578798,1.5707963269666947,-2.8000003236483324
1.229203950938153,-0.8511835500339382,2.093617737876852,-2.81318770751555,1.5707963269724665,-2.800000323633719
1.229203958008913,-0.8509033998881809,2.0935803897730874,-2.8134305741438865,1.5707963269763805,-2.8000003236237823
1.2292039652896594,-0.8507129172289213,2.093554988801743,-2.8135957243139504,1.5707963269790381,-2.800000323617025
1.2292039719161092,-0.8505834022323182,2.0935377132388107,-2.8137080270154167,1.570796326980844,-2.80000032361243
1.2292039775580479,-0.8504953410118948,2.0935259638797654,-2.81378439325024,1.5707963269820744,-2.8000003236093054
1.2292042204165536,-0.8463183617013833,2.0929148495327867,-2.817352699105849,1.5707963269834557,-2.800000323608874
1.229204073397206,-0.843475343102983,2.092499653285291,-2.8197790420896243,1.5707963269829315,-2.800000323608547
1.2292039950935418,-0.8415422556892448,2.092217280301635,-2.821428963334104,1.5707963269837335,-2.8000003236083493
1.2292039593948791,-0.8402278894242958,2.092025238746974,-2.8225509159681548,1.5707963269841845,-2.800000323608214
1.229203946916532,-0.8393342114227024,2.0918946313262583,-2.8233138478841373,1.5707963269844145,-2.80000032360812
1.2292039463675468,-0.838726572375977,2.0918058051612776,-2.823832644360599,1.5707963269845266,-2.8000003236080557
1.2292039513491628,-0.8383134199974248,2.0917453944047466,-2.8241854278399763,1.570796326984581,-2.8000003236080118
1.2292039583572194,-0.8380325050567572,2.091704308973282,-2.824425321877286,1.5707963269846066,-2.8000003236079825
1.2292039655739129,-0.8378415023909037,2.091676366709907,-2.8245884506854955,1.5707963269846208,-2.8000003236079616
1.229203972142211,-0.8377116338266619,2.091657363130056,-2.8246993788609474,1.57079632698463,-2.8000003236079474
1.2292039777346717,-0.8376233322053712,2.091644438761386,-2.824774810418117,1.570796326984637,-2.8000003236079376
1.2292042184317546,-0.8334360929958503,2.090977915726986,-2.828297962826227,1.5707963269851914,-2.8000003236099054
1.2292040726947995,-0.8305860937130173,2.090525031298184,-2.8306936013870154,1.5707963269840963,-2.800000323611211
1.2292039950938498,-0.8286482597550879,2.0902170311907167,-2.8323226435843414,1.5707963269845153,-2.8000003236121236
1.2292039597244022,-0.827330666158505,2.090007563814439,-2.8334303984557483,1.5707963269847058,-2.8000003236127426
1.2292039473666394,-0.8264347937985481,2.0898651072602554,-2.8341836758898755,1.570796326984759,-2.8000003236131623
1.229203946828598,-0.8258256627467769,2.089768223973618,-2.8346959073177254,1.5707963269847514,-2.800000323613447
1.2292039517689703,-0.8254114959145286,2.0897023345706827,-2.835044226563817,1.5707963269847243,-2.80000032361364
1.2292039587157109,-0.8251298912207977,2.089657523792947,-2.8352810849224794,1.570796326984693,-2.800000323613771
1.2292039658680143,-0.8249384195745425,2.0896270483846067,-2.835442149469247,1.5707963269846696,-2.8000003236138604
1.2292039723770665,-0.8248082321389325,2.0896063223276378,-2.835551673946964,1.5707963269846537,-2.8000003236139217
1.2292039779187147,-0.8247197137091932,2.089592226716269,-2.8356261509897096,1.570796326984643,-2.8000003236139626
1.2292042163324175,-0.8205233105842272,2.0888704869629917,-2.8391032457258993,1.57079632698522,-2.8000003236154933
1.2292040719515915,-0.8176670762807698,2.0883800450214496,-2.8414675649911008,1.5707963269841307,-2.8000003236165023
1.229203995092798,-0.815725002812676,2.0880465066440768,-2.8430753100283725,1.5707963269845588,-2.800000323617213
1.229203960070662,-0.8144045266530684,2.0878196738643315,-2.8441685828204526,1.5707963269847558,-2.8000003236176947
1.2292039478398817,-0.813506694367261,2.0876654092592504,-2.844912012437407,1.570796326984812,-2.800000323618021
1.2292039473131426,-0.8128962307175686,2.0875604967859025,-2.8454175473486334,1.5707963269848073,-2.8000003236182422
1.229203952209811,-0.8124811578236828,2.0874891477315143,-2.8457613129631922,1.570796326984782,-2.8000003236183924
1.2292039590917307,-0.8121989370802235,2.0874406245235333,-2.845995074852398,1.5707963269847534,-2.800000323618494
1.2292039661760186,-0.8120070465695979,2.0874076247527604,-2.8461540337999707,1.5707963269847305,-2.8000003236185633
1.2292039726225161,-0.8118765743400089,2.0873851821905505,-2.846262126470277,1.5707963269847125,-2.8000003236186104
1.2292039781105313,-0.8117878622734109,2.087369919397194,-2.8463356298840177,1.5707963269847036,-2.8000003236186424
1.2292042141233066,-0.8075833697768553,2.086593168474741,-2.849765797759743,1.5707963269852676,-2.8000003236198934
1.2292040711702301,-0.8047216315297598,2.086065308929032,-2.8520982066813234,1.5707963269841623,-2.8000003236207127
1.229203995091918,-0.8027758156667902,2.0857063274183454,-2.853684252646409,1.5707963269845848,-2.8000003236212936
1.2292039604347056,-0.8014527949682452,2.085462193925128,-2.8547627700590223,1.5707963269847764,-2.8000003236216875
1.2292039483371693,-0.800553232602978,2.0852961652563087,-2.8554961660147407,1.5707963269848304,-2.800000323621954
1.2292039478221264,-0.799941592644021,2.0851832535061354,-2.8559948780353883,1.5707963269848237,-2.8000003236221342
1.2292039526727456,-0.7995257199600629,2.085106465138083,-2.856334004084126,1.5707963269847953,-2.800000323622257
1.2292039594864785,-0.7992429554283097,2.0850542433289254,-2.8565646110685545,1.5707963269847656,-2.80000032362234
1.229203966499261,-0.7990506951889013,2.0850187285990636,-2.8567214246809156,1.5707963269847423,-2.8000003236223963
1.2292039728800164,-0.7989199715760273,2.084994575925602,-2.8568280585233183,1.5707963269847254,-2.8000003236224345
1.2292039783116775,-0.7988310885908215,2.0849781502979807,-2.856900569934119,1.5707963269847143,-2.8000003236224607
1.229204211809395,-0.7946195582961115,2.084146606762418,-2.8602829777475964,1.5707963269852956,-2.800000323623822
1.229204070352709,-0.7917530315541086,2.083581478370031,-2.8625829097486792,1.5707963269841942,-2.8000003236247157
1.2292039950915155,-0.7898039597846449,2.0831971548793695,-2.8641468713698983,1.5707963269846217,-2.8000003236253477
1.2292039608159782,-0.7884787253451983,2.0829357894536873,-2.865210371418433,1.570796326984819,-2.8000003236257758
1.2292039488575588,-0.7875776578333035,2.082758043489917,-2.865933555563418,1.570796326984876,-2.8000003236260658
1.2292039483544812,-0.7869649945126277,2.08263716426413,-2.866425323551838,1.570796326984872,-2.8000003236262625
1.2292039531567125,-0.7865484260382787,2.082554958206183,-2.8667597276584336,1.5707963269848453,-2.8000003236263957
1.2292039598989604,-0.7862651884348407,2.0824990524993012,-2.866987123722186,1.5707963269848169,-2.8000003236264863
1.2292039668368382,-0.7860726065517635,2.0824610328082196,-2.86714175390852,1.5707963269847927,-2.8000003236265476
1.2292039731487534,-0.7859416642520142,2.0824351768217344,-2.8672469030212646,1.570796326984777,-2.8000003236265893
1.2292039785214228,-0.7858526325807504,2.082417592982426,-2.867318404815929,1.5707963269847665,-2.8000003236266178
1.2292042093945779,-0.7816350916644026,2.081531487774398,-2.870652256156674,1.570796326985329,-2.8000003236278506
1.2292040695006052,-0.7787644752774063,2.080929247718679,-2.872919169678621,1.5707963269842058,-2.800000323628658
1.2292039950919422,-0.7768126228030043,2.0805196891304556,-2.8744606786967584,1.5707963269846228,-2.800000323629231
1.2292039612142946,-0.7754854977459104,2.0802411644487155,-2.8755089109650926,1.5707963269848126,-2.800000323629619
1.2292039494007065,-0.774583144801539,2.0800517506073994,-2.876221713016425,1.570796326984865,-2.8000003236298814
1.2292039489098927,-0.7739696075181001,2.0799229375080954,-2.8767064211802467,1.5707963269848575,-2.8000003236300595
1.2292039536615147,-0.7735524448400736,2.0798353366085047,-2.8770360246058875,1.5707963269848293,-2.8000003236301803
1.2292039603291245,-0.7732688032407915,2.0797757625399163,-2.87726015620657,1.5707963269847993,-2.800000323630262
1.2292039671888402,-0.7730759466834917,2.0797352484515743,-2.8774125665580486,1.5707963269847747,-2.8000003236303175
1.2292039734289473,-0.7729448176346285,2.0797076963351975,-2.877516206183127,1.5707963269847567,-2.8000003236303552
1.229203978740094,-0.7728556589940021,2.0796889591684877,-2.8775866815262092,1.5707963269847454,-2.800000323630381
1.2292042068829538,-0.7686331089001873,2.0787485349654413,-2.880871217462368,1.5707963269852638,-2.800000323631228
1.229204068614979,-0.7657590842107418,2.0781093484148734,-2.8831045964321564,1.5707963269841039,-2.800000323631773
1.2292039950925526,-0.7638049143282949,2.077674667040881,-2.884623301918271,1.5707963269844996,-2.800000323632167
1.229203961628155,-0.7624762136819178,2.0773790594711117,-2.885656027774891,1.5707963269846743,-2.8000003236324336
1.2292039499647407,-0.7615727895148894,2.0771780296797053,-2.886358285463192,1.5707963269847176,-2.800000323632614
1.229203949486381,-0.7609585239248194,2.077041318015644,-2.8868358234592493,1.5707963269847034,-2.8000003236327355
1.2292039541851962,-0.760540866084807,2.076948346283075,-2.8871605511705853,1.570796326984671,-2.800000323632818
1.2292039607750993,-0.7602568878349594,2.0768851201778014,-2.887381367285518,1.570796326984638,-2.800000323632874
1.2292039675534985,-0.760063802396133,2.0768421227926237,-2.8875315231067167,1.5707963269846112,-2.800000323632912
1.2292039737189278,-0.7599325177357614,2.076812882094247,-2.8876336296512393,1.5707963269845922,-2.8000003236329376
1.2292039789661096,-0.7598432532983704,2.0767929967324346,-2.8877030624995728,1.5707963269845815,-2.800000323632955
1.2292042042781326,-0.7556166685066076,2.0757985072662524,-2.8909375621305156,1.5707963269852059,-2.8000003236340003
1.2292040676972527,-0.7527398985114623,2.0751225469101966,-2.8931369163364975,1.5707963269841114,-2.800000323634681
1.2292039950936529,-0.7507838620431115,2.0746628601759305,-2.894632484947438,1.5707963269845555,-2.800000323635167
1.229203962057416,-0.7494538923532837,2.074350249563119,-2.89564947771918,1.570796326984763,-2.800000323635496
1.229203950549426,-0.7485496054054962,2.074137658113167,-2.8963410369067546,1.5707963269848293,-2.8000003236357185
1.2292039500837963,-0.7479347532428859,2.0739930848005224,-2.8968112999214295,1.5707963269848304,-2.800000323635869
1.2292039547277656,-0.7475166966156647,2.0738947673365677,-2.8971310806452033,1.5707963269848078,-2.800000323635971
1.2292039612370687,-0.747232447247092,2.073827906262741,-2.897348532808571,1.5707963269847813,-2.8000003236360405
1.229203967931162,-0.7470391774863363,2.0737824371864164,-2.8974964011427304,1.5707963269847598,-2.8000003236360875
1.2292039740191891,-0.7469077675135858,2.0737515157974755,-2.8975969521961016,1.5707963269847434,-2.8000003236361195
1.2292039792000842,-0.7468184178818834,2.073730487606443,-2.8976653273104795,1.5707963269847345,-2.8000003236361413
1.2292042015846456,-0.7425887447860957,2.0726821969736378,-2.900849108194641,1.5707963269852945,-2.8000003236365965
1.2292040667488124,-0.7397098733735872,2.0719696425530283,-2.9030139735774694,1.5707963269841516,-2.8000003236368762
1.2292039263228243,-0.7377823411603875,2.0714742282353362,-2.9044925820836816,1.5707966116952776,-2.80000032363708
1.229203816519683,-0.7364622493174099,2.0711406612741383,-2.905495946191012,1.570796712422101,-2.8000003236372186
1.2292037304887096,-0.7355632258695238,2.0709142681262915,-2.906177943273916,1.5707967682747352,-2.8000003236373185
1.2292036696326252,-0.7349510017666788,2.070760623204697,-2.9066415030200954,1.570796797558246,-2.8000003236373887
1.2292036292783746,-0.7345340824926953,2.070656358060898,-2.9069565876324313,1.570796811568478,-2.800000323637437
1.2292036040498935,-0.7342501511697022,2.070585611016264,-2.907170749328503,1.5707968170336104,-2.8000003236374695
1.2292035893767057,-0.7340567923296161,2.070537607406558,-2.907316315060491,1.570796818030806,-2.8000003236374913
1.2292035817363685,-0.7339251133503486,2.0705050369835383,-2.90741525586037,1.5707968168931907,-2.8000003236375055
1.2404423980678785,-0.774178002704981,2.038182198144662,-2.8945749501233484,1.5741765610367353,-2.8001339789270574
1.2593566247578816,-0.7981773472802275,2.027641093871722,-2.88149030311437,1.5716169806360836,-2.8152081556765474
1.266946627676669,-0.8163023024720139,2.022658200954106,-2.8743364243382907,1.5707862277624065,-2.8268307132257555
1.2791029456007061,-0.8318504076355174,2.0181496675193187,-2.8648983651132123,1.5695254709241078,-2.8313030167894917
1.2887602930083928,-0.8490161178508052,2.0126338028731143,-2.8546107262254736,1.5703348986404173,-2.8553945589875487
1.290919430151722,-0.8599884856243251,2.013806061666297,-2.8443102836571104,1.567904067755372,-2.8664651453473735
1.2963591771762297,-0.870577615354099,2.0138511448737675,-2.8340447935615045,1.5694493475733873,-2.8859798922796998
1.2965608145614975,-0.8882437847865833,2.0150556332428766,-2.8235498623622037,1.569813693469625,-2.895793296305504
1.2965579957431146,-0.8888466323703205,2.0150982519509406,-2.8231982238041993,1.5698228413476596,-2.896103402249476
1.2961219937623223,-0.8934507743304544,2.0437011149285356,-2.8068274798192463,1.570134227159528,-2.8864728500703793
1.2958270296933894,-0.8965794198263167,2.0631586690351305,-2.795692009712931,1.5703460768928093,-2.879920809447532
1.2956263745851526,-0.8987072221750861,2.076389514015505,-2.7881189849476087,1.5704901595146747,-2.87546463747895
1.2954898501127685,-0.9001543265236628,2.08538615494886,-2.7829690548862542,1.5705881391509935,-2.8724343269452692
1.2953969564289862,-0.9011384818151232,2.091503610828881,-2.779467023948321,1.5706547640203037,-2.870373752567606
1.2953337485344854,-0.9018077869548219,2.095663293254537,-2.7770856232286207,1.5707000672338034,-2.8689726130392814
1.2952907391984423,-0.9022629662015554,2.0984917461189205,-2.7754662679294313,1.5707308721776496,-2.8680198757072533
1.2952614735383448,-0.9025725221794126,2.100415003609,-2.7743651077285905,1.5707518187618443,-2.867372037831092
1.2952415596221192,-0.902783042898826,2.101722756748854,-2.7736163207809015,1.5707660619822923,-2.8669315218401232
1.2952280090743669,-0.9029262121350897,2.102611986595474,-2.7731071473301947,1.5707757471120303,-2.8666319787647834
1.2952187884948154,-0.9030235773848875,2.1032166340758622,-2.7727609106200584,1.5707823328543762,-2.8664282938159205
1.295212514265904,-0.9030897926000109,2.103627774746207,-2.772525470526761,1.5707868110780212,-2.866289790445892
1.2952082449037616,-0.9031348235614559,2.103907337055097,-2.772365371862249,1.5707898562251261,-2.866195609468595
1.2952053397712677,-0.9031654477293686,2.104097430346751,-2.77225650517892,1.570791926900275,-2.86613156712322
1.2952033629423059,-0.903186274265308,2.1042266876113294,-2.7721824761115883,1.5707933349456147,-2.8660880187213316
1.295202264564044,-0.8991172118227481,2.1039303407185623,-2.77583353615454,1.5707942924089573,-2.866058405989352
1.2952011932535659,-0.8963475914544627,2.1037292237370897,-2.778316152300507,1.5707949434783304,-2.8660382694353026
1.295200486302514,-0.894464411454701,2.1035924201731158,-2.7800043394532645,1.5707953862043094,-2.866024576644823
1.2952000231782814,-0.8931839794388039,2.10349936258892,-2.7811523129334095,1.5707956872566122,-2.866015265583385
1.295199720101161,-0.8923133747597761,2.1034360620627357,-2.7819329390235215,1.570795891971421,-2.8660089340812367
1.2951995219849848,-0.8917214242073213,2.1033930030890042,-2.782463767530656,1.5707960311770928,-2.8660046286704577
1.295199392650715,-0.8913189390640762,2.1033637130073752,-2.782824732783154,1.570796125836748,-2.8660017009969474
1.2951993083454936,-0.8910452771977819,2.1033437889464928,-2.783070190419967,1.5707961902052217,-2.8659997101821317
1.2951992534844117,-0.8908592061805877,2.1033302359482398,-2.7832371024711873,1.570796233975749,-2.865998356429789
1.2951992178505103,-0.8907326908354417,2.1033210167519334,-2.7833506032485116,1.5707962637397037,-2.865997435879144
1.2951991947529102,-0.890646669196962,2.1033147455491545,-2.783427784172532,1.5707962839792042,-2.8659968099052233
1.2951994250837948,-0.8864904476540632,2.1028708545787738,-2.787140782114056,1.5707962977414038,-2.865996384249214
1.2951992604181353,-0.8836615570687859,2.102569398007113,-2.789665515989378,1.570796307098282,-2.865996094802096
1.295199170674126,-0.8817380756178909,2.1023643656288677,-2.7913823431718683,1.5707963134621135,-2.865995897978362
1.2951991276828707,-0.8804302403392371,2.102224913953393,-2.792549791879186,1.5707963177894375,-2.8659957641383684
1.29519911058272,-0.8795410026499789,2.1021300664664397,-2.793343661135672,1.5707963207319529,-2.865995673127242
1.2951991071223499,-0.8789363824875094,2.102065556251034,-2.793883495006629,1.5707963227328314,-2.86599561123971
1.2951991102825677,-0.8785252825855205,2.1020216797932014,-2.794250583914834,1.5707963240934153,-2.865995569156203
1.2951991161601695,-0.8782457630783558,2.101991837313446,-2.794500205643642,1.5707963250186088,-2.8659955405394273
1.2951991226818347,-0.8780557091357456,2.101971540005047,-2.7946699492818228,1.5707963256477442,-2.8659955210800216
1.2951991288276847,-0.8779264855861387,2.1019577348233214,-2.7947853755414216,1.5707963260755589,-2.865995507847628
1.2951991341670164,-0.8778386224948919,2.101948345249059,-2.794863865795624,1.5707963263664793,-2.8659954988496
1.295199382089461,-0.8736678035537652,2.1014470811039083,-2.7985358426007716,1.570796326564775,-2.8659954927327793
1.2951992316814973,-0.8708289816470347,2.1011066000973417,-2.8010326820251725,1.5707963266981717,-2.865995488573208
1.2951991515068995,-0.8688987472995541,2.1008750319644216,-2.802730540940489,1.5707963267900331,-2.865995485744742
1.295199114908,-0.8675863204336963,2.1007175366193938,-2.8038850912157125,1.5707963268524048,-2.8659954838213912
1.2951991020741707,-0.8666939607370743,2.100610419876832,-2.80467018953541,1.570796326894743,-2.865995482513517
1.2951991014592266,-0.8660872177992074,2.100537566866469,-2.805204059168672,1.5707963269234904,-2.8659954816241617
1.295199106516041,-0.8656746745409818,2.100488017510938,-2.805567092395238,1.5707963269430172,-2.8659954810194006
1.2951991136570848,-0.8653941736416392,2.1004543175984303,-2.8058139562606916,1.5707963269562852,-2.865995480608164
1.2951991210199503,-0.8652034524140474,2.1004313973292064,-2.805981824551963,1.5707963269653047,-2.865995480328522
1.2951991277255712,-0.8650737751528235,2.1004158085975533,-2.8060959755758064,1.5707963269714378,-2.865995480138366
1.2951991334371977,-0.8649856035664586,2.1004052062524035,-2.8061735986698064,1.5707963269756096,-2.8659954800090595
1.2951993798606731,-0.8608023780993277,2.099848012753573,-2.809802073630303,1.570796326985219,-2.8659954800692957
1.29519923088749,-0.8579551150334873,2.0994694892097225,-2.812269331720819,1.5707963269902951,-2.865995480110214
1.2951991515397967,-0.8560191410534486,2.099212052995985,-2.8139470752883446,1.5707963269949032,-2.865995480138065
1.29519911537129,-0.8547028115847617,2.099036967986367,-2.8150879471162424,1.5707963269979421,-2.865995480157003
1.2951991027381582,-0.8538077983655605,2.0989178907025794,-2.8158637440884355,1.5707963269999305,-2.8659954801698806
1.2951991021962759,-0.8531992512049108,2.0988369048170035,-2.816391288804437,1.5707963270012406,-2.8659954801786363
1.2951991072592555,-0.8527854811944826,2.098781825305159,-2.8167500210870475,1.5707963270021092,-2.8659954801845897
1.295199114374723,-0.8525041461856286,2.098744365021335,-2.816993960310609,1.5707963270026883,-2.8659954801886376
1.295199121699873,-0.852312857819707,2.0987188877912555,-2.817159839845444,1.5707963270030778,-2.8659954801913905
1.295199128365995,-0.8521827949427692,2.098701560388445,-2.817272638514964,1.5707963270033423,-2.8659954801932623
1.295199134041329,-0.8520943611638742,2.0986897757891674,-2.8173493420080664,1.5707963270035235,-2.865995480194535
1.2951993781187423,-0.847899892697654,2.098076838819755,-2.820933312328166,1.5707963269980068,-2.865995480051027
1.2951992301719562,-0.8450449800843559,2.09766039926026,-2.8233703071833123,1.570796326992788,-2.8659954799534075
1.2951991513619106,-0.8431038047490699,2.09737718100051,-2.8250274717103396,1.5707963269904006,-2.8659954798870526
1.2951991154176792,-0.8417839386906638,2.0971845648280576,-2.826154349779895,1.5707963269886818,-2.8659954798419287
1.295199102838701,-0.8408865208270174,2.097053566782886,-2.82692063099309,1.5707963269874359,-2.8659954798112435
1.2951991022659126,-0.8402763386732903,2.09696447507148,-2.8274417049920024,1.5707963269865464,-2.865995479790377
1.2951991072614364,-0.8398614569817726,2.0969038837962954,-2.827796037186761,1.5707963269859189,-2.8659954797761875
1.2951991142992814,-0.8395793661082884,2.0968626756479747,-2.828036984350573,1.570796326985481,-2.865995479766538
1.2951991215499845,-0.839387563808182,2.0968346499614086,-2.828200829284819,1.5707963269851788,-2.8659954797599765
1.2951991281507174,-0.8392571514927247,2.0968155896702356,-2.828312244425985,1.5707963269849732,-2.8659954797555147
1.2951991337715358,-0.8391684801206821,2.0968026267490125,-2.8283880071198446,1.570796326984834,-2.8659954797524807
1.2951993758049083,-0.8349638983433734,2.096134126391345,-2.8319265226229198,1.570796326985353,-2.86599547975215
1.2951992292532395,-0.832102104777644,2.095679893398378,-2.8343326081224136,1.5707963269842282,-2.8659954797518923
1.2951991512204364,-0.8301562507138485,2.095370976448301,-2.8359687542475496,1.5707963269846303,-2.8659954797517417
1.2951991156543157,-0.8288332034369631,2.0951608857927444,-2.837081339793082,1.570796326984809,-2.865995479751638
1.2951991032279406,-0.8279336225709005,2.0950180055268883,-2.837837902086635,1.5707963269848528,-2.8659954797515663
1.295199102687027,-0.8273219697335068,2.0949208341963,-2.838352367219224,1.5707963269848397,-2.8659954797515166
1.2951991076549647,-0.826906088086385,2.0948547489776086,-2.838702205384651,1.5707963269848084,-2.8659954797514824
1.2951991146403896,-0.8266233173182426,2.094809805081816,-2.838940096608501,1.5707963269847758,-2.8659954797514593
1.2951991218324836,-0.8264310527412464,2.0947792391780315,-2.8391018635036134,1.5707963269847507,-2.8659954797514433
1.2951991283777196,-0.826300326112676,2.0947584516009905,-2.839211865578212,1.5707963269847325,-2.8659954797514327
1.2951991339501518,-0.8262114410317031,2.0947443141673796,-2.839286667386842,1.5707963269847196,-2.865995479751425
1.2951993736758964,-0.8219978556471459,2.0940204462149943,-2.842778813949889,1.5707963269852412,-2.8659954797529523
1.295199228498226,-0.819129936127526,2.0935285530597447,-2.8451533684900947,1.570796326984109,-2.8659954797539586
1.295199151217498,-0.8171799167166324,2.0931940280430097,-2.8467680735233376,1.5707963269845118,-2.8659954797546674
1.2951991160035656,-0.8158540373059135,2.092966524525896,-2.8478660791157377,1.5707963269846903,-2.865995479755148
1.2951991037062054,-0.8149525308047234,2.092811803940208,-2.848612727037881,1.5707963269847343,-2.8659954797554743
1.2951991031770949,-0.8143395686863347,2.0927065814817944,-2.84912045039695,1.5707963269847212,-2.8659954797556946
1.29519910810107,-0.8139227968325737,2.092635021692894,-2.84946570415615,1.5707963269846894,-2.8659954797558442
1.2951991150210882,-0.8136394207957576,2.092586355222921,-2.8497004779837494,1.5707963269846563,-2.865995479755946
1.29519912214449,-0.8134467446852821,2.0925532580593855,-2.849860125049448,1.570796326984632,-2.8659954797560148
1.2951991286265205,-0.813315738247579,2.0925307492873055,-2.8499686856400896,1.570796326984613,-2.8659954797560614
1.2951991341447477,-0.8132266629193339,2.0925154414829037,-2.850042507239663,1.5707963269846017,-2.8659954797560934
1.295199371441237,-0.8090051615804872,2.091736415175125,-2.8534874062521838,1.5707963269851832,-2.865995479757452
1.2951992277078068,-0.8061318561028887,2.091207004276704,-2.855829832378142,1.5707963269840857,-2.8659954797583436
1.2951991512164411,-0.804178174524836,2.0908469680370443,-2.857422690050658,1.5707963269845147,-2.8659954797589746
1.2951991163715242,-0.8028498051281353,2.0906021175091842,-2.858505839427231,1.5707963269847114,-2.865995479759402
1.2951991042088522,-0.801946605642228,2.090435601380149,-2.859242385119364,1.5707963269847687,-2.8659954797596914
1.2951991036915058,-0.8013324924381521,2.0903223582405155,-2.8597432389610735,1.5707963269847645,-2.8659954797598877
1.295199108568853,-0.8009149379457762,2.090245344584152,-2.860083821448236,1.570796326984738,-2.8659954797600204
1.2951991154198648,-0.8006310297832723,2.090192969617228,-2.8603154188108317,1.5707963269847085,-2.8659954797601106
1.2951991224709147,-0.80043799187432,2.0901573507660287,-2.8604729058803633,1.5707963269846852,-2.865995479760172
1.2951991288864306,-0.8003067394457619,2.090133127307641,-2.8605799976736512,1.5707963269846699,-2.8659954797602136
1.2951991343476446,-0.8002174968656475,2.0901166535581903,-2.8606528204910573,1.57079632698466,-2.865995479760242
1.2951993691003991,-0.7959891437350787,2.089282691352534,-2.864049630061006,1.5707963269852154,-2.8659954797614087
1.2951992268808963,-0.7931111763133571,2.0887159141230356,-2.8663593552864675,1.570796326984091,-2.8659954797621703
1.2951991512161491,-0.7911543248806231,2.0883304696188922,-2.867929976308216,1.570796326984506,-2.8659954797627125
1.2951991167573476,-0.7898238002561805,2.0880683420887176,-2.8689980047518615,1.5707963269846943,-2.8659954797630793
1.2951991047354248,-0.7889191354111914,2.0878900780197394,-2.8697242682063977,1.570796326984746,-2.8659954797633276
1.2951991042302056,-0.7883040258999843,2.087768846567615,-2.870218130125599,1.5707963269847374,-2.865995479763496
1.2951991090586288,-0.7878857940137057,2.087686401053454,-2.870553958105223,1.5707963269847087,-2.86599547976361
1.2951991158373524,-0.7876014252886968,2.087630332555431,-2.8707823224026723,1.570796326984678,-2.8659954797636873
1.2951991228126496,-0.7874080742420347,2.0875922021928615,-2.8709376109879376,1.5707963269846528,-2.8659954797637406
1.2951991291585463,-0.7872766089104531,2.087566270967719,-2.8710432078119634,1.5707963269846352,-2.8659954797637757
1.295199134560099,-0.7871872215771647,2.087548635978295,-2.8711150140503037,1.5707963269846241,-2.8659954797638
1.2951993666582633,-0.7829530558803742,2.08665997293307,-2.8744629298339164,1.5707963269852347,-2.865995479765044
1.2951992260192626,-0.7800711335621077,2.0860559893575017,-2.8767394072056227,1.5707963269841423,-2.865995479765859
1.2951991512166308,-0.7781115930504345,2.08564524537638,-2.8782874196490544,1.570796326984583,-2.8659954797664366
1.2951991171601496,-0.7767792401117746,2.085365914815713,-2.8793400742491917,1.570796326984789,-2.8659954797668283
1.295199105284639,-0.7758733321991198,2.0851759531050424,-2.880055883486979,1.570796326984852,-2.8659954797670935
1.2951991047917821,-0.7752573775321944,2.085046767541476,-2.8805426365378604,1.5707963269848522,-2.865995479767273
1.2951991095689972,-0.7748385710303364,2.0849589134250386,-2.880873630486797,1.5707963269848286,-2.8659954797673945
1.2951991162722212,-0.7745538116289206,2.084899167208868,-2.881098707643356,1.5707963269848015,-2.865995479767477
1.2951991231684628,-0.774360194964931,2.084858536087194,-2.881251760972847,1.5707963269847782,-2.865995479767533
1.2951991294417329,-0.7742285490427103,2.084830904406471,-2.8813558378229835,1.5707963269847618,-2.8659954797675713
1.2951991347810625,-0.7741390389276767,2.084812113148426,-2.8814266104791098,1.5707963269847527,-2.865995479767597
1.295199364118344,-0.7699000735972263,2.0838689962575327,-2.884724866370988,1.57079632698528,-2.86599547976853
1.2951992251238078,-0.7670148855411962,2.083227974441232,-2.886967574937925,1.5707963269841232,-2.8659954797691327
1.2951991512173806,-0.7650531245623309,2.0827920452919484,-2.8884926245570766,1.5707963269845233,-2.865995479769566
1.2951991175787794,-0.7637192619517416,2.082495589426737,-2.8895296644266164,1.570796326984701,-2.8659954797698597
1.2951991058551182,-0.7628123276385846,2.0822939829251785,-2.8902348556444863,1.5707963269847458,-2.8659954797700578
1.2951991053748524,-0.7621956751429898,2.0821568791867797,-2.890714388440906,1.5707963269847331,-2.865995479770192
1.2951991100986688,-0.7617763942033993,2.082063640903652,-2.8910404726165786,1.5707963269847007,-2.865995479770283
1.2951991167233192,-0.7614913122433972,2.082000233584648,-2.891262211127296,1.5707963269846674,-2.8659954797703446
1.2951991235373372,-0.7612974762800849,2.081957113001686,-2.8914129941776436,1.5707963269846412,-2.8659954797703864
1.295199129735097,-0.7611656812620232,2.081927788547495,-2.891515527237997,1.5707963269846223,-2.865995479770415
1.2951991350097511,-0.7610760697807158,2.0819078462443934,-2.891585250117101,1.5707963269846108,-2.865995479770434
1.2951993614845336,-0.7568332902083406,2.080910533745959,-2.894833118808352,1.570796326985188,-2.865995479771202
1.2951992241957757,-0.753945506835537,2.0802326494442216,-2.8970415640012694,1.5707963269840586,-2.865995479771694
1.2951991512182157,-0.751981981259909,2.079771654637055,-2.898543314489833,1.570796326984481,-2.865995479772052
1.2951991180124016,-0.7506469189558944,2.0794581547298856,-2.8995645109406705,1.5707963269846739,-2.865995479772294
1.2951991064458028,-0.749739169018232,2.0792449586929087,-2.9002589286307683,1.5707963269847294,-2.8659954797724576
1.295199105978353,-0.7491219620151538,2.079099974351293,-2.9007311354274004,1.5707963269847225,-2.8659954797725677
1.2951991106466831,-0.7487023040917896,2.0790013774487477,-2.901052237922991,1.5707963269846974,-2.8659954797726424
1.2951991171898205,-0.7484169658388503,2.0789343263980924,-2.9012705888912267,1.5707963269846663,-2.865995479772693
1.2951991239185894,-0.7482229556347721,2.0788887281655963,-2.9014190684127144,1.5707963269846419,-2.865995479772727
1.2951991300380854,-0.7480910421592738,2.0788577189694917,-2.901520035073476,1.570796326984624,-2.8659954797727507
1.295199135245716,-0.7480013501448453,2.0788366310824933,-2.901588692800885,1.5707963269846144,-2.8659954797727667
1.2951993587610855,-0.7437557130415775,2.0777853917484963,-2.9047854862070075,1.570796326985189,-2.8659954797733582
1.2951992232366845,-0.7408659852596678,2.0770708278832677,-2.906959200129381,1.5707963269840526,-2.865995479773731
1.2951990860194096,-0.7389344332332647,2.0765729597529816,-2.9084444794229825,1.5707961901809786,-2.8659954797739955
1.295198977130503,-0.7376105274531021,2.076238072163842,-2.90945216577086,1.5707961436104712,-2.8659954797741793
1.2951988911793622,-0.7367087515902925,2.0760108282643603,-2.910137073057036,1.5707961186762747,-2.865995479774309
1.2951988299472903,-0.7360945457927383,2.075856638982623,-2.910602590660007,1.570796106309452,-2.865995479774399
1.2951987888890386,-0.735676200209892,2.0757520286369644,-2.910918991395013,1.5707961012060596,-2.865995479774461
1.2951987629217476,-0.7353912577525932,2.0756810596684176,-2.91113404057783,1.5707960998898327,-2.8659954797745026
1.2951987475120805,-0.7351971773320177,2.075632916070085,-2.911280203292595,1.5707961004944242,-2.8659954797745306
1.2951987391832525,-0.7350649843572673,2.0756002580146675,-2.9113795455788067,1.5707961019625842,-2.865995479774549
1.3107549192707066,-0.7670835001542232,2.0446214179824334,-2.902210957658218,1.5682573236190769,-2.8699592211930773
1.3208718162463933,-0.7889148550923418,2.0345467808656625,-2.8889348148707272,1.5702952605237221,-2.873387969763443
1.3356257031600864,-0.8099333829876957,2.0251908476979983,-2.87904764293325,1.572775133130876,-2.8904369820716997
1.345004555930891,-0.8362031118798922,2.023528188031057,-2.8672328082376843,1.57501880887148,-2.9035286801597913
1.3511986556727928,-0.8537169684608673,2.0217074164398867,-2.8551680345465047,1.567172731836943,-2.9176136081521356
1.3559971792942007,-0.8599991300450868,2.020671246912672,-2.849499998619621,1.5656757189935515,-2.919898816468505
1.3589220038549295,-0.8679272725487265,2.0181929023972014,-2.8437082183924,1.5660903330487341,-2.9212565249183293
1.3598087987285463,-0.8720732231674438,2.0188420288889746,-2.8403212798969926,1.5660708516833,-2.925595026146024
1.358297242263834,-0.880728045568662,2.020710300338367,-2.830620461596723,1.566270126818142,-2.935188230433552
1.3582108467167298,-0.8811660809191472,2.020792681819646,-2.830122581476028,1.5662838507636412,-2.935649762732459
1.3583528852379843,-0.8880713844995966,2.0471321398588023,-2.8112482542565824,1.56772731249398,-2.933668435786827
1.3584514482999621,-0.8927670213696092,2.0650493125493887,-2.798410633009172,1.5687093024699843,-2.9323205323257766
1.3585183582221045,-0.8959602146954734,2.0772326680834667,-2.789680192544656,1.5693771597040205,-2.9314038135075844
1.3585637537890565,-0.8981316666862317,2.08551703951497,-2.7837432310560852,1.569831317468401,-2.930780423606201
1.3585945503110888,-0.899608302046638,2.091150180276542,-2.7797060202413615,1.5701401397002175,-2.930356525075345
1.3586154417606597,-0.9006124437816582,2.094980551284701,-2.7769606963407965,1.5703501319504083,-2.930068283353282
1.3586296134087643,-0.9012952789985514,2.0975850890445753,-2.7750938721244056,1.5704929216513095,-2.9298722858188384
1.3586392264575242,-0.9017596191287848,2.0993560959133055,-2.7738244321093086,1.5705900155067165,-2.9297390117773165
1.3586457471499378,-0.9020753784072885,2.1005603266393313,-2.772961214195789,1.5706560374929353,-2.929648387935648
1.3586501701807252,-0.9022901000089075,2.1013791667104695,-2.7723742272067176,1.570700931405763,-2.92958676514278
1.3586531703184175,-0.9024361142273686,2.1019359528626698,-2.7719750769615428,1.5707314586898955,-2.929544862433514
1.3586552052897187,-0.902535406260374,2.1023145503572858,-2.771703655441512,1.5707522169258858,-2.929516369026555
1.3586565855846768,-0.9026029264314547,2.102571985023413,-2.7715190892563055,1.570766332352837,-2.9294969937484794
1.3586575218145243,-0.9026488412169834,2.1027470326838116,-2.771393584557463,1.570775930748579,-2.9294838186898273
1.358658156838868,-0.9026800639913131,2.102866059710744,-2.771308241571315,1.5707824576062548,-2.9294748597211213
1.3586588339595322,-0.8986228028395133,2.1025630684889998,-2.77494718742289,1.5707868958407587,-2.9294687676283835
1.3586589703718408,-0.8958612072077549,2.1023574346898593,-2.777421565846043,1.5707899138251469,-2.929464625023868
1.3586590845515492,-0.8939834835972915,2.102217559888297,-2.779104151311809,1.5707919660472152,-2.9294618080647816
1.3586591797113912,-0.8927067616381571,2.102122413986646,-2.780248315626222,1.5707933615535887,-2.9294598925390987
1.3586592562108624,-0.8918386796039043,2.102057693489693,-2.7810263514729416,1.570794310495424,-2.9294585899851544
1.3586593161690015,-0.8912484443198966,2.102013668993988,-2.7815554186080216,1.5707949557745469,-2.929457704250381
1.3586593623000394,-0.89084712547229,2.1019837223970126,-2.7819151861233844,1.570795394563656,-2.929457101951771
1.3586593972943883,-0.8905742566291206,2.1019633519325898,-2.7821598292962957,1.5707956929398927,-2.929456692389277
1.358659423545791,-0.8903887248292053,2.1019494953981654,-2.7823261875103644,1.5707958958355561,-2.9294564138870856
1.3586594430609176,-0.8902625761264127,2.1019400698096087,-2.782439311677343,1.5707960338045233,-2.929456224505762
1.3586594574597168,-0.8901768037880483,2.101933658268445,-2.7825162365056473,1.5707961276233868,-2.9294560957265507
1.3586597129120985,-0.8860254611202354,2.101490027363419,-2.7862247069046906,1.5707961914194313,-2.9294560081595624
1.3586595658121599,-0.8831998885738568,2.1011887486438097,-2.7887463620398014,1.5707962347994437,-2.9294559486137817
1.3586594879783036,-0.8812786633810649,2.1009838371651974,-2.7904610956755227,1.5707962642989737,-2.929455908122728
1.358659453058526,-0.8799723623558005,2.1008444676613567,-2.791627120769877,1.5707962843585508,-2.9294558805888364
1.3586594414285564,-0.8790841679570479,2.100749676023854,-2.792420021969169,1.570796297998987,-2.9294558618658026
1.3586594416755198,-0.8784802572308333,2.1006852037676564,-2.7929591975611134,1.570796307274443,-2.929455849134144
1.3586594473483715,-0.8780696397446572,2.1006413531096237,-2.793325838839557,1.5707963135817344,-2.929455840476619
1.358659454928923,-0.8777904482797321,2.100611528165293,-2.793575156180127,1.5707963178706852,-2.9294558345895023
1.3586594626047797,-0.8776006174055663,2.1005912427752618,-2.7937446928343164,1.5707963207871718,-2.9294558305862637
1.3586594695329013,-0.877471545542363,2.100577445694144,-2.793859978344815,1.5707963227703843,-2.9294558278640617
1.3586594754024313,-0.8773837855978196,2.100568061625661,-2.793938372889643,1.5707963241189733,-2.9294558260129646
1.3586597234845366,-0.8732177185962913,2.100067199312305,-2.7976060014029955,1.570796325035294,-2.92945582491931
1.3586595736619056,-0.8703821284085347,2.09972699257031,-2.8000998839787017,1.5707963256569597,-2.9294558241755717
1.3586594938521592,-0.8684540916265362,2.0994956108929754,-2.8017957322339377,1.5707963260808393,-2.92945582366986
1.358659457474881,-0.867143159106217,2.099338242294397,-2.8029489152593254,1.5707963263689828,-2.9294558233259744
1.3586594447739357,-0.8662518155647119,2.0992312117099505,-2.8037330838488272,1.5707963265648437,-2.9294558230921317
1.3586594442373436,-0.8656457636122088,2.0991584172671898,-2.8042663212654624,1.5707963266979867,-2.9294558229331193
1.358659449339318,-0.8652336902238699,2.099108907724157,-2.8046289245846943,1.5707963267885015,-2.92945582282499
1.358659456505567,-0.8649535088359199,2.099075234875028,-2.8048754961131532,1.5707963268500416,-2.929455822751462
1.358659463881836,-0.864763004875973,2.0990523330027258,-2.8050431656152672,1.5707963268918848,-2.929455822701463
1.3586594705940307,-0.8646334753566776,2.0990367567767927,-2.8051571814624845,1.5707963269203378,-2.9294558226674634
1.3586594763084006,-0.8645454042347736,2.0990261629326965,-2.8052347126363792,1.5707963269396887,-2.9294558226443437
1.3586597220633578,-0.8603668979237573,2.0984694170653313,-2.8088589166119644,1.5707963269546108,-2.929455822467474
1.3586595731041413,-0.8575228442728692,2.0980911989456863,-2.8113232704228346,1.5707963269633045,-2.9294558223471676
1.358659493733284,-0.8555890526919576,2.097833970374701,-2.8129990390773716,1.57079632697037,-2.929455822265385
1.3586594575229767,-0.8542742072559198,2.0976590265177535,-2.814138567963489,1.5707963269750793,-2.929455822209772
1.3586594448438953,-0.853380203179207,2.097540045187581,-2.8149134517349728,1.5707963269782053,-2.9294558221719535
1.3586594442589566,-0.8527723422354038,2.097459124530048,-2.8154403754743944,1.570796326980288,-2.929455822146236
1.3586594492846713,-0.8523590388523148,2.097404089359461,-2.8157986854928994,1.570796326981681,-2.9294558221287477
1.358659456369385,-0.8520780211499378,2.0973666592183418,-2.816042337576859,1.5707963269826175,-2.929455822116856
1.3586594636699452,-0.8518869485523255,2.097341202478968,-2.81620802185676,1.570796326983251,-2.929455822108769
1.3586594703168462,-0.8517570323977681,2.097323889005546,-2.8163206877529228,1.5707963269836804,-2.92945582210327
1.3586594759774069,-0.8516686983900329,2.0973121138753448,-2.816397300960141,1.5707963269839746,-2.9294558220995306
1.3586597198384152,-0.8474789129872541,2.0966996655411276,-2.8199770774021222,1.5707963269847283,-2.929455822098736
1.3586595722047177,-0.8446271852330902,2.096283559303389,-2.822411220410606,1.5707963269837741,-2.929455822098163
1.3586594935754464,-0.8426881755994552,2.0960005676554174,-2.8240664456792146,1.5707963269842857,-2.9294558220977986
1.3586594577285442,-0.8413697822197601,2.0958081055335795,-2.8251920050521395,1.5707963269845395,-2.9294558220975486
1.3586594451985357,-0.8404733657781447,2.0956772122119354,-2.825957389551338,1.5707963269846346,-2.9294558220973776
1.3586594446474476,-0.8398638645915025,2.095588191691639,-2.8264778537846413,1.570796326984657,-2.9294558220972604
1.3586594496498856,-0.8394494459575829,2.0955276488122747,-2.8268317713387536,1.5707963269846488,-2.9294558220971805
1.3586594566871182,-0.8391676699632121,2.0954864735635415,-2.8270724365469144,1.5707963269846315,-2.929455822097126
1.3586594639337939,-0.8389760817808541,2.0954584702422117,-2.827236089751314,1.5707963269846161,-2.9294558220970885
1.3586594705293333,-0.8388458150654222,2.095439425155006,-2.8273473745161826,1.570796326984606,-2.929455822097064
1.358659476144949,-0.8387572427013609,2.0954264725695033,-2.827423048554158,1.5707963269845995,-2.9294558220970464
1.3586597178288253,-0.8345573046647816,2.094758502622961,-2.8309574512983513,1.5707963269851877,-2.929455822098823
1.3586595714907843,-0.8316986692047224,2.0943046313743072,-2.8333607401126386,1.5707963269841125,-2.929455822099999
1.358659493571705,-0.8297549626507792,2.093995960362016,-2.8349949844892866,1.5707963269845464,-2.9294558221008233
1.3586594580578075,-0.828433375682587,2.093786036897753,-2.8361062768449834,1.5707963269847467,-2.9294558221013824
1.3586594456500662,-0.8275347878272098,2.093643270290391,-2.8368619597691738,1.5707963269848066,-2.9294558221017613
1.3586594451104548,-0.8269238102373686,2.093546176226211,-2.8373758269305087,1.570796326984804,-2.9294558221020184
1.3586594500715934,-0.8265083877586793,2.0934801435342156,-2.8377252584754507,1.570796326984779,-2.929455822102193
1.358659457047186,-0.8262259292250973,2.093435235346784,-2.8379628731973616,1.570796326984751,-2.929455822102311
1.3586594642290564,-0.826033876967605,2.0934046937180506,-2.8381244520711504,1.5707963269847285,-2.9294558221023914
1.3586594707649358,-0.8259032947162925,2.0933839226435484,-2.8382343262912473,1.570796326984713,-2.929455822102446
1.3586594763293656,-0.825814507811845,2.0933697964286173,-2.838309041158815,1.5707963269847025,-2.9294558221024833
1.3586597157108529,-0.8216055230742543,2.0926464993576728,-2.841797158549785,1.5707963269852632,-2.9294558221040923
1.3586595707410623,-0.8187407323411788,2.092154995480983,-2.8441689732441855,1.5707963269841607,-2.9294558221051545
1.3586594935707594,-0.8167928405037538,2.0918207351239997,-2.8457818151798726,1.5707963269845824,-2.929455822105901
1.3586594584073164,-0.81546840784544,2.091593411528126,-2.8468785538651136,1.570796326984775,-2.9294558221064073
1.35865944612776,-0.8145678851369608,2.0914388132566075,-2.847624340290128,1.5707963269848277,-2.92945582210675
1.3586594455996266,-0.81395559199811,2.0913336739499906,-2.848131477831064,1.5707963269848204,-2.929455822106983
1.358659450516744,-0.8135392750506727,2.09126217068953,-2.8484763332339056,1.5707963269847924,-2.9294558221071405
1.358659457427001,-0.813256208350273,2.091213542648884,-2.84871083617917,1.570796326984763,-2.9294558221072475
1.358659464540303,-0.813063742588625,2.0911804716105062,-2.848870299044877,1.570796326984738,-2.9294558221073204
1.358659471013112,-0.8129328791881578,2.091157980598937,-2.848978734379521,1.57079632698472,-2.9294558221073697
1.3586594765234645,-0.8128439011252531,2.0911426848685655,-2.8490524708050153,1.5707963269847107,-2.9294558221074034
1.3586597134833054,-0.8086269538199913,2.090364268919223,-2.8524934267590307,1.570796326985259,-2.9294558221086695
1.358659569953247,-0.8057567454152003,2.08983527415772,-2.8548331715967845,1.570796326984139,-2.929455822109499
1.3586594935698784,-0.8038051698459577,2.0894755208401814,-2.8564242059910527,1.570796326984553,-2.9294558221100875
1.358659458774329,-0.8024782325382022,2.0892308626509926,-2.857506115537636,1.5707963269847396,-2.929455822110486
1.3586594466290618,-0.8015760068741946,2.089064477279301,-2.858241818145129,1.5707963269847898,-2.9294558221107554
1.35865944611267,-0.8009625558697295,2.088951323032357,-2.858742098689202,1.5707963269847818,-2.9294558221109384
1.3586594509833125,-0.8005454516734825,2.0888743698079213,-2.8590822913339435,1.5707963269847527,-2.9294558221110623
1.3586594578247835,-0.8002618497125703,2.0888220359244802,-2.859313623603684,1.570796326984722,-2.929455822111146
1.358659464865961,-0.8000690200208329,2.0887864450031177,-2.85947093041007,1.5707963269846967,-2.9294558221112035
1.3586594712724622,-0.7999379091800661,2.0887622405323216,-2.8595778996244148,1.5707963269846794,-2.929455822111242
1.3586594767259788,-0.799848762879695,2.0887457796912483,-2.85965063908814,1.570796326984669,-2.9294558221112683
1.3586597111497847,-0.7956249137927915,2.08791246627449,-2.863043594043753,1.5707963269852705,-2.929455822112607
1.3586595691288679,-0.7927500094328834,2.0873461313281916,-2.8653506981234163,1.5707963269841807,-2.9294558221134857
1.3586594935695224,-0.7907952408822133,2.0869609875243342,-2.866919536763888,1.5707963269846186,-2.9294558221141074
1.3586594591588728,-0.7894661326210877,2.0866990644210155,-2.867986353187526,1.5707963269848217,-2.9294558221145284
1.3586594471539053,-0.7885624309049531,2.0865209393286763,-2.8687117924682224,1.5707963269848835,-2.9294558221148135
1.3586594466495918,-0.7879479763223384,2.0863998023579016,-2.869205093949136,1.5707963269848817,-2.9294558221150075
1.3586594514714534,-0.7875301897880602,2.0863174210756443,-2.869540540830698,1.5707963269848577,-2.929455822115138
1.3586594582408502,-0.7872461239027548,2.086261396244873,-2.8697686459814546,1.5707963269848302,-2.929455822115227
1.3586594652065032,-0.787052978787302,2.0862232955689577,-2.8699237583469652,1.5707963269848064,-2.9294558221152873
1.3586594715435951,-0.7869216534890776,2.0861973845259434,-2.8700292353415544,1.5707963269847909,-2.929455822115328
1.3586594769376301,-0.7868323613785582,2.086179763257114,-2.8701009600958765,1.5707963269847809,-2.929455822115356
1.3586597087149042,-0.7826026465020359,2.085291786324944,-2.8734451118366646,1.5707963269853016,-2.9294558221164584
1.3586595682696332,-0.7797237510346544,2.084688270426128,-2.8757190296515684,1.5707963269841496,-2.929455822117177
1.3586594935697849,-0.7777662687824065,2.0842778444116106,-2.877265301594374,1.5707963269845477,-2.929455822117689
1.3586594595602426,-0.7764353154642724,2.0839987300179406,-2.878316772653385,1.5707963269847256,-2.929455822118036
1.3586594477012512,-0.775530359295781,2.083808915266544,-2.8790317770829854,1.5707963269847696,-2.9294558221182703
